Pecniks/lidar-robot-demo/20210303/KAREL - data about moving/covr_x 13-jan-00 674040219.csv
Time [ms];X;Y;Z;W;P;R;J1;J2;J3;J4;J5;J6;
 0; 1080.711; 0.000; 869.289; -180.000; -45.000; 0.000; 0.000; 0.000; 0.000; 0.000; -45.000; 0.000;
 8; 1080.711; 0.000; 869.289; -180.000; -45.000; 0.000; 0.000; 0.000; 0.000; 0.000; -45.000; 0.000;
 16; 1080.711; 0.000; 869.289; -180.000; -45.000; 0.000; 0.000; 0.000; 0.000; 0.000; -45.000; 0.000;
 24; 1080.711; 0.000; 869.289; -180.000; -45.000; 0.000; 0.000; 0.000; 0.000; 0.000; -45.000; 0.000;
 32; 1080.711; 0.000; 869.289; -180.000; -45.000; 0.000; 0.000; 0.000; 0.000; 0.000; -45.000; 0.000;
 40; 1080.711; 0.000; 869.289; -180.000; -45.000; 0.000; 0.000; 0.000; 0.000; 0.000; -45.000; 0.000;
 56; 1080.711; 0.000; 869.289; -180.000; -45.000; 0.000; 0.000; 0.000; 0.000; 0.000; -45.000; 0.000;
 64; 1080.711; 0.000; 869.289; -180.000; -45.000; 0.000; 0.000; 0.000; 0.000; 0.000; -45.000; 0.000;
 72; 1080.711; 0.000; 869.289; -180.000; -45.000; 0.000; 0.000; 0.000; 0.000; 0.000; -45.000; 0.000;
 80; 1080.711; 0.000; 869.289; -180.000; -45.000; 0.000; 0.000; 0.000; 0.000; 0.000; -45.000; 0.000;
 88; 1080.711; 0.000; 869.289; -180.000; -45.000; 0.000; 0.000; 0.000; 0.000; 0.000; -45.000; 0.000;
 96; 1080.711; 0.000; 869.289; -180.000; -45.000; 0.000; 0.000; 0.000; 0.000; 0.000; -45.000; 0.000;
 104; 1080.711; 0.000; 869.289; -180.000; -45.000; 0.000; 0.000; 0.000; 0.000; 0.000; -45.000; 0.000;
 112; 1080.711; 0.000; 869.289; -180.000; -45.000; 0.000; 0.000; 0.000; 0.000; 0.000; -45.000; 0.000;
 120; 1080.711; 0.000; 869.289; -180.000; -45.000; 0.000; 0.000; 0.000; 0.000; 0.000; -45.000; 0.000;
 128; 1080.711; 0.000; 869.289; -180.000; -45.000; 0.000; 0.000; 0.000; 0.000; 0.000; -45.000; 0.000;
 136; 1080.711; 0.000; 869.289; -180.000; -45.000; 0.000; 0.000; 0.000; 0.000; 0.000; -45.000; 0.000;
 144; 1080.711; 0.000; 869.289; -180.000; -45.000; 0.000; 0.000; 0.000; 0.000; 0.000; -45.000; 0.000;
 152; 1080.711; 0.000; 869.289; -180.000; -45.000; 0.000; 0.000; 0.000; 0.000; 0.000; -45.000; 0.000;
 160; 1080.711; 0.000; 869.289; -180.000; -45.000; 0.000; 0.000; 0.000; 0.000; 0.000; -45.000; 0.000;
 168; 1080.711; 0.000; 869.289; -180.000; -45.000; 0.000; 0.000; 0.000; 0.000; 0.000; -45.000; 0.000;
 184; 1080.711; 0.000; 869.289; -180.000; -45.000; 0.000; 0.000; 0.000; 0.000; 0.000; -45.000; 0.000;
 192; 1080.711; 0.000; 869.289; -180.000; -45.000; 0.000; 0.000; 0.000; 0.000; 0.000; -45.000; 0.000;
 200; 1080.711; 0.000; 869.289; -180.000; -45.000; 0.000; 0.000; 0.000; 0.000; 0.000; -45.000; 0.000;
 208; 1080.711; 0.000; 869.289; -180.000; -45.000; 0.000; 0.000; 0.000; 0.000; 0.000; -45.000; 0.000;
 216; 1080.711; 0.000; 869.289; -180.000; -45.000; 0.000; 0.000; 0.000; 0.000; 0.000; -45.000; 0.000;
 224; 1080.711; 0.000; 869.289; -180.000; -45.000; 0.000; 0.000; 0.000; 0.000; 0.000; -45.000; 0.000;
 232; 1080.711; 0.000; 869.289; -180.000; -45.000; 0.000; 0.000; 0.000; 0.000; 0.000; -45.000; 0.000;
 240; 1080.711; 0.000; 869.289; -180.000; -45.000; 0.000; 0.000; 0.000; 0.000; 0.000; -45.000; 0.000;
 248; 1080.711; 0.000; 869.289; -180.000; -45.000; 0.000; 0.000; 0.000; 0.000; 0.000; -45.000; 0.000;
 256; 1080.711; 0.000; 869.289; -180.000; -45.000; 0.000; 0.000; 0.000; 0.000; 0.000; -45.000; 0.000;
 264; 1080.711; 0.000; 869.289; -180.000; -45.000; 0.000; 0.000; 0.000; 0.000; 0.000; -45.000; 0.000;
 272; 1080.711; 0.000; 869.289; -180.000; -45.000; 0.000; 0.000; 0.000; 0.000; 0.000; -45.000; 0.000;
 280; 1080.711; 0.000; 869.289; -180.000; -45.000; 0.000; 0.000; 0.000; 0.000; 0.000; -45.000; 0.000;
 288; 1080.711; 0.000; 869.289; -180.000; -45.000; 0.000; 0.000; 0.000; 0.000; 0.000; -45.000; 0.000;
 296; 1080.711; 0.000; 869.289; -180.000; -45.000; 0.000; 0.000; 0.000; 0.000; 0.000; -45.000; 0.000;
 312; 1080.711; 0.000; 869.289; -180.000; -45.000; 0.000; 0.000; 0.000; 0.000; 0.000; -45.000; 0.000;
 320; 1080.711; 0.000; 869.289; -180.000; -45.000; 0.000; 0.000; 0.000; 0.000; 0.000; -45.000; 0.000;
 328; 1080.711; 0.000; 869.289; -180.000; -45.000; 0.000; 0.000; 0.000; 0.000; 0.000; -45.000; 0.000;
 336; 1080.711; 0.000; 869.289; -180.000; -45.000; 0.000; 0.000; 0.000; 0.000; 0.000; -45.000; 0.000;
 344; 1080.711; 0.000; 869.289; -180.000; -45.000; 0.000; 0.000; 0.000; 0.000; 0.000; -45.000; 0.000;
 352; 1080.711; 0.000; 869.289; -180.000; -45.000; 0.000; 0.000; 0.000; 0.000; 0.000; -45.000; 0.000;
 360; 1080.711; 0.000; 869.289; -180.000; -45.000; 0.000; 0.000; 0.000; 0.000; 0.000; -45.000; 0.000;
 368; 1080.711; 0.000; 869.289; -180.000; -45.000; 0.000; 0.000; 0.000; 0.000; 0.000; -45.000; 0.000;
 376; 1080.711; 0.000; 869.289; -180.000; -45.000; 0.000; 0.000; 0.000; 0.000; 0.000; -45.000; 0.000;
 384; 1080.711; 0.000; 869.289; -180.000; -45.000; 0.000; 0.000; 0.000; 0.000; 0.000; -45.000; 0.000;
 392; 1080.711; 0.000; 869.289; -180.000; -45.000; 0.000; 0.000; 0.000; 0.000; 0.000; -45.000; 0.000;
 400; 1080.711; 0.000; 869.289; -180.000; -45.000; 0.000; 0.000; 0.000; 0.000; 0.000; -45.000; 0.000;
 408; 1080.711; 0.000; 869.289; -180.000; -45.000; 0.000; 0.000; 0.000; 0.000; 0.000; -45.000; 0.000;
 416; 1080.711; 0.000; 869.289; -180.000; -45.000; 0.000; 0.000; 0.000; 0.000; 0.000; -45.000; 0.000;
 424; 1080.711; 0.000; 869.289; -180.000; -45.000; 0.000; 0.000; 0.000; 0.000; 0.000; -45.000; 0.000;
 440; 1080.711; 0.000; 869.289; -180.000; -45.000; 0.000; 0.000; 0.000; 0.000; 0.000; -45.000; 0.000;
 448; 1080.711; 0.000; 869.289; -180.000; -45.000; 0.000; 0.000; 0.000; 0.000; 0.000; -45.000; 0.000;
 456; 1080.711; 0.000; 869.289; -180.000; -45.000; 0.000; 0.000; 0.000; 0.000; 0.000; -45.000; 0.000;
 464; 1080.711; 0.000; 869.289; -180.000; -45.000; 0.000; 0.000; 0.000; 0.000; 0.000; -45.000; 0.000;
 472; 1080.711; 0.000; 869.289; -180.000; -45.000; 0.000; 0.000; 0.000; 0.000; 0.000; -45.000; 0.000;
 480; 1080.711; 0.000; 869.289; -180.000; -45.000; 0.000; 0.000; 0.000; 0.000; 0.000; -45.000; 0.000;
 488; 1080.711; 0.000; 869.289; -180.000; -45.000; 0.000; 0.000; 0.000; 0.000; 0.000; -45.000; 0.000;
 496; 1080.711; 0.000; 869.289; -180.000; -45.000; 0.000; 0.000; 0.000; 0.000; 0.000; -45.000; 0.000;
 504; 1080.711; 0.000; 869.289; -180.000; -45.000; 0.000; 0.000; 0.000; 0.000; 0.000; -45.000; 0.000;
 512; 1080.711; 0.000; 869.289; -180.000; -45.000; 0.000; 0.000; 0.000; 0.000; 0.000; -45.000; 0.000;
 520; 1080.711; 0.000; 869.289; -180.000; -45.000; 0.000; 0.000; 0.000; 0.000; 0.000; -45.000; 0.000;
 528; 1080.711; 0.000; 869.289; -180.000; -45.000; 0.000; 0.000; 0.000; 0.000; 0.000; -45.000; 0.000;
 536; 1080.711; 0.000; 869.289; -180.000; -45.000; 0.000; 0.000; 0.000; 0.000; 0.000; -45.000; 0.000;
 544; 1080.711; 0.000; 869.289; -180.000; -45.000; 0.000; 0.000; 0.000; 0.000; 0.000; -45.000; 0.000;
 552; 1080.711; 0.000; 869.289; -180.000; -45.000; 0.000; 0.000; 0.000; 0.000; 0.000; -45.000; 0.000;
 568; 1080.711; 0.000; 869.289; -180.000; -45.000; 0.000; 0.000; 0.000; 0.000; 0.000; -45.000; 0.000;
 576; 1080.711; 0.000; 869.289; -180.000; -45.000; 0.000; 0.000; 0.000; 0.000; 0.000; -45.000; 0.000;
 584; 1080.711; 0.000; 869.289; -180.000; -45.000; 0.000; 0.000; 0.000; 0.000; 0.000; -45.000; 0.000;
 592; 1080.711; 0.000; 869.289; -180.000; -45.000; 0.000; 0.000; 0.000; 0.000; 0.000; -45.000; 0.000;
 600; 1080.711; 0.000; 869.289; -180.000; -45.000; 0.000; 0.000; 0.000; 0.000; 0.000; -45.000; 0.000;
 608; 1080.711; 0.000; 869.289; -180.000; -45.000; 0.000; 0.000; 0.000; 0.000; 0.000; -45.000; 0.000;
 616; 1080.711; 0.000; 869.289; -180.000; -45.000; 0.000; 0.000; 0.000; 0.000; 0.000; -45.000; 0.000;
 624; 1080.711; 0.000; 869.289; -180.000; -45.000; 0.000; 0.000; 0.000; 0.000; 0.000; -45.000; 0.000;
 632; 1080.711; 0.000; 869.289; -180.000; -45.000; 0.000; 0.000; 0.000; 0.000; 0.000; -45.000; 0.000;
 640; 1080.711; 0.000; 869.289; -180.000; -45.000; 0.000; 0.000; 0.000; 0.000; 0.000; -45.000; 0.000;
 648; 1080.711; 0.000; 869.289; -180.000; -45.000; 0.000; 0.000; 0.000; 0.000; 0.000; -45.000; 0.000;
 656; 1080.711; 0.000; 869.289; -180.000; -45.000; 0.000; 0.000; 0.000; 0.000; 0.000; -45.000; 0.000;
 664; 1080.711; 0.000; 869.289; -180.000; -45.000; 0.000; 0.000; 0.000; 0.000; 0.000; -45.000; 0.000;
 672; 1080.711; 0.000; 869.289; -180.000; -45.000; 0.000; 0.000; 0.000; 0.000; 0.000; -45.000; 0.000;
 680; 1080.711; 0.000; 869.289; -180.000; -45.000; 0.000; 0.000; 0.000; 0.000; 0.000; -45.000; 0.000;
 696; 1080.711; 0.000; 869.289; -180.000; -45.000; 0.000; 0.000; 0.000; 0.000; 0.000; -45.000; 0.000;
 704; 1080.711; 0.000; 869.289; -180.000; -45.000; 0.000; 0.000; 0.000; 0.000; 0.000; -45.000; 0.000;
 712; 1080.711; 0.000; 869.289; -180.000; -45.000; 0.000; 0.000; 0.000; 0.000; 0.000; -45.000; 0.000;
 720; 1080.711; 0.000; 869.289; -180.000; -45.000; 0.000; 0.000; 0.000; 0.000; 0.000; -45.000; 0.000;
 728; 1080.711; 0.000; 869.289; -180.000; -45.000; 0.000; 0.000; 0.000; 0.000; 0.000; -45.000; 0.000;
 736; 1080.711; 0.000; 869.289; -180.000; -45.000; 0.000; 0.000; 0.000; 0.000; 0.000; -45.000; 0.000;
 744; 1080.711; 0.000; 869.289; -180.000; -45.000; 0.000; 0.000; 0.000; 0.000; 0.000; -45.000; 0.000;
 752; 1080.711; 0.000; 869.289; -180.000; -45.000; 0.000; 0.000; 0.000; 0.000; 0.000; -45.000; 0.000;
 760; 1080.711; 0.000; 869.289; -180.000; -45.000; 0.000; 0.000; 0.000; 0.000; 0.000; -45.000; 0.000;
 768; 1080.711; 0.000; 869.289; -180.000; -45.000; 0.000; 0.000; 0.000; 0.000; 0.000; -45.000; 0.000;
 776; 1080.711; 0.000; 869.289; -180.000; -45.000; 0.000; 0.000; 0.000; 0.000; 0.000; -45.000; 0.000;
 784; 1080.711; 0.000; 869.289; -180.000; -45.000; 0.000; 0.000; 0.000; 0.000; 0.000; -45.000; 0.000;
 792; 1080.711; 0.000; 869.289; -180.000; -45.000; 0.000; 0.000; 0.000; 0.000; 0.000; -45.000; 0.000;
 800; 1080.711; 0.000; 869.289; -180.000; -45.000; 0.000; 0.000; 0.000; 0.000; 0.000; -45.000; 0.000;
 808; 1080.711; 0.000; 869.289; -180.000; -45.000; 0.000; 0.000; 0.000; 0.000; 0.000; -45.000; 0.000;
 824; 1080.711; 0.000; 869.289; -180.000; -45.000; 0.000; 0.000; 0.000; 0.000; 0.000; -45.000; 0.000;
 832; 1080.711; 0.000; 869.289; -180.000; -45.000; 0.000; 0.000; 0.000; 0.000; 0.000; -45.000; 0.000;
 840; 1080.711; 0.000; 869.289; -180.000; -45.000; 0.000; 0.000; 0.000; 0.000; 0.000; -45.000; 0.000;
 848; 1080.711; 0.000; 869.289; -180.000; -45.000; 0.000; 0.000; 0.000; 0.000; 0.000; -45.000; 0.000;
 856; 1080.711; 0.000; 869.289; -180.000; -45.000; 0.000; 0.000; 0.000; 0.000; 0.000; -45.000; 0.000;
 864; 1080.711; 0.000; 869.289; -180.000; -45.000; 0.000; 0.000; 0.000; 0.000; 0.000; -45.000; 0.000;
 872; 1080.711; 0.000; 869.289; -180.000; -45.000; 0.000; 0.000; 0.000; 0.000; 0.000; -45.000; 0.000;
 880; 1080.711; 0.000; 869.289; -180.000; -45.000; 0.000; 0.000; 0.000; 0.000; 0.000; -45.000; 0.000;
 888; 1080.711; 0.000; 869.289; -180.000; -45.000; 0.000; 0.000; 0.000; 0.000; 0.000; -45.000; 0.000;
 896; 1080.711; 0.000; 869.289; -180.000; -45.000; 0.000; 0.000; 0.000; 0.000; 0.000; -45.000; 0.000;
 904; 1080.711; 0.000; 869.289; -180.000; -45.000; 0.000; 0.000; 0.000; 0.000; 0.000; -45.000; 0.000;
 912; 1080.711; 0.000; 869.289; -180.000; -45.000; 0.000; 0.000; 0.000; 0.000; 0.000; -45.000; 0.000;
 920; 1080.711; 0.000; 869.289; -180.000; -45.000; 0.000; 0.000; 0.000; 0.000; 0.000; -45.000; 0.000;
 928; 1080.711; 0.000; 869.289; -180.000; -45.000; 0.000; 0.000; 0.000; 0.000; 0.000; -45.000; 0.000;
 936; 1080.711; 0.000; 869.289; -180.000; -45.000; 0.000; 0.000; 0.000; 0.000; 0.000; -45.000; 0.000;
 952; 1080.711; 0.000; 869.289; -180.000; -45.000; 0.000; 0.000; 0.000; 0.000; 0.000; -45.000; 0.000;
 960; 1080.711; 0.000; 869.289; -180.000; -45.000; 0.000; 0.000; 0.000; 0.000; 0.000; -45.000; 0.000;
 968; 1080.711; 0.000; 869.289; -180.000; -45.000; 0.000; 0.000; 0.000; 0.000; 0.000; -45.000; 0.000;
 976; 1080.711; 0.000; 869.289; -180.000; -45.000; 0.000; 0.000; 0.000; 0.000; 0.000; -45.000; 0.000;
 984; 1080.711; 0.000; 869.289; -180.000; -45.000; 0.000; 0.000; 0.000; 0.000; 0.000; -45.000; 0.000;
 992; 1080.711; 0.000; 869.289; -180.000; -45.000; 0.000; 0.000; 0.000; 0.000; 0.000; -45.000; 0.000;
 1000; 1080.711; 0.000; 869.289; -180.000; -45.000; 0.000; 0.000; 0.000; 0.000; 0.000; -45.000; 0.000;
 1008; 1080.711; 0.000; 869.289; -180.000; -45.000; 0.000; 0.000; 0.000; 0.000; 0.000; -45.000; 0.000;
 1016; 1080.711; 0.000; 869.289; -180.000; -45.000; 0.000; 0.000; 0.000; 0.000; 0.000; -45.000; 0.000;
 1024; 1080.711; 0.000; 869.289; -180.000; -45.000; 0.000; 0.000; 0.000; 0.000; 0.000; -45.000; 0.000;
 1032; 1080.711; 0.000; 869.289; -180.000; -45.000; 0.000; 0.000; 0.000; 0.000; 0.000; -45.000; 0.000;
 1040; 1080.711; 0.000; 869.289; -180.000; -45.000; 0.000; 0.000; 0.000; 0.000; 0.000; -45.000; 0.000;
 1048; 1080.711; 0.000; 869.289; -180.000; -45.000; 0.000; 0.000; 0.000; 0.000; 0.000; -45.000; 0.000;
 1056; 1080.711; 0.000; 869.289; -180.000; -45.000; 0.000; 0.000; 0.000; 0.000; 0.000; -45.000; 0.000;
 1064; 1080.711; 0.000; 869.289; -180.000; -45.000; 0.000; 0.000; 0.000; 0.000; 0.000; -45.000; 0.000;
 1080; 1080.711; 0.000; 869.289; -180.000; -45.000; 0.000; 0.000; 0.000; 0.000; 0.000; -45.000; 0.000;
 1088; 1080.711; 0.000; 869.289; -180.000; -45.000; 0.000; 0.000; 0.000; 0.000; 0.000; -45.000; 0.000;
 1096; 1080.711; 0.000; 869.289; -180.000; -45.000; 0.000; 0.000; 0.000; 0.000; 0.000; -45.000; 0.000;
 1104; 1080.711; 0.000; 869.289; -180.000; -45.000; 0.000; 0.000; 0.000; 0.000; 0.000; -45.000; 0.000;
 1112; 1080.711; 0.000; 869.289; -180.000; -45.000; 0.000; 0.000; 0.000; 0.000; 0.000; -45.000; 0.000;
 1120; 1080.711; 0.000; 869.289; -180.000; -45.000; 0.000; 0.000; 0.000; 0.000; 0.000; -45.000; 0.000;
 1128; 1080.711; 0.000; 869.289; -180.000; -45.000; 0.000; 0.000; 0.000; 0.000; 0.000; -45.000; 0.000;
 1136; 1080.711; 0.000; 869.289; -180.000; -45.000; 0.000; 0.000; 0.000; 0.000; 0.000; -45.000; 0.000;
 1144; 1080.711; 0.000; 869.289; -180.000; -45.000; 0.000; 0.000; 0.000; 0.000; 0.000; -45.000; 0.000;
 1152; 1080.711; 0.000; 869.289; -180.000; -45.000; 0.000; 0.000; 0.000; 0.000; 0.000; -45.000; 0.000;
 1160; 1080.711; 0.000; 869.289; -180.000; -45.000; 0.000; 0.000; 0.000; 0.000; 0.000; -45.000; 0.000;
 1168; 1080.711; 0.000; 869.289; -180.000; -45.000; 0.000; 0.000; 0.000; 0.000; 0.000; -45.000; 0.000;
 1176; 1080.711; 0.000; 869.289; -180.000; -45.000; 0.000; 0.000; 0.000; 0.000; 0.000; -45.000; 0.000;
 1184; 1080.711; 0.000; 869.289; -180.000; -45.000; 0.000; 0.000; 0.000; 0.000; 0.000; -45.000; 0.000;
 1192; 1080.711; 0.000; 869.289; -180.000; -45.000; 0.000; 0.000; 0.000; 0.000; 0.000; -45.000; 0.000;
 1208; 1080.711; 0.000; 869.289; -180.000; -45.000; 0.000; 0.000; 0.000; 0.000; 0.000; -45.000; 0.000;
 1216; 1080.711; 0.000; 869.289; -180.000; -45.000; 0.000; 0.000; 0.000; 0.000; 0.000; -45.000; 0.000;
 1224; 1080.711; 0.000; 869.289; -180.000; -45.000; 0.000; 0.000; 0.000; 0.000; 0.000; -45.000; 0.000;
 1232; 1080.711; 0.000; 869.289; -180.000; -45.000; 0.000; 0.000; 0.000; 0.000; 0.000; -45.000; 0.000;
 1240; 1080.711; 0.000; 869.289; -180.000; -45.000; 0.000; 0.000; 0.000; 0.000; 0.000; -45.000; 0.000;
 1248; 1080.711; 0.000; 869.289; -180.000; -45.000; 0.000; 0.000; 0.000; 0.000; 0.000; -45.000; 0.000;
 1256; 1080.711; 0.000; 869.289; -180.000; -45.000; 0.000; 0.000; 0.000; 0.000; 0.000; -45.000; 0.000;
 1264; 1080.711; 0.000; 869.289; -180.000; -45.000; 0.000; 0.000; 0.000; 0.000; 0.000; -45.000; 0.000;
 1272; 1080.711; 0.000; 869.289; -180.000; -45.000; 0.000; 0.000; 0.000; 0.000; 0.000; -45.000; 0.000;
 1280; 1080.711; 0.000; 869.289; -180.000; -45.000; 0.000; 0.000; 0.000; 0.000; 0.000; -45.000; 0.000;
 1288; 1080.711; 0.000; 869.289; -180.000; -45.000; 0.000; 0.000; 0.000; 0.000; 0.000; -45.000; 0.000;
 1296; 1080.711; 0.000; 869.289; -180.000; -45.000; 0.000; 0.000; 0.000; 0.000; 0.000; -45.000; 0.000;
 1304; 1080.711; 0.000; 869.289; -180.000; -45.000; 0.000; 0.000; 0.000; 0.000; 0.000; -45.000; 0.000;
 1312; 1080.711; 0.000; 869.289; -180.000; -45.000; 0.000; 0.000; 0.000; 0.000; 0.000; -45.000; 0.000;
 1320; 1080.711; 0.000; 869.289; -180.000; -45.000; 0.000; 0.000; 0.000; 0.000; 0.000; -45.000; 0.000;
 1336; 1080.711; 0.000; 869.289; -180.000; -45.000; 0.000; 0.000; 0.000; 0.000; 0.000; -45.000; 0.000;
 1344; 1080.711; 0.000; 869.289; -180.000; -45.000; 0.000; 0.000; 0.000; 0.000; 0.000; -45.000; 0.000;
 1352; 1080.711; 0.000; 869.289; -180.000; -45.000; 0.000; 0.000; 0.000; 0.000; 0.000; -45.000; 0.000;
 1360; 1080.711; 0.000; 869.289; -180.000; -45.000; 0.000; 0.000; 0.000; 0.000; 0.000; -45.000; 0.000;
 1368; 1080.711; 0.000; 869.289; -180.000; -45.000; 0.000; 0.000; 0.000; 0.000; 0.000; -45.000; 0.000;
 1376; 1080.711; 0.000; 869.289; -180.000; -45.000; 0.000; 0.000; 0.000; 0.000; 0.000; -45.000; 0.000;
 1384; 1080.711; 0.000; 869.289; -180.000; -45.000; 0.000; 0.000; 0.000; 0.000; 0.000; -45.000; 0.000;
 1392; 1080.711; 0.000; 869.289; -180.000; -45.000; 0.000; 0.000; 0.000; 0.000; 0.000; -45.000; 0.000;
 1400; 1080.711; 0.000; 869.289; -180.000; -45.000; 0.000; 0.000; 0.000; 0.000; 0.000; -45.000; 0.000;
 1408; 1080.711; 0.000; 869.289; -180.000; -45.000; 0.000; 0.000; 0.000; 0.000; 0.000; -45.000; 0.000;
 1416; 1080.711; 0.000; 869.289; -180.000; -45.000; 0.000; 0.000; 0.000; 0.000; 0.000; -45.000; 0.000;
 1424; 1080.711; 0.000; 869.289; -180.000; -45.000; 0.000; 0.000; 0.000; 0.000; 0.000; -45.000; 0.000;
 1432; 1080.711; 0.000; 869.289; -180.000; -45.000; 0.000; 0.000; 0.000; 0.000; 0.000; -45.000; 0.000;
 1440; 1080.711; 0.000; 869.289; -180.000; -45.000; 0.000; 0.000; 0.000; 0.000; 0.000; -45.000; 0.000;
 1448; 1080.711; 0.000; 869.289; -180.000; -45.000; 0.000; 0.000; 0.000; 0.000; 0.000; -45.000; 0.000;
 1464; 1080.711; 0.000; 869.289; -180.000; -45.000; 0.000; 0.000; 0.000; 0.000; 0.000; -45.000; 0.000;
 1472; 1080.711; 0.000; 869.289; -180.000; -45.000; 0.000; 0.000; 0.000; 0.000; 0.000; -45.000; 0.000;
 1480; 1080.711; 0.000; 869.289; -180.000; -45.000; 0.000; 0.000; 0.000; 0.000; 0.000; -45.000; 0.000;
 1488; 1080.711; 0.000; 869.289; -180.000; -45.000; 0.000; 0.000; 0.000; 0.000; 0.000; -45.000; 0.000;
 1496; 1080.711; 0.000; 869.289; -180.000; -45.000; 0.000; 0.000; 0.000; 0.000; 0.000; -45.000; 0.000;
 1504; 1080.711; 0.000; 869.289; -180.000; -45.000; 0.000; 0.000; 0.000; 0.000; 0.000; -45.000; 0.000;
 1512; 1080.711; 0.000; 869.289; -180.000; -45.000; 0.000; 0.000; 0.000; 0.000; 0.000; -45.000; 0.000;
 1520; 1080.711; 0.000; 869.289; -180.000; -45.000; 0.000; 0.000; 0.000; 0.000; 0.000; -45.000; 0.000;
 1528; 1080.711; 0.000; 869.289; -180.000; -45.000; 0.000; 0.000; 0.000; 0.000; 0.000; -45.000; 0.000;
 1536; 1080.711; 0.000; 869.289; -180.000; -45.000; 0.000; 0.000; 0.000; 0.000; 0.000; -45.000; 0.000;
 1544; 1080.711; 0.000; 869.289; -180.000; -45.000; 0.000; 0.000; 0.000; 0.000; 0.000; -45.000; 0.000;
 1552; 1080.711; 0.000; 869.289; -180.000; -45.000; 0.000; 0.000; 0.000; 0.000; 0.000; -45.000; 0.000;
 1560; 1080.711; 0.000; 869.289; -180.000; -45.000; 0.000; 0.000; 0.000; 0.000; 0.000; -45.000; 0.000;
 1568; 1080.711; 0.000; 869.289; -180.000; -45.000; 0.000; 0.000; 0.000; 0.000; 0.000; -45.000; 0.000;
 1576; 1080.711; 0.000; 869.289; -180.000; -45.000; 0.000; 0.000; 0.000; 0.000; 0.000; -45.000; 0.000;
 1592; 1080.711; 0.000; 869.289; -180.000; -45.000; 0.000; 0.000; 0.000; 0.000; 0.000; -45.000; 0.000;
 1600; 1080.711; 0.000; 869.289; -180.000; -45.000; 0.000; 0.000; 0.000; 0.000; 0.000; -45.000; 0.000;
 1608; 1080.711; 0.000; 869.289; -180.000; -45.000; 0.000; 0.000; 0.000; 0.000; 0.000; -45.000; 0.000;
 1616; 1080.711; 0.000; 869.289; -180.000; -45.000; 0.000; 0.000; 0.000; 0.000; 0.000; -45.000; 0.000;
 1624; 1080.711; 0.000; 869.289; -180.000; -45.000; 0.000; 0.000; 0.000; 0.000; 0.000; -45.000; 0.000;
 1632; 1080.711; 0.000; 869.289; -180.000; -45.000; 0.000; 0.000; 0.000; 0.000; 0.000; -45.000; 0.000;
 1640; 1080.711; 0.000; 869.289; -180.000; -45.000; 0.000; 0.000; 0.000; 0.000; 0.000; -45.000; 0.000;
 1648; 1080.711; 0.000; 869.289; -180.000; -45.000; 0.000; 0.000; 0.000; 0.000; 0.000; -45.000; 0.000;
 1656; 1080.711; 0.000; 869.289; -180.000; -45.000; 0.000; 0.000; 0.000; 0.000; 0.000; -45.000; 0.000;
 1664; 1080.711; 0.000; 869.289; -180.000; -45.000; 0.000; 0.000; 0.000; 0.000; 0.000; -45.000; 0.000;
 1672; 1080.711; 0.000; 869.289; -180.000; -45.000; 0.000; 0.000; 0.000; 0.000; 0.000; -45.000; 0.000;
 1680; 1080.711; 0.000; 869.289; -180.000; -45.000; 0.000; 0.000; 0.000; 0.000; 0.000; -45.000; 0.000;
 1688; 1080.711; 0.000; 869.289; -180.000; -45.000; 0.000; 0.000; 0.000; 0.000; 0.000; -45.000; 0.000;
 1696; 1080.711; 0.000; 869.289; -180.000; -45.000; 0.000; 0.000; 0.000; 0.000; 0.000; -45.000; 0.000;
 1704; 1080.711; 0.000; 869.289; -180.000; -45.000; 0.000; 0.000; 0.000; 0.000; 0.000; -45.000; 0.000;
 1720; 1080.711; 0.000; 869.289; -180.000; -45.000; 0.000; 0.000; 0.000; 0.000; 0.000; -45.000; 0.000;
 1728; 1080.711; 0.000; 869.289; -180.000; -45.000; 0.000; 0.000; 0.000; 0.000; 0.000; -45.000; 0.000;
 1736; 1080.711; 0.000; 869.289; -180.000; -45.000; 0.000; 0.000; 0.000; 0.000; 0.000; -45.000; 0.000;
 1744; 1080.711; 0.000; 869.289; -180.000; -45.000; 0.000; 0.000; 0.000; 0.000; 0.000; -45.000; 0.000;
 1752; 1080.711; 0.000; 869.289; -180.000; -45.000; 0.000; 0.000; 0.000; 0.000; 0.000; -45.000; 0.000;
 1760; 1080.711; 0.000; 869.289; -180.000; -45.000; 0.000; 0.000; 0.000; 0.000; 0.000; -45.000; 0.000;
 1768; 1080.711; 0.000; 869.289; -180.000; -45.000; 0.000; 0.000; 0.000; 0.000; 0.000; -45.000; 0.000;
 1776; 1080.711; 0.000; 869.289; -180.000; -45.000; 0.000; 0.000; 0.000; 0.000; 0.000; -45.000; 0.000;
 1784; 1080.711; 0.000; 869.289; -180.000; -45.000; 0.000; 0.000; 0.000; 0.000; 0.000; -45.000; 0.000;
 1792; 1080.711; 0.000; 869.289; -180.000; -45.000; 0.000; 0.000; 0.000; 0.000; 0.000; -45.000; 0.000;
 1800; 1080.711; 0.000; 869.289; -180.000; -45.000; 0.000; 0.000; 0.000; 0.000; 0.000; -45.000; 0.000;
 1808; 1080.711; 0.000; 869.289; -180.000; -45.000; 0.000; 0.000; 0.000; 0.000; 0.000; -45.000; 0.000;
 1816; 1080.711; 0.000; 869.289; -180.000; -45.000; 0.000; 0.000; 0.000; 0.000; 0.000; -45.000; 0.000;
 1824; 1080.711; 0.000; 869.289; -180.000; -45.000; 0.000; 0.000; 0.000; 0.000; 0.000; -45.000; 0.000;
 1832; 1080.711; 0.000; 869.289; -180.000; -45.000; 0.000; 0.000; 0.000; 0.000; 0.000; -45.000; 0.000;
 1848; 1080.711; 0.000; 869.289; -180.000; -45.000; 0.000; 0.000; 0.000; 0.000; 0.000; -45.000; 0.000;
 1856; 1080.711; 0.000; 869.289; -180.000; -45.000; 0.000; 0.000; 0.000; 0.000; 0.000; -45.000; 0.000;
 1864; 1080.711; 0.000; 869.289; -180.000; -45.000; 0.000; 0.000; 0.000; 0.000; 0.000; -45.000; 0.000;
 1872; 1080.711; 0.000; 869.289; -180.000; -45.000; 0.000; 0.000; 0.000; 0.000; 0.000; -45.000; 0.000;
 1880; 1080.711; 0.000; 869.289; -180.000; -45.000; 0.000; 0.000; 0.000; 0.000; 0.000; -45.000; 0.000;
 1888; 1080.711; 0.000; 869.289; -180.000; -45.000; 0.000; 0.000; 0.000; 0.000; 0.000; -45.000; 0.000;
 1896; 1080.711; 0.000; 869.289; -180.000; -45.000; 0.000; 0.000; 0.000; 0.000; 0.000; -45.000; 0.000;
 1904; 1080.711; 0.000; 869.289; -180.000; -45.000; 0.000; 0.000; 0.000; 0.000; 0.000; -45.000; 0.000;
 1912; 1080.711; 0.000; 869.289; -180.000; -45.000; 0.000; 0.000; 0.000; 0.000; 0.000; -45.000; 0.000;
 1920; 1080.711; 0.000; 869.289; -180.000; -45.000; 0.000; 0.000; 0.000; 0.000; 0.000; -45.000; 0.000;
 1928; 1080.711; 0.000; 869.289; -180.000; -45.000; 0.000; 0.000; 0.000; 0.000; 0.000; -45.000; 0.000;
 1936; 1080.711; 0.000; 869.289; -180.000; -45.000; 0.000; 0.000; 0.000; 0.000; 0.000; -45.000; 0.000;
 1944; 1080.711; 0.000; 869.289; -180.000; -45.000; 0.000; 0.000; 0.000; 0.000; 0.000; -45.000; 0.000;
 1952; 1080.711; 0.000; 869.289; -180.000; -45.000; 0.000; 0.000; 0.000; 0.000; 0.000; -45.000; 0.000;
 1960; 1080.711; 0.000; 869.289; -180.000; -45.000; 0.000; 0.000; 0.000; 0.000; 0.000; -45.000; 0.000;
 1976; 1080.711; 0.000; 869.289; -180.000; -45.000; 0.000; 0.000; 0.000; 0.000; 0.000; -45.000; 0.000;
 1984; 1080.711; 0.000; 869.289; -180.000; -45.000; 0.000; 0.000; 0.000; 0.000; 0.000; -45.000; 0.000;
 1992; 1080.711; 0.000; 869.289; -180.000; -45.000; 0.000; 0.000; 0.000; 0.000; 0.000; -45.000; 0.000;
 2000; 1080.711; 0.000; 869.289; -180.000; -45.000; 0.000; 0.000; 0.000; 0.000; 0.000; -45.000; 0.000;
 2008; 1080.711; 0.000; 869.289; -180.000; -45.000; 0.000; 0.000; 0.000; 0.000; 0.000; -45.000; 0.000;
 2016; 1080.711; 0.000; 869.289; -180.000; -45.000; 0.000; 0.000; 0.000; 0.000; 0.000; -45.000; 0.000;
 2024; 1080.711; 0.000; 869.289; -180.000; -45.000; 0.000; 0.000; 0.000; 0.000; 0.000; -45.000; 0.000;
 2032; 1080.711; 0.000; 869.289; -180.000; -45.000; 0.000; 0.000; 0.000; 0.000; 0.000; -45.000; 0.000;
 2040; 1080.711; 0.000; 869.289; -180.000; -45.000; 0.000; 0.000; 0.000; 0.000; 0.000; -45.000; 0.000;
 2048; 1080.711; 0.000; 869.289; -180.000; -45.000; 0.000; 0.000; 0.000; 0.000; 0.000; -45.000; 0.000;
 2056; 1080.711; 0.000; 869.289; -180.000; -45.000; 0.000; 0.000; 0.000; 0.000; 0.000; -45.000; 0.000;
 2064; 1080.711; 0.000; 869.289; -180.000; -45.000; 0.000; 0.000; 0.000; 0.000; 0.000; -45.000; 0.000;
 2072; 1080.711; 0.000; 869.289; -180.000; -45.000; 0.000; 0.000; 0.000; 0.000; 0.000; -45.000; 0.000;
 2080; 1080.711; 0.000; 869.289; -180.000; -45.000; 0.000; 0.000; 0.000; 0.000; 0.000; -45.000; 0.000;
 2088; 1080.711; 0.000; 869.289; -180.000; -45.000; 0.000; 0.000; 0.000; 0.000; 0.000; -45.000; 0.000;
 2104; 1080.711; 0.000; 869.289; -180.000; -45.000; 0.000; 0.000; 0.000; 0.000; 0.000; -45.000; 0.000;
 2112; 1080.711; 0.000; 869.289; -180.000; -45.000; 0.000; 0.000; 0.000; 0.000; 0.000; -45.000; 0.000;
 2120; 1080.711; 0.000; 869.289; -180.000; -45.000; 0.000; 0.000; 0.000; 0.000; 0.000; -45.000; 0.000;
 2128; 1080.711; 0.000; 869.289; -180.000; -45.000; 0.000; 0.000; 0.000; 0.000; 0.000; -45.000; 0.000;
 2136; 1080.711; 0.000; 869.289; -180.000; -45.000; 0.000; 0.000; 0.000; 0.000; 0.000; -45.000; 0.000;
 2144; 1080.711; 0.000; 869.289; -180.000; -45.000; 0.000; 0.000; 0.000; 0.000; 0.000; -45.000; 0.000;
 2152; 1080.711; 0.000; 869.289; -180.000; -45.000; 0.000; 0.000; 0.000; 0.000; 0.000; -45.000; 0.000;
 2160; 1080.711; 0.000; 869.289; -180.000; -45.000; 0.000; 0.000; 0.000; 0.000; 0.000; -45.000; 0.000;
 2168; 1080.711; 0.000; 869.289; -180.000; -45.000; 0.000; 0.000; 0.000; 0.000; 0.000; -45.000; 0.000;
 2176; 1080.711; 0.000; 869.289; -180.000; -45.000; 0.000; 0.000; 0.000; 0.000; 0.000; -45.000; 0.000;
 2184; 1080.711; 0.000; 869.289; -180.000; -45.000; 0.000; 0.000; 0.000; 0.000; 0.000; -45.000; 0.000;
 2192; 1080.711; 0.000; 869.289; -180.000; -45.000; 0.000; 0.000; 0.000; 0.000; 0.000; -45.000; 0.000;
 2200; 1080.711; 0.000; 869.289; -180.000; -45.000; 0.000; 0.000; 0.000; 0.000; 0.000; -45.000; 0.000;
 2208; 1080.711; 0.000; 869.289; -180.000; -45.000; 0.000; 0.000; 0.000; 0.000; 0.000; -45.000; 0.000;
 2216; 1080.711; 0.000; 869.289; -180.000; -45.000; 0.000; 0.000; 0.000; 0.000; 0.000; -45.000; 0.000;
 2232; 1080.711; 0.000; 869.289; -180.000; -45.000; 0.000; 0.000; 0.000; 0.000; 0.000; -45.000; 0.000;
 2240; 1080.711; 0.000; 869.289; -180.000; -45.000; 0.000; 0.000; 0.000; 0.000; 0.000; -45.000; 0.000;
 2248; 1080.711; 0.000; 869.289; -180.000; -45.000; 0.000; 0.000; 0.000; 0.000; 0.000; -45.000; 0.000;
 2256; 1080.711; 0.000; 869.289; -180.000; -45.000; 0.000; 0.000; 0.000; 0.000; 0.000; -45.000; 0.000;
 2264; 1080.711; 0.000; 869.289; -180.000; -45.000; 0.000; 0.000; 0.000; 0.000; 0.000; -45.000; 0.000;
 2272; 1080.711; 0.000; 869.289; -180.000; -45.000; 0.000; 0.000; 0.000; 0.000; 0.000; -45.000; 0.000;
 2280; 1080.711; 0.000; 869.289; -180.000; -45.000; 0.000; 0.000; 0.000; 0.000; 0.000; -45.000; 0.000;
 2288; 1080.711; 0.000; 869.289; -180.000; -45.000; 0.000; 0.000; 0.000; 0.000; 0.000; -45.000; 0.000;
 2296; 1080.711; 0.000; 869.289; -180.000; -45.000; 0.000; 0.000; 0.000; 0.000; 0.000; -45.000; 0.000;
 2304; 1080.711; 0.000; 869.289; -180.000; -45.000; 0.000; 0.000; 0.000; 0.000; 0.000; -45.000; 0.000;
 2312; 1080.711; 0.000; 869.289; -180.000; -45.000; 0.000; 0.000; 0.000; 0.000; 0.000; -45.000; 0.000;
 2320; 1080.711; 0.000; 869.289; -180.000; -45.000; 0.000; 0.000; 0.000; 0.000; 0.000; -45.000; 0.000;
 2328; 1080.711; 0.000; 869.289; -180.000; -45.000; 0.000; 0.000; 0.000; 0.000; 0.000; -45.000; 0.000;
 2336; 1080.711; 0.000; 869.289; -180.000; -45.000; 0.000; 0.000; 0.000; 0.000; 0.000; -45.000; 0.000;
 2344; 1080.711; 0.000; 869.289; -180.000; -45.000; 0.000; 0.000; 0.000; 0.000; 0.000; -45.000; 0.000;
 2360; 1080.711; 0.000; 869.289; -180.000; -45.000; 0.000; 0.000; 0.000; 0.000; 0.000; -45.000; 0.000;
 2368; 1080.711; 0.000; 869.289; -180.000; -45.000; 0.000; 0.000; 0.000; 0.000; 0.000; -45.000; 0.000;
 2376; 1080.711; 0.000; 869.289; -180.000; -45.000; 0.000; 0.000; 0.000; 0.000; 0.000; -45.000; 0.000;
 2384; 1080.711; 0.000; 869.289; -180.000; -45.000; 0.000; 0.000; 0.000; 0.000; 0.000; -45.000; 0.000;
 2392; 1080.711; 0.000; 869.289; -180.000; -45.000; 0.000; 0.000; 0.000; 0.000; 0.000; -45.000; 0.000;
 2400; 1080.711; 0.000; 869.289; -180.000; -45.000; 0.000; 0.000; 0.000; 0.000; 0.000; -45.000; 0.000;
 2408; 1080.711; 0.000; 869.289; -180.000; -45.000; 0.000; 0.000; 0.000; 0.000; 0.000; -45.000; 0.000;
 2416; 1080.711; 0.000; 869.289; -180.000; -45.000; 0.000; 0.000; 0.000; 0.000; 0.000; -45.000; 0.000;
 2424; 1080.711; 0.000; 869.289; -180.000; -45.000; 0.000; 0.000; 0.000; 0.000; 0.000; -45.000; 0.000;
 2432; 1080.711; 0.000; 869.289; -180.000; -45.000; 0.000; 0.000; 0.000; 0.000; 0.000; -45.000; 0.000;
 2440; 1080.711; 0.000; 869.289; -180.000; -45.000; 0.000; 0.000; 0.000; 0.000; 0.000; -45.000; 0.000;
 2448; 1080.711; 0.000; 869.289; -180.000; -45.000; 0.000; 0.000; 0.000; 0.000; 0.000; -45.000; 0.000;
 2456; 1080.711; 0.000; 869.289; -180.000; -45.000; 0.000; 0.000; 0.000; 0.000; 0.000; -45.000; 0.000;
 2464; 1080.711; 0.000; 869.289; -180.000; -45.000; 0.000; 0.000; 0.000; 0.000; 0.000; -45.000; 0.000;
 2472; 1080.711; 0.000; 869.289; -180.000; -45.000; 0.000; 0.000; 0.000; 0.000; 0.000; -45.000; 0.000;
 2488; 1080.711; 0.000; 869.289; -180.000; -45.000; 0.000; 0.000; 0.000; 0.000; 0.000; -45.000; 0.000;
 2496; 1080.711; 0.000; 869.289; -180.000; -45.000; 0.000; 0.000; 0.000; 0.000; 0.000; -45.000; 0.000;
 2504; 1080.711; 0.000; 869.289; -180.000; -45.000; 0.000; 0.000; 0.000; 0.000; 0.000; -45.000; 0.000;
 2512; 1080.711; 0.000; 869.289; -180.000; -45.000; 0.000; 0.000; 0.000; 0.000; 0.000; -45.000; 0.000;
 2520; 1080.711; 0.000; 869.289; -180.000; -45.000; 0.000; 0.000; 0.000; 0.000; 0.000; -45.000; 0.000;
 2528; 1080.711; 0.000; 869.289; -180.000; -45.000; 0.000; 0.000; 0.000; 0.000; 0.000; -45.000; 0.000;
 2536; 1080.711; 0.000; 869.289; -180.000; -45.000; 0.000; 0.000; 0.000; 0.000; 0.000; -45.000; 0.000;
 2544; 1080.711; 0.000; 869.289; -180.000; -45.000; 0.000; 0.000; 0.000; 0.000; 0.000; -45.000; 0.000;
 2552; 1080.711; 0.000; 869.289; -180.000; -45.000; 0.000; 0.000; 0.000; 0.000; 0.000; -45.000; 0.000;
 2560; 1080.711; 0.000; 869.289; -180.000; -45.000; 0.000; 0.000; 0.000; 0.000; 0.000; -45.000; 0.000;
 2568; 1080.711; 0.000; 869.289; -180.000; -45.000; 0.000; 0.000; 0.000; 0.000; 0.000; -45.000; 0.000;
 2576; 1080.711; 0.000; 869.289; -180.000; -45.000; 0.000; 0.000; 0.000; 0.000; 0.000; -45.000; 0.000;
 2584; 1080.711; 0.000; 869.289; -180.000; -45.000; 0.000; 0.000; 0.000; 0.000; 0.000; -45.000; 0.000;
 2592; 1080.711; 0.000; 869.289; -180.000; -45.000; 0.000; 0.000; 0.000; 0.000; 0.000; -45.000; 0.000;
 2600; 1080.711; 0.000; 869.289; -180.000; -45.000; 0.000; 0.000; 0.000; 0.000; 0.000; -45.000; 0.000;
 2616; 1080.711; 0.000; 869.289; -180.000; -45.000; 0.000; 0.000; 0.000; 0.000; 0.000; -45.000; 0.000;
 2624; 1080.711; 0.000; 869.289; -180.000; -45.000; 0.000; 0.000; 0.000; 0.000; 0.000; -45.000; 0.000;
 2632; 1080.711; 0.000; 869.289; -180.000; -45.000; 0.000; 0.000; 0.000; 0.000; 0.000; -45.000; 0.000;
 2640; 1080.711; 0.000; 869.289; -180.000; -45.000; 0.000; 0.000; 0.000; 0.000; 0.000; -45.000; 0.000;
 2648; 1080.711; 0.000; 869.289; -180.000; -45.000; 0.000; 0.000; 0.000; 0.000; 0.000; -45.000; 0.000;
 2656; 1080.711; 0.000; 869.289; -180.000; -45.000; 0.000; 0.000; 0.000; 0.000; 0.000; -45.000; 0.000;
 2664; 1080.711; 0.000; 869.289; -180.000; -45.000; 0.000; 0.000; 0.000; 0.000; 0.000; -45.000; 0.000;
 2672; 1080.711; 0.000; 869.289; -180.000; -45.000; 0.000; 0.000; 0.000; 0.000; 0.000; -45.000; 0.000;
 2680; 1080.711; 0.000; 869.289; -180.000; -45.000; 0.000; 0.000; 0.000; 0.000; 0.000; -45.000; 0.000;
 2688; 1080.711; 0.000; 869.289; -180.000; -45.000; 0.000; 0.000; 0.000; 0.000; 0.000; -45.000; 0.000;
 2696; 1080.711; 0.000; 869.289; -180.000; -45.000; 0.000; 0.000; 0.000; 0.000; 0.000; -45.000; 0.000;
 2704; 1080.711; 0.000; 869.289; -180.000; -45.000; 0.000; 0.000; 0.000; 0.000; 0.000; -45.000; 0.000;
 2712; 1080.711; 0.000; 869.289; -180.000; -45.000; 0.000; 0.000; 0.000; 0.000; 0.000; -45.000; 0.000;
 2720; 1080.711; 0.000; 869.289; -180.000; -45.000; 0.000; 0.000; 0.000; 0.000; 0.000; -45.000; 0.000;
 2728; 1080.711; 0.000; 869.289; -180.000; -45.000; 0.000; 0.000; 0.000; 0.000; 0.000; -45.000; 0.000;
 2744; 1080.711; 0.000; 869.289; -180.000; -45.000; 0.000; 0.000; 0.000; 0.000; 0.000; -45.000; 0.000;
 2752; 1080.711; 0.000; 869.289; -180.000; -45.000; 0.000; 0.000; 0.000; 0.000; 0.000; -45.000; 0.000;
 2760; 1080.711; 0.000; 869.289; -180.000; -45.000; 0.000; 0.000; 0.000; 0.000; 0.000; -45.000; 0.000;
 2768; 1080.711; 0.000; 869.289; -180.000; -45.000; 0.000; 0.000; 0.000; 0.000; 0.000; -45.000; 0.000;
 2776; 1080.711; 0.000; 869.289; -180.000; -45.000; 0.000; 0.000; 0.000; 0.000; 0.000; -45.000; 0.000;
 2784; 1080.711; 0.000; 869.289; -180.000; -45.000; 0.000; 0.000; 0.000; 0.000; 0.000; -45.000; 0.000;
 2792; 1080.711; 0.000; 869.289; -180.000; -45.000; 0.000; 0.000; 0.000; 0.000; 0.000; -45.000; 0.000;
 2800; 1080.711; 0.000; 869.289; -180.000; -45.000; 0.000; 0.000; 0.000; 0.000; 0.000; -45.000; 0.000;
 2808; 1080.711; 0.000; 869.289; -180.000; -45.000; 0.000; 0.000; 0.000; 0.000; 0.000; -45.000; 0.000;
 2816; 1080.711; 0.000; 869.289; -180.000; -45.000; 0.000; 0.000; 0.000; 0.000; 0.000; -45.000; 0.000;
 2824; 1080.711; 0.000; 869.289; -180.000; -45.000; 0.000; 0.000; 0.000; 0.000; 0.000; -45.000; 0.000;
 2832; 1080.711; 0.000; 869.289; -180.000; -45.000; 0.000; 0.000; 0.000; 0.000; 0.000; -45.000; 0.000;
 2840; 1080.711; 0.000; 869.289; -180.000; -45.000; 0.000; 0.000; 0.000; 0.000; 0.000; -45.000; 0.000;
 2848; 1080.711; 0.000; 869.289; -180.000; -45.000; 0.000; 0.000; 0.000; 0.000; 0.000; -45.000; 0.000;
 2856; 1080.711; 0.000; 869.289; -180.000; -45.000; 0.000; 0.000; 0.000; 0.000; 0.000; -45.000; 0.000;
 2872; 1080.711; 0.000; 869.289; -180.000; -45.000; 0.000; 0.000; 0.000; 0.000; 0.000; -45.000; 0.000;
 2880; 1080.711; 0.000; 869.289; -180.000; -45.000; 0.000; 0.000; 0.000; 0.000; 0.000; -45.000; 0.000;
 2888; 1080.711; 0.000; 869.289; -180.000; -45.000; 0.000; 0.000; 0.000; 0.000; 0.000; -45.000; 0.000;
 2896; 1080.711; 0.000; 869.289; -180.000; -45.000; 0.000; 0.000; 0.000; 0.000; 0.000; -45.000; 0.000;
 2904; 1080.711; 0.000; 869.289; -180.000; -45.000; 0.000; 0.000; 0.000; 0.000; 0.000; -45.000; 0.000;
 2912; 1080.711; 0.000; 869.289; -180.000; -45.000; 0.000; 0.000; 0.000; 0.000; 0.000; -45.000; 0.000;
 2920; 1080.711; 0.000; 869.289; -180.000; -45.000; 0.000; 0.000; 0.000; 0.000; 0.000; -45.000; 0.000;
 2928; 1080.711; 0.000; 869.289; -180.000; -45.000; 0.000; 0.000; 0.000; 0.000; 0.000; -45.000; 0.000;
 2936; 1080.711; 0.000; 869.289; -180.000; -45.000; 0.000; 0.000; 0.000; 0.000; 0.000; -45.000; 0.000;
 2944; 1080.711; 0.000; 869.289; -180.000; -45.000; 0.000; 0.000; 0.000; 0.000; 0.000; -45.000; 0.000;
 2952; 1080.711; 0.000; 869.289; -180.000; -45.000; 0.000; 0.000; 0.000; 0.000; 0.000; -45.000; 0.000;
 2960; 1080.711; 0.000; 869.289; -180.000; -45.000; 0.000; 0.000; 0.000; 0.000; 0.000; -45.000; 0.000;
 2968; 1080.711; 0.000; 869.289; -180.000; -45.000; 0.000; 0.000; 0.000; 0.000; 0.000; -45.000; 0.000;
 2976; 1080.711; 0.000; 869.289; -180.000; -45.000; 0.000; 0.000; 0.000; 0.000; 0.000; -45.000; 0.000;
 2984; 1080.711; 0.000; 869.289; -180.000; -45.000; 0.000; 0.000; 0.000; 0.000; 0.000; -45.000; 0.000;
 3000; 1080.711; 0.000; 869.289; -180.000; -45.000; 0.000; 0.000; 0.000; 0.000; 0.000; -45.000; 0.000;
 3008; 1080.711; 0.000; 869.289; -180.000; -45.000; 0.000; 0.000; 0.000; 0.000; 0.000; -45.000; 0.000;
 3016; 1080.711; 0.000; 869.289; -180.000; -45.000; 0.000; 0.000; 0.000; 0.000; 0.000; -45.000; 0.000;
 3024; 1080.711; 0.000; 869.289; -180.000; -45.000; 0.000; 0.000; 0.000; 0.000; 0.000; -45.000; 0.000;
 3032; 1080.711; 0.000; 869.289; -180.000; -45.000; 0.000; 0.000; 0.000; 0.000; 0.000; -45.000; 0.000;
 3040; 1080.711; 0.000; 869.289; -180.000; -45.000; 0.000; 0.000; 0.000; 0.000; 0.000; -45.000; 0.000;
 3048; 1080.711; 0.000; 869.289; -180.000; -45.000; 0.000; 0.000; 0.000; 0.000; 0.000; -45.000; 0.000;
 3056; 1080.711; 0.000; 869.289; -180.000; -45.000; 0.000; 0.000; 0.000; 0.000; 0.000; -45.000; 0.000;
 3064; 1080.711; 0.000; 869.289; -180.000; -45.000; 0.000; 0.000; 0.000; 0.000; 0.000; -45.000; 0.000;
 3072; 1080.711; 0.000; 869.289; -180.000; -45.000; 0.000; 0.000; 0.000; 0.000; 0.000; -45.000; 0.000;
 3080; 1080.711; 0.000; 869.289; -180.000; -45.000; 0.000; 0.000; 0.000; 0.000; 0.000; -45.000; 0.000;
 3088; 1080.711; 0.000; 869.289; -180.000; -45.000; 0.000; 0.000; 0.000; 0.000; 0.000; -45.000; 0.000;
 3096; 1080.711; 0.000; 869.289; -180.000; -45.000; 0.000; 0.000; 0.000; 0.000; 0.000; -45.000; 0.000;
 3104; 1080.711; 0.000; 869.289; -180.000; -45.000; 0.000; 0.000; 0.000; 0.000; 0.000; -45.000; 0.000;
 3112; 1080.711; 0.000; 869.289; -180.000; -45.000; 0.000; 0.000; 0.000; 0.000; 0.000; -45.000; 0.000;
 3128; 1080.711; 0.000; 869.289; -180.000; -45.000; 0.000; 0.000; 0.000; 0.000; 0.000; -45.000; 0.000;
 3136; 1080.711; 0.000; 869.289; -180.000; -45.000; 0.000; 0.000; 0.000; 0.000; 0.000; -45.000; 0.000;
 3144; 1080.711; 0.000; 869.289; -180.000; -45.000; 0.000; 0.000; 0.000; 0.000; 0.000; -45.000; 0.000;
 3152; 1080.711; 0.000; 869.289; -180.000; -45.000; 0.000; 0.000; 0.000; 0.000; 0.000; -45.000; 0.000;
 3160; 1080.711; 0.000; 869.289; -180.000; -45.000; 0.000; 0.000; 0.000; 0.000; 0.000; -45.000; 0.000;
 3168; 1080.711; 0.000; 869.289; -180.000; -45.000; 0.000; 0.000; 0.000; 0.000; 0.000; -45.000; 0.000;
 3176; 1080.711; 0.000; 869.289; -180.000; -45.000; 0.000; 0.000; 0.000; 0.000; 0.000; -45.000; 0.000;
 3184; 1080.711; 0.000; 869.289; -180.000; -45.000; 0.000; 0.000; 0.000; 0.000; 0.000; -45.000; 0.000;
 3192; 1080.711; 0.000; 869.289; -180.000; -45.000; 0.000; 0.000; 0.000; 0.000; 0.000; -45.000; 0.000;
 3200; 1080.711; 0.000; 869.289; -180.000; -45.000; 0.000; 0.000; 0.000; 0.000; 0.000; -45.000; 0.000;
 3208; 1080.711; 0.000; 869.289; -180.000; -45.000; 0.000; 0.000; 0.000; 0.000; 0.000; -45.000; 0.000;
 3216; 1080.711; 0.000; 869.289; -180.000; -45.000; 0.000; 0.000; 0.000; 0.000; 0.000; -45.000; 0.000;
 3224; 1080.711; 0.000; 869.289; -180.000; -45.000; 0.000; 0.000; 0.000; 0.000; 0.000; -45.000; 0.000;
 3232; 1080.711; 0.000; 869.289; -180.000; -45.000; 0.000; 0.000; 0.000; 0.000; 0.000; -45.000; 0.000;
 3240; 1080.711; 0.000; 869.289; -180.000; -45.000; 0.000; 0.000; 0.000; 0.000; 0.000; -45.000; 0.000;
 3256; 1080.711; 0.000; 869.289; -180.000; -45.000; 0.000; 0.000; 0.000; 0.000; 0.000; -45.000; 0.000;
 3264; 1080.711; 0.000; 869.289; -180.000; -45.000; 0.000; 0.000; 0.000; 0.000; 0.000; -45.000; 0.000;
 3272; 1080.711; 0.000; 869.289; -180.000; -45.000; 0.000; 0.000; 0.000; 0.000; 0.000; -45.000; 0.000;
 3280; 1080.711; 0.000; 869.289; -180.000; -45.000; 0.000; 0.000; 0.000; 0.000; 0.000; -45.000; 0.000;
 3288; 1080.711; 0.000; 869.289; -180.000; -45.000; 0.000; 0.000; 0.000; 0.000; 0.000; -45.000; 0.000;
 3296; 1080.711; 0.000; 869.289; -180.000; -45.000; 0.000; 0.000; 0.000; 0.000; 0.000; -45.000; 0.000;
 3304; 1080.711; 0.000; 869.289; -180.000; -45.000; 0.000; 0.000; 0.000; 0.000; 0.000; -45.000; 0.000;
 3312; 1080.711; 0.000; 869.289; -180.000; -45.000; 0.000; 0.000; 0.000; 0.000; 0.000; -45.000; 0.000;
 3320; 1080.711; 0.000; 869.289; -180.000; -45.000; 0.000; 0.000; 0.000; 0.000; 0.000; -45.000; 0.000;
 3328; 1080.711; 0.000; 869.289; -180.000; -45.000; 0.000; 0.000; 0.000; 0.000; 0.000; -45.000; 0.000;
 3336; 1080.711; 0.000; 869.289; -180.000; -45.000; 0.000; 0.000; 0.000; 0.000; 0.000; -45.000; 0.000;
 3344; 1080.711; 0.000; 869.289; -180.000; -45.000; 0.000; 0.000; 0.000; 0.000; 0.000; -45.000; 0.000;
 3352; 1080.711; 0.000; 869.289; -180.000; -45.000; 0.000; 0.000; 0.000; 0.000; 0.000; -45.000; 0.000;
 3360; 1080.711; 0.000; 869.289; -180.000; -45.000; 0.000; 0.000; 0.000; 0.000; 0.000; -45.000; 0.000;
 3368; 1080.711; 0.000; 869.289; -180.000; -45.000; 0.000; 0.000; 0.000; 0.000; 0.000; -45.000; 0.000;
 3384; 1080.711; 0.000; 869.289; -180.000; -45.000; 0.000; 0.000; 0.000; 0.000; 0.000; -45.000; 0.000;
 3392; 1080.711; 0.000; 869.289; -180.000; -45.000; 0.000; 0.000; 0.000; 0.000; 0.000; -45.000; 0.000;
 3400; 1080.711; 0.000; 869.289; -180.000; -45.000; 0.000; 0.000; 0.000; 0.000; 0.000; -45.000; 0.000;
 3408; 1080.711; 0.000; 869.289; -180.000; -45.000; 0.000; 0.000; 0.000; 0.000; 0.000; -45.000; 0.000;
 3416; 1080.711; 0.000; 869.289; -180.000; -45.000; 0.000; 0.000; 0.000; 0.000; 0.000; -45.000; 0.000;
 3424; 1080.711; 0.000; 869.289; -180.000; -45.000; 0.000; 0.000; 0.000; 0.000; 0.000; -45.000; 0.000;
 3432; 1080.711; 0.000; 869.289; -180.000; -45.000; 0.000; 0.000; 0.000; 0.000; 0.000; -45.000; 0.000;
 3440; 1080.711; 0.000; 869.289; -180.000; -45.000; 0.000; 0.000; 0.000; 0.000; 0.000; -45.000; 0.000;
 3448; 1080.711; 0.000; 869.289; -180.000; -45.000; 0.000; 0.000; 0.000; 0.000; 0.000; -45.000; 0.000;
 3456; 1080.711; 0.000; 869.289; -180.000; -45.000; 0.000; 0.000; 0.000; 0.000; 0.000; -45.000; 0.000;
 3464; 1080.711; 0.000; 869.289; -180.000; -45.000; 0.000; 0.000; 0.000; 0.000; 0.000; -45.000; 0.000;
 3472; 1080.711; 0.000; 869.289; -180.000; -45.000; 0.000; 0.000; 0.000; 0.000; 0.000; -45.000; 0.000;
 3480; 1080.711; 0.000; 869.289; -180.000; -45.000; 0.000; 0.000; 0.000; 0.000; 0.000; -45.000; 0.000;
 3488; 1080.711; 0.000; 869.289; -180.000; -45.000; 0.000; 0.000; 0.000; 0.000; 0.000; -45.000; 0.000;
 3496; 1080.711; 0.000; 869.289; -180.000; -45.000; 0.000; 0.000; 0.000; 0.000; 0.000; -45.000; 0.000;
 3512; 1080.711; 0.000; 869.289; -180.000; -45.000; 0.000; 0.000; 0.000; 0.000; 0.000; -45.000; 0.000;
 3520; 1080.711; 0.000; 869.289; -180.000; -45.000; 0.000; 0.000; 0.000; 0.000; 0.000; -45.000; 0.000;
 3528; 1080.711; 0.000; 869.289; -180.000; -45.000; 0.000; 0.000; 0.000; 0.000; 0.000; -45.000; 0.000;
 3536; 1080.711; 0.000; 869.289; -180.000; -45.000; 0.000; 0.000; 0.000; 0.000; 0.000; -45.000; 0.000;
 3544; 1080.711; 0.000; 869.289; -180.000; -45.000; 0.000; 0.000; 0.000; 0.000; 0.000; -45.000; 0.000;
 3552; 1080.711; 0.000; 869.289; -180.000; -45.000; 0.000; 0.000; 0.000; 0.000; 0.000; -45.000; 0.000;
 3560; 1080.711; 0.000; 869.289; -180.000; -45.000; 0.000; 0.000; 0.000; 0.000; 0.000; -45.000; 0.000;
 3568; 1080.711; 0.000; 869.289; -180.000; -45.000; 0.000; 0.000; 0.000; 0.000; 0.000; -45.000; 0.000;
 3576; 1080.711; 0.000; 869.289; -180.000; -45.000; 0.000; 0.000; 0.000; 0.000; 0.000; -45.000; 0.000;
 3584; 1080.711; 0.000; 869.289; -180.000; -45.000; 0.000; 0.000; 0.000; 0.000; 0.000; -45.000; 0.000;
 3592; 1080.711; 0.000; 869.289; -180.000; -45.000; 0.000; 0.000; 0.000; 0.000; 0.000; -45.000; 0.000;
 3600; 1080.711; 0.000; 869.289; -180.000; -45.000; 0.000; 0.000; 0.000; 0.000; 0.000; -45.000; 0.000;
 3608; 1080.711; 0.000; 869.289; -180.000; -45.000; 0.000; 0.000; 0.000; 0.000; 0.000; -45.000; 0.000;
 3616; 1080.711; 0.000; 869.289; -180.000; -45.000; 0.000; 0.000; 0.000; 0.000; 0.000; -45.000; 0.000;
 3624; 1080.711; 0.000; 869.289; -180.000; -45.000; 0.000; 0.000; 0.000; 0.000; 0.000; -45.000; 0.000;
 3640; 1080.711; 0.000; 869.289; -180.000; -45.000; 0.000; 0.000; 0.000; 0.000; 0.000; -45.000; 0.000;
 3648; 1080.711; 0.000; 869.289; -180.000; -45.000; 0.000; 0.000; 0.000; 0.000; 0.000; -45.000; 0.000;
 3656; 1080.711; 0.000; 869.289; -180.000; -45.000; 0.000; 0.000; 0.000; 0.000; 0.000; -45.000; 0.000;
 3664; 1080.711; 0.000; 869.289; -180.000; -45.000; 0.000; 0.000; 0.000; 0.000; 0.000; -45.000; 0.000;
 3672; 1080.711; 0.000; 869.289; -180.000; -45.000; 0.000; 0.000; 0.000; 0.000; 0.000; -45.000; 0.000;
 3680; 1080.711; 0.000; 869.289; -180.000; -45.000; 0.000; 0.000; 0.000; 0.000; 0.000; -45.000; 0.000;
 3688; 1080.711; 0.000; 869.289; -180.000; -45.000; 0.000; 0.000; 0.000; 0.000; 0.000; -45.000; 0.000;
 3696; 1080.711; 0.000; 869.289; -180.000; -45.000; 0.000; 0.000; 0.000; 0.000; 0.000; -45.000; 0.000;
 3704; 1080.711; 0.000; 869.289; -180.000; -45.000; 0.000; 0.000; 0.000; 0.000; 0.000; -45.000; 0.000;
 3712; 1080.711; 0.000; 869.289; -180.000; -45.000; 0.000; 0.000; 0.000; 0.000; 0.000; -45.000; 0.000;
 3720; 1080.711; 0.000; 869.289; -180.000; -45.000; 0.000; 0.000; 0.000; 0.000; 0.000; -45.000; 0.000;
 3728; 1080.711; 0.000; 869.289; -180.000; -45.000; 0.000; 0.000; 0.000; 0.000; 0.000; -45.000; 0.000;
 3736; 1080.711; 0.000; 869.289; -180.000; -45.000; 0.000; 0.000; 0.000; 0.000; 0.000; -45.000; 0.000;
 3744; 1080.711; 0.000; 869.289; -180.000; -45.000; 0.000; 0.000; 0.000; 0.000; 0.000; -45.000; 0.000;
 3752; 1080.711; 0.000; 869.289; -180.000; -45.000; 0.000; 0.000; 0.000; 0.000; 0.000; -45.000; 0.000;
 3768; 1080.711; 0.000; 869.289; -180.000; -45.000; 0.000; 0.000; 0.000; 0.000; 0.000; -45.000; 0.000;
 3776; 1080.711; 0.000; 869.289; -180.000; -45.000; 0.000; 0.000; 0.000; 0.000; 0.000; -45.000; 0.000;
 3784; 1080.711; 0.000; 869.289; -180.000; -45.000; 0.000; 0.000; 0.000; 0.000; 0.000; -45.000; 0.000;
 3792; 1080.711; 0.000; 869.289; -180.000; -45.000; 0.000; 0.000; 0.000; 0.000; 0.000; -45.000; 0.000;
 3800; 1080.711; 0.000; 869.289; -180.000; -45.000; 0.000; 0.000; 0.000; 0.000; 0.000; -45.000; 0.000;
 3808; 1080.711; 0.000; 869.289; -180.000; -45.000; 0.000; 0.000; 0.000; 0.000; 0.000; -45.000; 0.000;
 3816; 1080.711; 0.000; 869.289; -180.000; -45.000; 0.000; 0.000; 0.000; 0.000; 0.000; -45.000; 0.000;
 3824; 1080.711; 0.000; 869.289; -180.000; -45.000; 0.000; 0.000; 0.000; 0.000; 0.000; -45.000; 0.000;
 3832; 1080.711; 0.000; 869.289; -180.000; -45.000; 0.000; 0.000; 0.000; 0.000; 0.000; -45.000; 0.000;
 3840; 1080.711; 0.000; 869.289; -180.000; -45.000; 0.000; 0.000; 0.000; 0.000; 0.000; -45.000; 0.000;
 3848; 1080.711; 0.000; 869.289; -180.000; -45.000; 0.000; 0.000; 0.000; 0.000; 0.000; -45.000; 0.000;
 3856; 1080.711; 0.000; 869.289; -180.000; -45.000; 0.000; 0.000; 0.000; 0.000; 0.000; -45.000; 0.000;
 3864; 1080.711; 0.000; 869.289; -180.000; -45.000; 0.000; 0.000; 0.000; 0.000; 0.000; -45.000; 0.000;
 3872; 1080.711; 0.000; 869.289; -180.000; -45.000; 0.000; 0.000; 0.000; 0.000; 0.000; -45.000; 0.000;
 3880; 1080.711; 0.000; 869.289; -180.000; -45.000; 0.000; 0.000; 0.000; 0.000; 0.000; -45.000; 0.000;
 3896; 1080.711; 0.000; 869.289; -180.000; -45.000; 0.000; 0.000; 0.000; 0.000; 0.000; -45.000; 0.000;
 3904; 1080.711; 0.000; 869.289; -180.000; -45.000; 0.000; 0.000; 0.000; 0.000; 0.000; -45.000; 0.000;
 3912; 1080.711; 0.000; 869.289; -180.000; -45.000; 0.000; 0.000; 0.000; 0.000; 0.000; -45.000; 0.000;
 3920; 1080.711; 0.000; 869.289; -180.000; -45.000; 0.000; 0.000; 0.000; 0.000; 0.000; -45.000; 0.000;
 3928; 1080.711; 0.000; 869.289; -180.000; -45.000; 0.000; 0.000; 0.000; 0.000; 0.000; -45.000; 0.000;
 3936; 1080.711; 0.000; 869.289; -180.000; -45.000; 0.000; 0.000; 0.000; 0.000; 0.000; -45.000; 0.000;
 3944; 1080.711; 0.000; 869.289; -180.000; -45.000; 0.000; 0.000; 0.000; 0.000; 0.000; -45.000; 0.000;
 3952; 1080.711; 0.000; 869.289; -180.000; -45.000; 0.000; 0.000; 0.000; 0.000; 0.000; -45.000; 0.000;
 3960; 1080.711; 0.000; 869.289; -180.000; -45.000; 0.000; 0.000; 0.000; 0.000; 0.000; -45.000; 0.000;
 3968; 1080.711; 0.000; 869.289; -180.000; -45.000; 0.000; 0.000; 0.000; 0.000; 0.000; -45.000; 0.000;
 3976; 1080.711; 0.000; 869.289; -180.000; -45.000; 0.000; 0.000; 0.000; 0.000; 0.000; -45.000; 0.000;
 3984; 1080.711; 0.000; 869.289; -180.000; -45.000; 0.000; 0.000; 0.000; 0.000; 0.000; -45.000; 0.000;
 3992; 1080.711; 0.000; 869.289; -180.000; -45.000; 0.000; 0.000; 0.000; 0.000; 0.000; -45.000; 0.000;
 4000; 1080.711; 0.000; 869.289; -180.000; -45.000; 0.000; 0.000; 0.000; 0.000; 0.000; -45.000; 0.000;
 4008; 1080.711; 0.000; 869.289; -180.000; -45.000; 0.000; 0.000; 0.000; 0.000; 0.000; -45.000; 0.000;
 4024; 1080.711; 0.000; 869.289; -180.000; -45.000; 0.000; 0.000; 0.000; 0.000; 0.000; -45.000; 0.000;
 4032; 1080.711; 0.000; 869.289; -180.000; -45.000; 0.000; 0.000; 0.000; 0.000; 0.000; -45.000; 0.000;
 4040; 1080.711; 0.000; 869.289; -180.000; -45.000; 0.000; 0.000; 0.000; 0.000; 0.000; -45.000; 0.000;
 4048; 1080.711; 0.000; 869.289; -180.000; -45.000; 0.000; 0.000; 0.000; 0.000; 0.000; -45.000; 0.000;
 4056; 1080.711; 0.000; 869.289; -180.000; -45.000; 0.000; 0.000; 0.000; 0.000; 0.000; -45.000; 0.000;
 4064; 1080.711; 0.000; 869.289; -180.000; -45.000; 0.000; 0.000; 0.000; 0.000; 0.000; -45.000; 0.000;
 4072; 1080.711; 0.000; 869.289; -180.000; -45.000; 0.000; 0.000; 0.000; 0.000; 0.000; -45.000; 0.000;
 4080; 1080.711; 0.000; 869.289; -180.000; -45.000; 0.000; 0.000; 0.000; 0.000; 0.000; -45.000; 0.000;
 4088; 1080.711; 0.000; 869.289; -180.000; -45.000; 0.000; 0.000; 0.000; 0.000; 0.000; -45.000; 0.000;
 4096; 1080.711; 0.000; 869.289; -180.000; -45.000; 0.000; 0.000; 0.000; 0.000; 0.000; -45.000; 0.000;
 4104; 1080.711; 0.000; 869.289; -180.000; -45.000; 0.000; 0.000; 0.000; 0.000; 0.000; -45.000; 0.000;
 4112; 1080.711; 0.000; 869.289; -180.000; -45.000; 0.000; 0.000; 0.000; 0.000; 0.000; -45.000; 0.000;
 4120; 1080.711; 0.000; 869.289; -180.000; -45.000; 0.000; 0.000; 0.000; 0.000; 0.000; -45.000; 0.000;
 4128; 1080.711; 0.000; 869.289; -180.000; -45.000; 0.000; 0.000; 0.000; 0.000; 0.000; -45.000; 0.000;
 4136; 1080.711; 0.000; 869.289; -180.000; -45.000; 0.000; 0.000; 0.000; 0.000; 0.000; -45.000; 0.000;
 4152; 1080.711; 0.000; 869.289; -180.000; -45.000; 0.000; 0.000; 0.000; 0.000; 0.000; -45.000; 0.000;
 4160; 1080.711; 0.000; 869.289; -180.000; -45.000; 0.000; 0.000; 0.000; 0.000; 0.000; -45.000; 0.000;
 4168; 1080.711; 0.000; 869.289; -180.000; -45.000; 0.000; 0.000; 0.000; 0.000; 0.000; -45.000; 0.000;
 4176; 1080.711; 0.000; 869.289; -180.000; -45.000; 0.000; 0.000; 0.000; 0.000; 0.000; -45.000; 0.000;
 4184; 1080.711; 0.000; 869.289; -180.000; -45.000; 0.000; 0.000; 0.000; 0.000; 0.000; -45.000; 0.000;
 4192; 1080.711; 0.000; 869.289; -180.000; -45.000; 0.000; 0.000; 0.000; 0.000; 0.000; -45.000; 0.000;
 4200; 1080.711; 0.000; 869.289; -180.000; -45.000; 0.000; 0.000; 0.000; 0.000; 0.000; -45.000; 0.000;
 4208; 1080.711; 0.000; 869.289; -180.000; -45.000; 0.000; 0.000; 0.000; 0.000; 0.000; -45.000; 0.000;
 4216; 1080.711; 0.000; 869.289; -180.000; -45.000; 0.000; 0.000; 0.000; 0.000; 0.000; -45.000; 0.000;
 4224; 1080.711; 0.000; 869.289; -180.000; -45.000; 0.000; 0.000; 0.000; 0.000; 0.000; -45.000; 0.000;
 4232; 1080.711; 0.000; 869.289; -180.000; -45.000; 0.000; 0.000; 0.000; 0.000; 0.000; -45.000; 0.000;
 4240; 1080.711; 0.000; 869.289; -180.000; -45.000; 0.000; 0.000; 0.000; 0.000; 0.000; -45.000; 0.000;
 4248; 1080.711; 0.000; 869.289; -180.000; -45.000; 0.000; 0.000; 0.000; 0.000; 0.000; -45.000; 0.000;
 4256; 1080.711; 0.000; 869.289; -180.000; -45.000; 0.000; 0.000; 0.000; 0.000; 0.000; -45.000; 0.000;
 4264; 1080.711; 0.000; 869.289; -180.000; -45.000; 0.000; 0.000; 0.000; 0.000; 0.000; -45.000; 0.000;
 4280; 1080.711; 0.000; 869.289; -180.000; -45.000; 0.000; 0.000; 0.000; 0.000; 0.000; -45.000; 0.000;
 4288; 1080.711; 0.000; 869.289; -180.000; -45.000; 0.000; 0.000; 0.000; 0.000; 0.000; -45.000; 0.000;
 4296; 1080.711; 0.000; 869.289; -180.000; -45.000; 0.000; 0.000; 0.000; 0.000; 0.000; -45.000; 0.000;
 4304; 1080.711; 0.000; 869.289; -180.000; -45.000; 0.000; 0.000; 0.000; 0.000; 0.000; -45.000; 0.000;
 4312; 1080.711; 0.000; 869.289; -180.000; -45.000; 0.000; 0.000; 0.000; 0.000; 0.000; -45.000; 0.000;
 4320; 1080.711; 0.000; 869.289; -180.000; -45.000; 0.000; 0.000; 0.000; 0.000; 0.000; -45.000; 0.000;
 4328; 1080.711; 0.000; 869.289; -180.000; -45.000; 0.000; 0.000; 0.000; 0.000; 0.000; -45.000; 0.000;
 4336; 1080.711; 0.000; 869.289; -180.000; -45.000; 0.000; 0.000; 0.000; 0.000; 0.000; -45.000; 0.000;
 4344; 1080.711; 0.000; 869.289; -180.000; -45.000; 0.000; 0.000; 0.000; 0.000; 0.000; -45.000; 0.000;
 4352; 1080.711; 0.000; 869.289; -180.000; -45.000; 0.000; 0.000; 0.000; 0.000; 0.000; -45.000; 0.000;
 4360; 1080.711; 0.000; 869.289; -180.000; -45.000; 0.000; 0.000; 0.000; 0.000; 0.000; -45.000; 0.000;
 4368; 1080.711; 0.000; 869.289; -180.000; -45.000; 0.000; 0.000; 0.000; 0.000; 0.000; -45.000; 0.000;
 4376; 1080.711; 0.000; 869.289; -180.000; -45.000; 0.000; 0.000; 0.000; 0.000; 0.000; -45.000; 0.000;
 4384; 1080.711; 0.000; 869.289; -180.000; -45.000; 0.000; 0.000; 0.000; 0.000; 0.000; -45.000; 0.000;
 4392; 1080.711; 0.000; 869.289; -180.000; -45.000; 0.000; 0.000; 0.000; 0.000; 0.000; -45.000; 0.000;
 4408; 1080.711; 0.000; 869.289; -180.000; -45.000; 0.000; 0.000; 0.000; 0.000; 0.000; -45.000; 0.000;
 4416; 1080.711; 0.000; 869.289; -180.000; -45.000; 0.000; 0.000; 0.000; 0.000; 0.000; -45.000; 0.000;
 4424; 1080.711; 0.000; 869.289; -180.000; -45.000; 0.000; 0.000; 0.000; 0.000; 0.000; -45.000; 0.000;
 4432; 1080.711; 0.000; 869.289; -180.000; -45.000; 0.000; 0.000; 0.000; 0.000; 0.000; -45.000; 0.000;
 4440; 1080.711; 0.000; 869.289; -180.000; -45.000; 0.000; 0.000; 0.000; 0.000; 0.000; -45.000; 0.000;
 4448; 1080.711; 0.000; 869.289; -180.000; -45.000; 0.000; 0.000; 0.000; 0.000; 0.000; -45.000; 0.000;
 4456; 1080.711; 0.000; 869.289; -180.000; -45.000; 0.000; 0.000; 0.000; 0.000; 0.000; -45.000; 0.000;
 4464; 1080.711; 0.000; 869.289; -180.000; -45.000; 0.000; 0.000; 0.000; 0.000; 0.000; -45.000; 0.000;
 4472; 1080.711; 0.000; 869.289; -180.000; -45.000; 0.000; 0.000; 0.000; 0.000; 0.000; -45.000; 0.000;
 4480; 1080.711; 0.000; 869.289; -180.000; -45.000; 0.000; 0.000; 0.000; 0.000; 0.000; -45.000; 0.000;
 4488; 1080.711; 0.000; 869.289; -180.000; -45.000; 0.000; 0.000; 0.000; 0.000; 0.000; -45.000; 0.000;
 4496; 1080.711; 0.000; 869.289; -180.000; -45.000; 0.000; 0.000; 0.000; 0.000; 0.000; -45.000; 0.000;
 4504; 1080.711; 0.000; 869.289; -180.000; -45.000; 0.000; 0.000; 0.000; 0.000; 0.000; -45.000; 0.000;
 4512; 1080.711; 0.000; 869.289; -180.000; -45.000; 0.000; 0.000; 0.000; 0.000; 0.000; -45.000; 0.000;
 4520; 1080.711; 0.000; 869.289; -180.000; -45.000; 0.000; 0.000; 0.000; 0.000; 0.000; -45.000; 0.000;
 4536; 1080.711; 0.000; 869.289; -180.000; -45.000; 0.000; 0.000; 0.000; 0.000; 0.000; -45.000; 0.000;
 4544; 1080.711; 0.000; 869.289; -180.000; -45.000; 0.000; 0.000; 0.000; 0.000; 0.000; -45.000; 0.000;
 4552; 1080.711; 0.000; 869.289; -180.000; -45.000; 0.000; 0.000; 0.000; 0.000; 0.000; -45.000; 0.000;
 4560; 1080.711; 0.000; 869.289; -180.000; -45.000; 0.000; 0.000; 0.000; 0.000; 0.000; -45.000; 0.000;
 4568; 1080.711; 0.000; 869.289; -180.000; -45.000; 0.000; 0.000; 0.000; 0.000; 0.000; -45.000; 0.000;
 4576; 1080.711; 0.000; 869.289; -180.000; -45.000; 0.000; 0.000; 0.000; 0.000; 0.000; -45.000; 0.000;
 4584; 1080.711; 0.000; 869.289; -180.000; -45.000; 0.000; 0.000; 0.000; 0.000; 0.000; -45.000; 0.000;
 4592; 1080.711; 0.000; 869.289; -180.000; -45.000; 0.000; 0.000; 0.000; 0.000; 0.000; -45.000; 0.000;
 4600; 1080.711; 0.000; 869.289; -180.000; -45.000; 0.000; 0.000; 0.000; 0.000; 0.000; -45.000; 0.000;
 4608; 1080.711; 0.000; 869.289; -180.000; -45.000; 0.000; 0.000; 0.000; 0.000; 0.000; -45.000; 0.000;
 4616; 1080.711; 0.000; 869.289; -180.000; -45.000; 0.000; 0.000; 0.000; 0.000; 0.000; -45.000; 0.000;
 4624; 1080.711; 0.000; 869.289; -180.000; -45.000; 0.000; 0.000; 0.000; 0.000; 0.000; -45.000; 0.000;
 4632; 1080.711; 0.000; 869.289; -180.000; -45.000; 0.000; 0.000; 0.000; 0.000; 0.000; -45.000; 0.000;
 4640; 1080.711; 0.000; 869.289; -180.000; -45.000; 0.000; 0.000; 0.000; 0.000; 0.000; -45.000; 0.000;
 4648; 1080.711; 0.000; 869.289; -180.000; -45.000; 0.000; 0.000; 0.000; 0.000; 0.000; -45.000; 0.000;
 4664; 1080.711; 0.000; 869.289; -180.000; -45.000; 0.000; 0.000; 0.000; 0.000; 0.000; -45.000; 0.000;
 4672; 1080.711; 0.000; 869.289; -180.000; -45.000; 0.000; 0.000; 0.000; 0.000; 0.000; -45.000; 0.000;
 4680; 1080.711; 0.000; 869.289; -180.000; -45.000; 0.000; 0.000; 0.000; 0.000; 0.000; -45.000; 0.000;
 4688; 1080.711; 0.000; 869.289; -180.000; -45.000; 0.000; 0.000; 0.000; 0.000; 0.000; -45.000; 0.000;
 4696; 1080.711; 0.000; 869.289; -180.000; -45.000; 0.000; 0.000; 0.000; 0.000; 0.000; -45.000; 0.000;
 4704; 1080.711; 0.000; 869.289; -180.000; -45.000; 0.000; 0.000; 0.000; 0.000; 0.000; -45.000; 0.000;
 4712; 1080.711; 0.000; 869.289; -180.000; -45.000; 0.000; 0.000; 0.000; 0.000; 0.000; -45.000; 0.000;
 4720; 1080.711; 0.000; 869.289; -180.000; -45.000; 0.000; 0.000; 0.000; 0.000; 0.000; -45.000; 0.000;
 4728; 1080.711; 0.000; 869.289; -180.000; -45.000; 0.000; 0.000; 0.000; 0.000; 0.000; -45.000; 0.000;
 4736; 1080.711; 0.000; 869.289; -180.000; -45.000; 0.000; 0.000; 0.000; 0.000; 0.000; -45.000; 0.000;
 4744; 1080.711; 0.000; 869.289; -180.000; -45.000; 0.000; 0.000; 0.000; 0.000; 0.000; -45.000; 0.000;
 4752; 1080.711; 0.000; 869.289; -180.000; -45.000; 0.000; 0.000; 0.000; 0.000; 0.000; -45.000; 0.000;
 4760; 1080.711; 0.000; 869.289; -180.000; -45.000; 0.000; 0.000; 0.000; 0.000; 0.000; -45.000; 0.000;
 4768; 1080.711; 0.000; 869.289; -180.000; -45.000; 0.000; 0.000; 0.000; 0.000; 0.000; -45.000; 0.000;
 4776; 1080.711; 0.000; 869.289; -180.000; -45.000; 0.000; 0.000; 0.000; 0.000; 0.000; -45.000; 0.000;
 4792; 1080.711; 0.000; 869.289; -180.000; -45.000; 0.000; 0.000; 0.000; 0.000; 0.000; -45.000; 0.000;
 4800; 1080.711; 0.000; 869.289; -180.000; -45.000; 0.000; 0.000; 0.000; 0.000; 0.000; -45.000; 0.000;
 4808; 1080.711; 0.000; 869.289; -180.000; -45.000; 0.000; 0.000; 0.000; 0.000; 0.000; -45.000; 0.000;
 4816; 1080.711; 0.000; 869.289; -180.000; -45.000; 0.000; 0.000; 0.000; 0.000; 0.000; -45.000; 0.000;
 4824; 1080.711; 0.000; 869.289; -180.000; -45.000; 0.000; 0.000; 0.000; 0.000; 0.000; -45.000; 0.000;
 4832; 1080.711; 0.000; 869.289; -180.000; -45.000; 0.000; 0.000; 0.000; 0.000; 0.000; -45.000; 0.000;
 4840; 1080.711; 0.000; 869.289; -180.000; -45.000; 0.000; 0.000; 0.000; 0.000; 0.000; -45.000; 0.000;
 4848; 1080.711; 0.000; 869.289; -180.000; -45.000; 0.000; 0.000; 0.000; 0.000; 0.000; -45.000; 0.000;
 4856; 1080.711; 0.000; 869.289; -180.000; -45.000; 0.000; 0.000; 0.000; 0.000; 0.000; -45.000; 0.000;
 4864; 1080.711; 0.000; 869.289; -180.000; -45.000; 0.000; 0.000; 0.000; 0.000; 0.000; -45.000; 0.000;
 4872; 1080.711; 0.000; 869.289; -180.000; -45.000; 0.000; 0.000; 0.000; 0.000; 0.000; -45.000; 0.000;
 4880; 1080.711; 0.000; 869.289; -180.000; -45.000; 0.000; 0.000; 0.000; 0.000; 0.000; -45.000; 0.000;
 4888; 1080.711; 0.000; 869.289; -180.000; -45.000; 0.000; 0.000; 0.000; 0.000; 0.000; -45.000; 0.000;
 4896; 1080.711; 0.000; 869.289; -180.000; -45.000; 0.000; 0.000; 0.000; 0.000; 0.000; -45.000; 0.000;
 4904; 1080.711; 0.000; 869.289; -180.000; -45.000; 0.000; 0.000; 0.000; 0.000; 0.000; -45.000; 0.000;
 4920; 1080.711; 0.000; 869.289; -180.000; -45.000; 0.000; 0.000; 0.000; 0.000; 0.000; -45.000; 0.000;
 4928; 1080.711; 0.000; 869.289; -180.000; -45.000; 0.000; 0.000; 0.000; 0.000; 0.000; -45.000; 0.000;
 4936; 1080.711; 0.000; 869.289; -180.000; -45.000; 0.000; 0.000; 0.000; 0.000; 0.000; -45.000; 0.000;
 4944; 1080.711; 0.000; 869.289; -180.000; -45.000; 0.000; 0.000; 0.000; 0.000; 0.000; -45.000; 0.000;
 4952; 1080.711; 0.000; 869.289; -180.000; -45.000; 0.000; 0.000; 0.000; 0.000; 0.000; -45.000; 0.000;
 4960; 1080.711; 0.000; 869.289; -180.000; -45.000; 0.000; 0.000; 0.000; 0.000; 0.000; -45.000; 0.000;
 4968; 1080.711; 0.000; 869.289; -180.000; -45.000; 0.000; 0.000; 0.000; 0.000; 0.000; -45.000; 0.000;
 4976; 1080.711; 0.000; 869.289; -180.000; -45.000; 0.000; 0.000; 0.000; 0.000; 0.000; -45.000; 0.000;
 4984; 1080.711; 0.000; 869.289; -180.000; -45.000; 0.000; 0.000; 0.000; 0.000; 0.000; -45.000; 0.000;
 4992; 1080.711; 0.000; 869.289; -180.000; -45.000; 0.000; 0.000; 0.000; 0.000; 0.000; -45.000; 0.000;
 5000; 1080.711; 0.000; 869.289; -180.000; -45.000; 0.000; 0.000; 0.000; 0.000; 0.000; -45.000; 0.000;
 5008; 1080.711; 0.000; 869.289; -180.000; -45.000; 0.000; 0.000; 0.000; 0.000; 0.000; -45.000; 0.000;
 5016; 1080.711; 0.000; 869.289; -180.000; -45.000; 0.000; 0.000; 0.000; 0.000; 0.000; -45.000; 0.000;
 5024; 1080.711; 0.000; 869.289; -180.000; -45.000; 0.000; 0.000; 0.000; 0.000; 0.000; -45.000; 0.000;
 5032; 1080.711; 0.000; 869.289; -180.000; -45.000; 0.000; 0.000; 0.000; 0.000; 0.000; -45.000; 0.000;
 5048; 1080.711; 0.000; 869.289; -180.000; -45.000; 0.000; 0.000; 0.000; 0.000; 0.000; -45.000; 0.000;
 5056; 1080.711; 0.000; 869.289; -180.000; -45.000; 0.000; 0.000; 0.000; 0.000; 0.000; -45.000; 0.000;
 5064; 1080.711; 0.000; 869.289; -180.000; -45.000; 0.000; 0.000; 0.000; 0.000; 0.000; -45.000; 0.000;
 5072; 1080.711; 0.000; 869.289; -180.000; -45.000; 0.000; 0.000; 0.000; 0.000; 0.000; -45.000; 0.000;
 5080; 1080.711; 0.000; 869.289; -180.000; -45.000; 0.000; 0.000; 0.000; 0.000; 0.000; -45.000; 0.000;
 5088; 1080.711; 0.000; 869.289; -180.000; -45.000; 0.000; 0.000; 0.000; 0.000; 0.000; -45.000; 0.000;
 5096; 1080.711; 0.000; 869.289; -180.000; -45.000; 0.000; 0.000; 0.000; 0.000; 0.000; -45.000; 0.000;
 5104; 1080.711; 0.000; 869.289; -180.000; -45.000; 0.000; 0.000; 0.000; 0.000; 0.000; -45.000; 0.000;
 5112; 1080.711; 0.000; 869.289; -180.000; -45.000; 0.000; 0.000; 0.000; 0.000; 0.000; -45.000; 0.000;
 5120; 1080.711; 0.000; 869.289; -180.000; -45.000; 0.000; 0.000; 0.000; 0.000; 0.000; -45.000; 0.000;
 5128; 1080.711; 0.000; 869.289; -180.000; -45.000; 0.000; 0.000; 0.000; 0.000; 0.000; -45.000; 0.000;
 5136; 1080.711; 0.000; 869.289; -180.000; -45.000; 0.000; 0.000; 0.000; 0.000; 0.000; -45.000; 0.000;
 5144; 1080.711; 0.000; 869.289; -180.000; -45.000; 0.000; 0.000; 0.000; 0.000; 0.000; -45.000; 0.000;
 5152; 1080.711; 0.000; 869.289; -180.000; -45.000; 0.000; 0.000; 0.000; 0.000; 0.000; -45.000; 0.000;
 5160; 1080.711; 0.000; 869.289; -180.000; -45.000; 0.000; 0.000; 0.000; 0.000; 0.000; -45.000; 0.000;
 5176; 1080.711; 0.000; 869.289; -180.000; -45.000; 0.000; 0.000; 0.000; 0.000; 0.000; -45.000; 0.000;
 5184; 1080.711; 0.000; 869.289; -180.000; -45.000; 0.000; 0.000; 0.000; 0.000; 0.000; -45.000; 0.000;
 5192; 1080.711; 0.000; 869.289; -180.000; -45.000; 0.000; 0.000; 0.000; 0.000; 0.000; -45.000; 0.000;
 5200; 1080.711; 0.000; 869.289; -180.000; -45.000; 0.000; 0.000; 0.000; 0.000; 0.000; -45.000; 0.000;
 5208; 1080.711; 0.000; 869.289; -180.000; -45.000; 0.000; 0.000; 0.000; 0.000; 0.000; -45.000; 0.000;
 5216; 1080.711; 0.000; 869.289; -180.000; -45.000; 0.000; 0.000; 0.000; 0.000; 0.000; -45.000; 0.000;
 5224; 1080.711; 0.000; 869.289; -180.000; -45.000; 0.000; 0.000; 0.000; 0.000; 0.000; -45.000; 0.000;
 5232; 1080.711; 0.000; 869.289; -180.000; -45.000; 0.000; 0.000; 0.000; 0.000; 0.000; -45.000; 0.000;
 5240; 1080.711; 0.000; 869.289; -180.000; -45.000; 0.000; 0.000; 0.000; 0.000; 0.000; -45.000; 0.000;
 5248; 1080.711; 0.000; 869.289; -180.000; -45.000; 0.000; 0.000; 0.000; 0.000; 0.000; -45.000; 0.000;
 5256; 1080.711; 0.000; 869.289; -180.000; -45.000; 0.000; 0.000; 0.000; 0.000; 0.000; -45.000; 0.000;
 5264; 1080.711; 0.000; 869.289; -180.000; -45.000; 0.000; 0.000; 0.000; 0.000; 0.000; -45.000; 0.000;
 5272; 1080.711; 0.000; 869.289; -180.000; -45.000; 0.000; 0.000; 0.000; 0.000; 0.000; -45.000; 0.000;
 5280; 1080.719; -.001; 869.274; -179.999; -44.998; -.001; -.000; .000; -.000; -.000; -45.001; -.000;
 5288; 1080.730; -.001; 869.273; -179.999; -44.998; -.001; -.000; .001; -.000; -.000; -45.001; -.000;
 5304; 1080.818; -.001; 869.266; -179.999; -44.998; -.001; -.000; .007; -.001; -.000; -45.000; -.000;
 5312; 1080.913; -.001; 869.259; -179.999; -44.998; -.001; -.000; .014; -.001; -.000; -45.000; -.000;
 5320; 1081.056; -.001; 869.248; -179.999; -44.998; -.001; -.000; .024; -.002; -.000; -44.999; -.000;
 5328; 1081.255; -.001; 869.232; -179.999; -44.998; -.001; -.000; .038; -.003; -.000; -44.998; -.000;
 5336; 1081.521; -.001; 869.212; -179.999; -44.998; -.001; -.000; .057; -.005; -.000; -44.997; -.000;
 5344; 1081.862; -.001; 869.185; -179.999; -44.998; -.001; -.000; .082; -.006; -.000; -44.995; -.000;
 5352; 1082.287; -.001; 869.152; -179.999; -44.998; -.001; -.000; .112; -.008; -.000; -44.993; -.000;
 5360; 1082.807; -.001; 869.112; -179.999; -44.998; -.001; -.000; .150; -.011; -.000; -44.990; -.000;
 5368; 1083.430; -.001; 869.063; -179.999; -44.998; -.001; -.000; .194; -.014; -.000; -44.987; -.000;
 5376; 1084.166; -.001; 869.006; -179.999; -44.998; -.001; -.000; .247; -.018; -.000; -44.983; -.000;
 5384; 1085.022; -.001; 868.940; -179.999; -44.998; -.001; -.000; .308; -.022; -.000; -44.979; -.000;
 5392; 1085.990; -.001; 868.865; -179.999; -44.998; -.001; -.000; .377; -.027; -.000; -44.975; -.000;
 5400; 1087.063; -.001; 868.782; -179.999; -44.998; -.001; -.000; .454; -.032; -.000; -44.970; -.000;
 5408; 1088.229; -.001; 868.691; -179.999; -44.998; -.001; -.000; .538; -.037; -.000; -44.964; -.000;
 5416; 1089.480; -.001; 868.594; -179.999; -44.998; -.001; -.000; .628; -.043; -.000; -44.959; -.000;
 5432; 1092.200; -.001; 868.383; -179.999; -44.998; -.001; -.000; .823; -.054; -.000; -44.947; -.000;
 5440; 1093.649; -.001; 868.271; -179.999; -44.998; -.001; -.000; .927; -.060; -.000; -44.941; -.000;
 5448; 1095.145; -.001; 868.155; -179.999; -44.999; -.001; -.000; 1.034; -.066; -.000; -44.935; -.000;
 5456; 1096.679; -.001; 868.036; -179.999; -44.999; -.001; -.000; 1.145; -.072; -.000; -44.929; -.000;
 5464; 1098.241; -.001; 867.914; -179.999; -44.999; -.001; -.000; 1.257; -.078; -.000; -44.923; -.000;
 5472; 1099.822; -.001; 867.792; -179.999; -44.999; -.001; -.000; 1.370; -.084; -.000; -44.917; -.000;
 5480; 1101.412; -.001; 867.668; -179.999; -44.999; -.001; -.000; 1.485; -.090; -.000; -44.911; -.000;
 5488; 1103.004; -.001; 867.545; -179.999; -44.999; -.001; -.000; 1.599; -.095; -.000; -44.906; -.000;
 5496; 1104.596; -.001; 867.421; -179.999; -44.999; -.001; -.000; 1.714; -.100; -.000; -44.901; -.000;
 5504; 1106.188; -.001; 867.298; -179.999; -44.999; -.001; -.000; 1.828; -.105; -.000; -44.896; -.000;
 5512; 1107.779; -.001; 867.174; -179.999; -44.999; -.001; -.000; 1.943; -.110; -.000; -44.891; -.000;
 5520; 1109.371; -.001; 867.051; -179.999; -44.999; -.001; -.000; 2.058; -.115; -.000; -44.886; -.000;
 5528; 1110.963; -.001; 866.927; -179.999; -44.999; -.001; -.000; 2.172; -.119; -.000; -44.882; -.000;
 5536; 1112.555; -.001; 866.804; -179.999; -44.999; -.001; -.000; 2.287; -.123; -.000; -44.878; -.000;
 5544; 1114.147; -.001; 866.680; -179.999; -44.999; -.001; -.000; 2.402; -.127; -.000; -44.874; -.000;
 5560; 1117.331; -.001; 866.433; -179.999; -44.999; -.001; -.000; 2.632; -.134; -.000; -44.867; -.000;
 5568; 1118.923; -.001; 866.310; -179.999; -44.999; -.001; -.000; 2.747; -.137; -.000; -44.863; -.000;
 5576; 1120.515; -.001; 866.186; -179.999; -44.999; -.001; -.000; 2.862; -.141; -.000; -44.860; -.000;
 5584; 1122.107; -.001; 866.063; -179.999; -44.999; -.001; -.000; 2.977; -.143; -.000; -44.858; -.000;
 5592; 1123.699; -.001; 865.939; -179.999; -44.999; -.001; -.000; 3.092; -.146; -.000; -44.855; -.000;
 5600; 1125.291; -.001; 865.815; -179.999; -44.999; -.001; -.000; 3.207; -.148; -.000; -44.853; -.000;
 5608; 1126.882; -.001; 865.692; -179.999; -44.999; -.001; -.000; 3.322; -.151; -.000; -44.850; -.000;
 5616; 1128.474; -.001; 865.568; -179.999; -44.999; -.001; -.000; 3.437; -.153; -.000; -44.848; -.000;
 5624; 1130.066; -.001; 865.445; -179.999; -44.999; -.001; -.000; 3.553; -.154; -.000; -44.847; -.000;
 5632; 1131.658; -.001; 865.321; -179.999; -44.999; -.001; -.000; 3.668; -.156; -.000; -44.845; -.000;
 5640; 1133.250; -.001; 865.198; -179.999; -44.999; -.001; -.000; 3.784; -.157; -.000; -44.844; -.000;
 5648; 1134.842; -.001; 865.074; -179.999; -44.999; -.001; -.000; 3.899; -.158; -.000; -44.843; -.000;
 5656; 1136.434; -.001; 864.951; -179.999; -44.999; -.001; -.000; 4.015; -.159; -.000; -44.842; -.000;
 5664; 1138.026; -.001; 864.827; -179.999; -44.999; -.001; -.000; 4.130; -.160; -.000; -44.841; -.000;
 5672; 1139.618; -.001; 864.704; -179.999; -44.999; -.001; -.000; 4.246; -.160; -.000; -44.840; -.000;
 5688; 1142.802; -.001; 864.457; -179.999; -44.999; -.001; -.000; 4.478; -.161; -.000; -44.840; -.000;
 5696; 1144.393; -.000; 864.333; -179.999; -44.999; -.001; -.000; 4.593; -.161; -.000; -44.840; -.000;
 5704; 1145.985; -.000; 864.210; -179.999; -44.999; -.001; -.000; 4.709; -.160; -.000; -44.841; -.000;
 5712; 1147.577; -.000; 864.086; -179.999; -44.999; -.001; -.000; 4.825; -.160; -.000; -44.841; -.000;
 5720; 1149.169; -.000; 863.963; -179.999; -44.999; -.001; -.000; 4.941; -.159; -.000; -44.842; -.000;
 5728; 1150.761; -.000; 863.839; -179.999; -44.999; -.001; -.000; 5.057; -.158; -.000; -44.843; -.000;
 5736; 1152.353; -.000; 863.716; -179.999; -44.999; -.001; -.000; 5.174; -.156; -.000; -44.844; -.000;
 5744; 1153.945; -.000; 863.592; -179.999; -44.999; -.001; -.000; 5.290; -.155; -.000; -44.846; -.000;
 5752; 1155.537; -.000; 863.469; -179.999; -44.999; -.001; -.000; 5.406; -.153; -.000; -44.848; -.000;
 5760; 1157.129; -.000; 863.345; -179.999; -44.999; -.001; -.000; 5.522; -.151; -.000; -44.850; -.000;
 5768; 1158.721; -.000; 863.222; -179.999; -44.999; -.001; -.000; 5.639; -.149; -.000; -44.852; -.000;
 5776; 1160.313; -.001; 863.098; -179.999; -44.999; -.001; -.000; 5.755; -.147; -.000; -44.854; -.000;
 5784; 1161.905; -.001; 862.974; -179.999; -44.999; -.001; -.000; 5.872; -.144; -.000; -44.857; -.000;
 5792; 1163.496; -.001; 862.851; -179.999; -44.999; -.001; -.000; 5.988; -.141; -.000; -44.860; -.000;
 5800; 1165.088; -.000; 862.728; -179.999; -44.999; -.001; -.000; 6.105; -.138; -.000; -44.863; -.000;
 5816; 1168.272; -.000; 862.480; -179.999; -44.999; -.001; -.000; 6.339; -.131; -.000; -44.869; -.000;
 5824; 1169.864; -.000; 862.357; -179.999; -44.999; -.001; -.000; 6.456; -.128; -.000; -44.873; -.000;
 5832; 1171.456; -.000; 862.233; -179.999; -44.999; -.001; -.000; 6.573; -.124; -.000; -44.877; -.000;
 5840; 1173.048; -.000; 862.110; -179.999; -44.999; -.001; -.000; 6.690; -.119; -.000; -44.881; -.000;
 5848; 1174.640; -.000; 861.986; -179.999; -44.999; -.001; -.000; 6.807; -.115; -.000; -44.886; -.000;
 5856; 1176.232; -.000; 861.863; -179.999; -44.999; -.001; -.000; 6.924; -.110; -.000; -44.890; -.000;
 5864; 1177.824; -.000; 861.739; -179.999; -44.999; -.001; -.000; 7.041; -.106; -.000; -44.895; -.000;
 5872; 1179.416; -.000; 861.616; -179.999; -44.999; -.001; -.000; 7.158; -.100; -.000; -44.900; -.000;
 5880; 1181.007; -.000; 861.492; -179.999; -44.999; -.001; -.000; 7.276; -.095; -.000; -44.906; -.000;
 5888; 1182.599; -.000; 861.369; -179.999; -44.999; -.001; -.000; 7.393; -.090; -.000; -44.911; -.000;
 5896; 1184.191; -.000; 861.245; -179.999; -44.999; -.001; -.000; 7.511; -.084; -.000; -44.917; -.000;
 5904; 1185.783; -.000; 861.122; -179.999; -44.999; -.001; -.000; 7.628; -.078; -.000; -44.923; -.000;
 5912; 1187.375; -.000; 860.998; -179.999; -44.999; -.001; -.000; 7.746; -.072; -.000; -44.929; -.000;
 5920; 1188.967; -.000; 860.875; -179.999; -44.999; -.000; -.000; 7.864; -.065; -.000; -44.936; -.000;
 5928; 1190.559; -.000; 860.751; -179.999; -44.999; -.000; -.000; 7.982; -.058; -.000; -44.942; -.000;
 5944; 1193.743; -.000; 860.504; -179.999; -44.999; -.000; -.000; 8.218; -.044; -.000; -44.956; -.000;
 5952; 1195.335; -.000; 860.381; -179.999; -44.999; -.000; -.000; 8.336; -.037; -.000; -44.964; -.000;
 5960; 1196.927; -.000; 860.257; -179.999; -44.999; -.000; -.000; 8.454; -.029; -.000; -44.971; -.000;
 5968; 1198.518; -.000; 860.134; -179.999; -44.999; -.000; -.000; 8.572; -.021; -.000; -44.979; -.000;
 5976; 1200.110; -.000; 860.010; -179.999; -44.999; -.000; -.000; 8.690; -.013; -.000; -44.987; -.000;
 5984; 1201.702; -.000; 859.886; -179.999; -44.999; -.000; -.000; 8.809; -.005; -.000; -44.996; -.000;
 5992; 1203.294; -.000; 859.763; -179.999; -44.999; -.000; -.000; 8.927; .002; -.000; -45.004; -.000;
 6000; 1204.886; -.000; 859.639; -179.999; -44.999; -.000; -.000; 9.046; .011; -.000; -45.013; -.000;
 6008; 1206.478; -.000; 859.516; -179.999; -44.999; -.000; -.000; 9.165; .020; -.000; -45.022; -.000;
 6016; 1208.070; -.000; 859.393; -179.999; -44.999; -.000; -.000; 9.283; .030; -.000; -45.031; -.000;
 6024; 1209.662; -.000; 859.269; -179.999; -44.999; -.000; -.000; 9.402; .039; -.000; -45.041; -.000;
 6032; 1211.254; -.000; 859.145; -179.999; -44.999; -.000; -.000; 9.521; .049; -.000; -45.050; -.000;
 6040; 1212.846; -.000; 859.022; -179.999; -44.999; -.000; -.000; 9.640; .059; -.000; -45.060; -.000;
 6048; 1214.438; -.000; 858.898; -179.999; -44.999; -.000; -.000; 9.759; .069; -.000; -45.070; -.000;
 6056; 1216.030; -.000; 858.775; -179.999; -44.999; -.000; -.000; 9.878; .079; -.000; -45.081; -.000;
 6072; 1219.213; -.000; 858.528; -179.999; -44.999; -.000; -.000; 10.117; .101; -.000; -45.103; -.000;
 6080; 1220.805; -.000; 858.404; -179.999; -44.999; -.000; -.000; 10.237; .112; -.000; -45.114; -.000;
 6088; 1222.397; -.000; 858.281; -179.999; -44.999; -.000; -.000; 10.356; .124; -.000; -45.125; -.000;
 6096; 1223.989; -.000; 858.157; -179.999; -44.999; -.000; -.000; 10.476; .135; -.000; -45.137; -.000;
 6104; 1225.581; -.000; 858.034; -179.999; -44.999; -.000; -.000; 10.596; .147; -.000; -45.149; -.000;
 6112; 1227.173; -.000; 857.910; -179.999; -44.999; -.000; -.000; 10.715; .159; -.000; -45.161; -.000;
 6120; 1228.765; -.000; 857.787; -179.999; -44.999; -.000; -.000; 10.835; .172; -.000; -45.173; -.000;
 6128; 1230.357; -.000; 857.663; -179.999; -44.999; -.000; -.000; 10.955; .184; -.000; -45.186; -.000;
 6136; 1231.949; -.000; 857.540; -179.999; -44.999; -.000; -.000; 11.076; .197; -.000; -45.199; -.000;
 6144; 1233.541; -.000; 857.416; -179.999; -44.999; -.000; -.000; 11.196; .210; -.000; -45.212; -.000;
 6152; 1235.132; -.000; 857.293; -179.999; -44.999; -.000; -.000; 11.316; .224; -.000; -45.225; -.000;
 6160; 1236.724; -.000; 857.169; -179.999; -44.999; -.000; -.000; 11.437; .237; -.000; -45.239; -.000;
 6168; 1238.316; -.000; 857.045; -179.999; -44.999; -.000; -.000; 11.557; .251; -.000; -45.252; -.000;
 6176; 1239.908; -.000; 856.922; -179.999; -44.999; -.000; -.000; 11.678; .265; -.000; -45.267; -.000;
 6184; 1241.500; -.000; 856.798; -179.999; -44.999; -.000; -.000; 11.799; .280; -.000; -45.281; -.000;
 6200; 1244.684; -.000; 856.551; -179.999; -44.999; -.000; -.000; 12.041; .309; -.000; -45.310; -.000;
 6208; 1246.276; -.000; 856.428; -179.999; -44.999; -.000; -.000; 12.162; .324; -.000; -45.325; -.000;
 6216; 1247.868; -.000; 856.305; -179.999; -44.999; -.000; -.000; 12.283; .339; -.000; -45.341; -.000;
 6224; 1249.460; -.000; 856.181; -179.999; -44.999; -.000; -.000; 12.404; .355; -.000; -45.356; -.000;
 6232; 1251.052; -.000; 856.057; -179.999; -44.999; -.000; -.000; 12.526; .371; -.000; -45.372; -.000;
 6240; 1252.643; -.000; 855.934; -179.999; -44.999; -.000; -.000; 12.647; .387; -.000; -45.388; -.000;
 6248; 1254.235; -.000; 855.810; -179.999; -44.999; -.000; -.000; 12.769; .403; -.000; -45.405; -.000;
 6256; 1255.827; -.000; 855.687; -179.999; -44.999; -.000; -.000; 12.891; .420; -.000; -45.421; -.000;
 6264; 1257.419; -.000; 855.564; -179.999; -44.999; -.000; -.000; 13.013; .437; -.000; -45.438; -.000;
 6272; 1259.011; -.000; 855.440; -179.999; -44.999; -.000; -.000; 13.135; .454; -.000; -45.455; -.000;
 6280; 1260.603; -.000; 855.316; -179.999; -44.999; -.000; -.000; 13.257; .472; -.000; -45.473; -.000;
 6288; 1262.195; -.000; 855.193; -179.999; -44.999; -.000; -.000; 13.379; .489; -.000; -45.490; -.000;
 6296; 1263.787; -.000; 855.069; -179.999; -44.999; -.000; -.000; 13.501; .507; -.000; -45.508; -.000;
 6304; 1265.379; -.000; 854.946; -179.999; -44.999; -.000; -.000; 13.624; .525; -.000; -45.527; -.000;
 6312; 1266.971; -.000; 854.822; -179.999; -44.999; -.000; -.000; 13.746; .544; -.000; -45.545; -.000;
 6328; 1270.155; -.000; 854.575; -179.999; -44.999; -.000; -.000; 13.992; .581; -.000; -45.583; -.000;
 6336; 1271.746; -.000; 854.452; -179.999; -44.999; -.000; -.000; 14.115; .601; -.000; -45.602; -.000;
 6344; 1273.338; -.000; 854.328; -179.999; -44.999; -.000; -.000; 14.238; .620; -.000; -45.621; -.000;
 6352; 1274.930; -.000; 854.205; -179.999; -44.999; -.000; -.000; 14.362; .640; -.000; -45.641; -.000;
 6360; 1276.522; -.000; 854.081; -179.999; -44.999; -.000; -.000; 14.485; .660; -.000; -45.661; -.000;
 6368; 1278.114; -.000; 853.958; -179.999; -44.999; -.000; -.000; 14.608; .680; -.000; -45.682; -.000;
 6376; 1279.706; -.000; 853.834; -179.999; -44.999; -.000; -.000; 14.732; .701; -.000; -45.702; -.000;
 6384; 1281.298; -.000; 853.710; -179.999; -44.999; -.000; -.000; 14.856; .722; -.000; -45.723; -.000;
 6392; 1282.890; -.000; 853.587; -179.999; -44.999; -.000; -.000; 14.980; .743; -.000; -45.744; -.000;
 6400; 1284.482; -.000; 853.464; -179.999; -44.999; -.000; -.000; 15.104; .764; -.000; -45.766; -.000;
 6408; 1286.073; -.000; 853.340; -179.999; -44.999; -.000; -.000; 15.228; .786; -.000; -45.787; -.000;
 6416; 1287.666; -.000; 853.216; -179.999; -44.999; -.000; -.000; 15.352; .808; -.000; -45.809; -.000;
 6424; 1289.257; -.000; 853.093; -180.000; -44.999; -.000; -.000; 15.477; .830; -.000; -45.831; -.000;
 6432; 1290.849; -.000; 852.969; -180.000; -44.999; -.000; -.000; 15.602; .853; -.000; -45.854; -.000;
 6440; 1292.441; -.000; 852.846; -180.000; -44.999; -.000; -.000; 15.726; .875; -.000; -45.877; -.000;
 6456; 1295.625; -.000; 852.599; -180.000; -44.999; -.000; -.000; 15.976; .922; -.000; -45.923; -.000;
 6464; 1297.217; -.000; 852.475; -180.000; -44.999; -.000; -.000; 16.102; .946; -.000; -45.947; -.000;
 6472; 1298.809; -.000; 852.352; -180.000; -44.999; -.000; -.000; 16.227; .969; -.000; -45.971; -.000;
 6480; 1300.401; -.000; 852.228; -180.000; -44.999; -.000; -.000; 16.353; .994; -.000; -45.995; -.000;
 6488; 1301.993; -.000; 852.105; -180.000; -44.999; -.000; -.000; 16.478; 1.019; -.000; -46.019; -.000;
 6496; 1303.585; -.000; 851.981; -180.000; -44.999; -.000; -.000; 16.604; 1.043; -.000; -46.044; -.000;
 6504; 1305.177; -.000; 851.858; -180.000; -44.999; -.000; -.000; 16.730; 1.068; -.000; -46.069; -.000;
 6512; 1306.768; -.000; 851.734; -180.000; -44.999; -.000; -.000; 16.856; 1.094; -.000; -46.094; -.000;
 6520; 1308.360; -.000; 851.611; -180.000; -44.999; -.000; -.000; 16.983; 1.119; -.000; -46.120; -.000;
 6528; 1309.952; -.000; 851.487; -180.000; -44.999; -.000; -.000; 17.109; 1.145; -.000; -46.146; -.000;
 6536; 1311.544; -.000; 851.364; -180.000; -44.999; -.000; -.000; 17.236; 1.171; -.000; -46.172; -.000;
 6544; 1313.136; -.000; 851.240; -180.000; -44.999; -.000; -.000; 17.363; 1.198; -.000; -46.199; -.000;
 6552; 1314.728; -.000; 851.117; -180.000; -44.999; -.000; -.000; 17.490; 1.225; -.000; -46.225; -.000;
 6560; 1316.320; -.000; 850.993; -180.000; -44.999; -.000; -.000; 17.617; 1.252; -.000; -46.253; -.000;
 6568; 1317.912; -.000; 850.870; -180.000; -44.999; -.000; -.000; 17.744; 1.279; -.000; -46.280; -.000;
 6584; 1321.096; -.000; 850.623; -180.000; -44.999; -.000; -.000; 17.999; 1.335; -.000; -46.336; -.000;
 6592; 1322.688; -.000; 850.499; -180.000; -44.999; -.000; -.000; 18.127; 1.363; -.000; -46.364; -.000;
 6600; 1324.279; -.000; 850.375; -180.000; -44.999; -.000; -.000; 18.255; 1.392; -.000; -46.393; -.000;
 6608; 1325.871; -.000; 850.252; -180.000; -44.999; -.000; -.000; 18.383; 1.421; -.000; -46.421; -.000;
 6616; 1327.463; -.000; 850.129; -180.000; -44.999; -.000; -.000; 18.512; 1.450; -.000; -46.451; -.000;
 6624; 1329.055; -.000; 850.005; -180.000; -44.999; -.000; -.000; 18.640; 1.480; -.000; -46.480; -.000;
 6632; 1330.647; -.000; 849.881; -180.000; -44.999; -.000; -.000; 18.769; 1.510; -.000; -46.510; -.000;
 6640; 1332.239; -.000; 849.758; -180.000; -44.999; -.000; -.000; 18.898; 1.540; -.000; -46.540; -.000;
 6648; 1333.831; -.000; 849.635; -180.000; -44.999; -.000; -.000; 19.027; 1.570; -.000; -46.571; -.000;
 6656; 1335.423; -.000; 849.511; -180.000; -44.999; -.000; -.000; 19.157; 1.601; -.000; -46.601; -.000;
 6664; 1337.015; -.000; 849.387; -180.000; -44.999; -.000; -.000; 19.286; 1.632; -.000; -46.633; -.000;
 6672; 1338.607; -.000; 849.264; -180.000; -45.000; -.000; -.000; 19.416; 1.663; -.000; -46.664; -.000;
 6680; 1340.199; -.000; 849.140; -180.000; -45.000; -.000; -.000; 19.546; 1.695; -.000; -46.696; -.000;
 6688; 1341.791; -.000; 849.017; -180.000; -45.000; -.000; -.000; 19.676; 1.727; -.000; -46.728; -.000;
 6696; 1343.382; -.000; 848.893; -180.000; -45.000; -.000; -.000; 19.806; 1.760; -.000; -46.760; -.000;
 6712; 1346.566; -.000; 848.646; -180.000; -45.000; -.000; -.000; 20.068; 1.825; -.000; -46.826; -.000;
 6720; 1348.158; -.000; 848.523; -180.000; -45.000; -.000; -.000; 20.199; 1.859; -.000; -46.859; -.000;
 6728; 1349.750; -.000; 848.399; -180.000; -45.000; -.000; -.000; 20.330; 1.893; -.000; -46.893; -.000;
 6736; 1351.342; -.000; 848.276; -180.000; -45.000; -.000; -.000; 20.461; 1.927; -.000; -46.927; -.000;
 6744; 1352.934; -.000; 848.152; -180.000; -45.000; -.000; -.000; 20.593; 1.961; -.000; -46.961; -.000;
 6752; 1354.526; -.000; 848.029; -180.000; -45.000; -.000; -.000; 20.724; 1.996; -.000; -46.996; -.000;
 6760; 1356.118; -.000; 847.905; -180.000; -45.000; -.000; -.000; 20.857; 2.031; -.000; -47.031; -.000;
 6768; 1357.710; -.000; 847.782; -180.000; -45.000; -.000; -.000; 20.989; 2.066; -.000; -47.067; -.000;
 6776; 1359.302; -.000; 847.658; -180.000; -45.000; -.000; -.000; 21.121; 2.102; -.000; -47.102; -.000;
 6784; 1360.893; -.000; 847.535; -180.000; -45.000; -.000; -.000; 21.254; 2.138; -.000; -47.138; -.000;
 6792; 1362.485; -.000; 847.411; -180.000; -45.000; -.000; -.000; 21.387; 2.174; -.000; -47.175; -.000;
 6800; 1364.077; -.000; 847.288; -180.000; -45.000; -.000; -.000; 21.520; 2.211; -.000; -47.212; -.000;
 6808; 1365.669; -.000; 847.164; -180.000; -45.000; -.000; -.000; 21.654; 2.248; -.000; -47.249; -.000;
 6816; 1367.261; -.000; 847.041; -180.000; -45.000; -.000; -.000; 21.787; 2.286; -.000; -47.286; -.000;
 6824; 1368.853; -.000; 846.917; -180.000; -45.000; -.000; -.000; 21.921; 2.324; -.000; -47.324; -.000;
 6840; 1372.037; -.000; 846.670; -180.000; -45.000; -.000; -.000; 22.190; 2.401; -.000; -47.401; -.000;
 6848; 1373.629; -.000; 846.547; -180.000; -45.000; -.000; -.000; 22.324; 2.440; -.000; -47.440; -.000;
 6856; 1375.221; -.000; 846.423; -180.000; -45.000; -.000; -.000; 22.459; 2.479; -.000; -47.479; -.000;
 6864; 1376.812; -.000; 846.299; -180.000; -45.000; -.000; -.000; 22.595; 2.519; -.000; -47.519; -.000;
 6872; 1378.404; -.000; 846.176; -180.000; -45.000; -.000; -.000; 22.730; 2.559; -.000; -47.559; -.000;
 6880; 1379.996; -.000; 846.052; -180.000; -45.000; -.000; -.000; 22.866; 2.599; -.000; -47.599; -.000;
 6888; 1381.588; -.000; 845.929; -180.000; -45.000; -.000; -.000; 23.002; 2.640; -.000; -47.640; -.000;
 6896; 1383.180; -.000; 845.805; -180.000; -45.000; -.000; -.000; 23.138; 2.681; -.000; -47.681; -.000;
 6904; 1384.772; -.000; 845.682; -180.000; -45.000; -.000; -.000; 23.274; 2.723; -.000; -47.723; -.000;
 6912; 1386.364; -.000; 845.558; -180.000; -45.000; -.000; -.000; 23.411; 2.765; -.000; -47.765; -.000;
 6920; 1387.956; -.000; 845.435; -180.000; -45.000; -.000; -.000; 23.548; 2.807; -.000; -47.807; -.000;
 6928; 1389.548; -.000; 845.311; -180.000; -45.000; -.000; -.000; 23.686; 2.850; -.000; -47.850; -.000;
 6936; 1391.140; -.000; 845.188; -180.000; -45.000; -.000; -.000; 23.823; 2.893; -.000; -47.893; -.000;
 6944; 1392.732; -.000; 845.064; -180.000; -45.000; -.000; -.000; 23.961; 2.936; -.000; -47.937; -.000;
 6952; 1394.324; -.000; 844.941; -180.000; -45.000; -.000; -.000; 24.100; 2.980; -.000; -47.981; -.000;
 6968; 1397.507; -.000; 844.694; -180.000; -45.000; -.000; -.000; 24.377; 3.069; -.000; -48.070; -.000;
 6976; 1399.099; -.000; 844.570; -180.000; -45.000; -.000; -.000; 24.516; 3.114; -.000; -48.115; -.000;
 6984; 1400.691; -.000; 844.447; -180.000; -45.000; -.000; -.000; 24.655; 3.160; -.000; -48.160; -.000;
 6992; 1402.283; -.000; 844.323; -180.000; -45.000; -.000; -.000; 24.795; 3.206; -.000; -48.206; -.000;
 7000; 1403.875; -.000; 844.200; -180.000; -45.000; -.000; -.000; 24.935; 3.252; -.000; -48.253; -.000;
 7008; 1405.467; -.000; 844.076; -180.000; -45.000; -.000; -.000; 25.076; 3.299; -.000; -48.300; -.000;
 7016; 1407.059; -.000; 843.953; -180.000; -45.000; -.000; -.000; 25.216; 3.347; -.000; -48.347; -.000;
 7024; 1408.651; -.000; 843.829; -180.000; -45.000; -.000; -.000; 25.358; 3.394; -.000; -48.394; -.000;
 7032; 1410.243; -.000; 843.706; -180.000; -45.000; -.000; -.000; 25.499; 3.442; -.000; -48.443; -.000;
 7040; 1411.835; -.000; 843.582; -180.000; -45.000; -.000; -.000; 25.641; 3.491; -.000; -48.491; -.000;
 7048; 1413.427; -.000; 843.458; -180.000; -45.000; -.000; -.000; 25.783; 3.540; -.000; -48.540; -.000;
 7056; 1415.018; -.000; 843.335; -180.000; -45.000; -.000; -.000; 25.925; 3.589; -.000; -48.590; -.000;
 7064; 1416.610; -.000; 843.212; -180.000; -45.000; -.000; -.000; 26.068; 3.639; -.000; -48.640; -.000;
 7072; 1418.202; -.000; 843.088; -180.000; -45.000; -.000; -.000; 26.211; 3.690; -.000; -48.690; -.000;
 7080; 1419.794; -.000; 842.964; -180.000; -45.000; -.000; -.000; 26.355; 3.741; -.000; -48.741; -.000;
 7096; 1422.978; -.000; 842.717; -180.000; -45.000; -.000; -.000; 26.643; 3.844; -.000; -48.844; -.000;
 7104; 1424.570; -.000; 842.594; -180.000; -45.000; -.000; -.000; 26.787; 3.896; -.000; -48.896; -.000;
 7112; 1426.161; -.000; 842.470; -180.000; -45.000; -.000; -.000; 26.932; 3.948; -.000; -48.949; -.000;
 7120; 1427.754; -.000; 842.347; -180.000; -45.000; -.000; -.000; 27.078; 4.002; -.000; -49.002; -.000;
 7128; 1429.346; -.000; 842.223; -180.000; -45.000; -.000; -.000; 27.224; 4.055; -.000; -49.055; -.000;
 7136; 1430.938; -.000; 842.100; -180.000; -45.000; -.000; -.000; 27.370; 4.110; -.000; -49.110; -.000;
 7144; 1432.529; -.000; 841.976; -180.000; -45.000; -.000; -.000; 27.516; 4.164; -.000; -49.164; -.000;
 7152; 1434.121; -.000; 841.853; -180.000; -45.000; -.000; -.000; 27.663; 4.219; -.000; -49.219; -.000;
 7160; 1435.713; -.000; 841.729; -180.000; -45.000; -.000; -.000; 27.811; 4.275; -.000; -49.275; -.000;
 7168; 1437.305; -.000; 841.606; -180.000; -45.000; -.000; -.000; 27.959; 4.331; -.000; -49.331; -.000;
 7176; 1438.896; -.000; 841.482; -180.000; -45.000; -.000; -.000; 28.107; 4.388; -.000; -49.388; -.000;
 7184; 1440.476; -.000; 841.360; -180.000; -45.000; -.000; -.000; 28.254; 4.445; -.000; -49.445; -.000;
 7192; 1442.038; -.000; 841.238; -180.000; -45.000; -.000; -.000; 28.401; 4.501; -.000; -49.501; -.000;
 7200; 1443.572; -.000; 841.119; -180.000; -45.000; -.000; -.000; 28.545; 4.557; -.000; -49.558; -.000;
 7208; 1445.069; .000; 841.003; -180.000; -45.000; -.000; 0.000; 28.686; 4.613; -.000; -49.613; -.000;
 7224; 1447.910; .000; 840.783; -180.000; -45.000; -.000; 0.000; 28.955; 4.719; -.000; -49.719; -.000;
 7232; 1449.237; .000; 840.680; -180.000; -45.000; -.000; 0.000; 29.081; 4.769; -.000; -49.769; -.000;
 7240; 1450.488; .000; 840.583; -180.000; -45.000; -.000; 0.000; 29.200; 4.817; -.000; -49.817; -.000;
 7248; 1451.654; .000; 840.492; -180.000; -45.000; -.000; 0.000; 29.311; 4.862; -.000; -49.862; -.000;
 7256; 1452.727; .000; 840.409; -180.000; -45.000; -.000; 0.000; 29.414; 4.903; -.000; -49.903; 0.000;
 7264; 1453.695; .000; 840.334; -180.000; -45.000; -.000; 0.000; 29.507; 4.941; -.000; -49.941; 0.000;
 7272; 1454.551; 0.000; 840.268; -180.000; -45.000; 0.000; 0.000; 29.589; 4.974; 0.000; -49.974; 0.000;
 7280; 1455.287; 0.000; 840.211; -180.000; -45.000; 0.000; 0.000; 29.660; 5.003; 0.000; -50.003; 0.000;
 7288; 1455.911; 0.000; 840.162; -180.000; -45.000; 0.000; 0.000; 29.720; 5.028; 0.000; -50.028; 0.000;
 7296; 1456.430; 0.000; 840.122; -180.000; -45.000; 0.000; 0.000; 29.770; 5.048; 0.000; -50.048; 0.000;
 7304; 1456.856; 0.000; 840.089; -180.000; -45.000; 0.000; 0.000; 29.811; 5.065; 0.000; -50.065; 0.000;
 7312; 1457.196; 0.000; 840.062; -180.000; -45.000; 0.000; 0.000; 29.844; 5.079; 0.000; -50.079; 0.000;
 7320; 1457.462; 0.000; 840.042; -180.000; -45.000; 0.000; 0.000; 29.870; 5.089; 0.000; -50.089; 0.000;
 7328; 1457.661; 0.000; 840.026; -180.000; -45.000; 0.000; 0.000; 29.889; 5.097; 0.000; -50.097; 0.000;
 7336; 1457.804; 0.000; 840.015; -180.000; -45.000; 0.000; 0.000; 29.903; 5.103; 0.000; -50.103; 0.000;
 7352; 1457.958; 0.000; 840.003; -180.000; -45.000; 0.000; 0.000; 29.918; 5.109; 0.000; -50.109; 0.000;
 7360; 1457.987; 0.000; 840.001; -180.000; -45.000; 0.000; 0.000; 29.921; 5.110; 0.000; -50.110; 0.000;
 7368; 1457.998; 0.000; 840.000; -180.000; -45.000; 0.000; 0.000; 29.922; 5.111; 0.000; -50.111; 0.000;
 7376; 1458.000; 0.000; 840.000; -180.000; -45.000; 0.000; 0.000; 29.922; 5.111; 0.000; -50.111; 0.000;
 7384; 1457.998; 0.000; 840.000; -180.000; -45.000; 0.000; 0.000; 29.922; 5.111; 0.000; -50.111; 0.000;
 7392; 1457.987; 0.000; 840.000; -180.000; -45.000; 0.000; 0.000; 29.921; 5.110; 0.000; -50.110; 0.000;
 7400; 1457.958; 0.000; 840.000; -180.000; -45.000; 0.000; 0.000; 29.918; 5.109; 0.000; -50.109; 0.000;
 7408; 1457.899; 0.000; 840.000; -180.000; -45.000; 0.000; 0.000; 29.912; 5.106; 0.000; -50.106; 0.000;
 7416; 1457.803; 0.000; 840.000; -180.000; -45.000; 0.000; 0.000; 29.903; 5.102; 0.000; -50.102; 0.000;
 7424; 1457.660; 0.000; 840.000; -180.000; -45.000; 0.000; 0.000; 29.889; 5.095; 0.000; -50.095; 0.000;
 7432; 1457.459; 0.000; 840.000; -180.000; -45.000; 0.000; 0.000; 29.869; 5.086; 0.000; -50.086; 0.000;
 7440; 1457.193; 0.000; 840.000; -180.000; -45.000; 0.000; 0.000; 29.842; 5.074; 0.000; -50.074; 0.000;
 7448; 1456.851; 0.000; 840.000; -180.000; -45.000; 0.000; 0.000; 29.809; 5.058; 0.000; -50.058; 0.000;
 7456; 1456.424; 0.000; 840.000; -180.000; -45.000; 0.000; 0.000; 29.767; 5.038; 0.000; -50.038; 0.000;
 7464; 1455.902; 0.000; 840.000; -180.000; -45.000; 0.000; 0.000; 29.715; 5.014; 0.000; -50.014; 0.000;
 7480; 1454.537; 0.000; 840.000; -180.000; -45.000; 0.000; 0.000; 29.581; 4.952; 0.000; -49.952; 0.000;
 7488; 1453.677; 0.000; 840.000; -180.000; -45.000; 0.000; 0.000; 29.497; 4.913; 0.000; -49.913; 0.000;
 7496; 1452.705; 0.000; 840.000; -180.000; -45.000; 0.000; 0.000; 29.401; 4.870; 0.000; -49.870; 0.000;
 7504; 1451.628; 0.000; 840.000; -180.000; -45.000; 0.000; 0.000; 29.296; 4.821; 0.000; -49.821; 0.000;
 7512; 1450.457; 0.000; 840.000; -180.000; -45.000; 0.000; 0.000; 29.182; 4.769; 0.000; -49.769; 0.000;
 7520; 1449.201; 0.000; 840.000; -180.000; -45.000; 0.000; 0.000; 29.060; 4.714; 0.000; -49.714; 0.000;
 7528; 1447.868; 0.000; 840.000; -180.000; -45.000; 0.000; 0.000; 28.931; 4.655; 0.000; -49.655; 0.000;
 7536; 1446.470; 0.000; 840.000; -180.000; -45.000; 0.000; 0.000; 28.796; 4.594; 0.000; -49.594; 0.000;
 7544; 1445.015; 0.000; 840.000; -180.000; -45.000; 0.000; 0.000; 28.656; 4.531; 0.000; -49.531; 0.000;
 7552; 1443.513; 0.000; 840.000; -180.000; -45.000; 0.000; 0.000; 28.512; 4.467; 0.000; -49.467; 0.000;
 7560; 1441.973; 0.000; 840.000; -180.000; -45.000; 0.000; 0.000; 28.364; 4.401; 0.000; -49.401; 0.000;
 7568; 1440.404; 0.000; 840.000; -180.000; -45.000; 0.000; 0.000; 28.215; 4.335; 0.000; -49.335; 0.000;
 7576; 1438.817; 0.000; 840.000; -180.000; -45.000; 0.000; 0.000; 28.064; 4.268; 0.000; -49.268; 0.000;
 7584; 1437.220; 0.000; 840.000; -180.000; -45.000; 0.000; 0.000; 27.912; 4.202; 0.000; -49.202; 0.000;
 7592; 1435.621; 0.000; 840.000; -180.000; -45.000; 0.000; 0.000; 27.761; 4.136; 0.000; -49.136; 0.000;
 7608; 1432.424; 0.000; 840.000; -180.000; -45.000; 0.000; 0.000; 27.460; 4.006; 0.000; -49.006; 0.000;
 7616; 1430.826; 0.000; 840.000; -180.000; -45.000; 0.000; 0.000; 27.311; 3.942; 0.000; -48.942; 0.000;
 7624; 1429.227; 0.000; 840.000; -180.000; -45.000; 0.000; 0.000; 27.161; 3.879; 0.000; -48.879; 0.000;
 7632; 1427.629; 0.000; 840.000; -180.000; -45.000; 0.000; 0.000; 27.012; 3.815; 0.000; -48.815; 0.000;
 7640; 1426.031; 0.000; 840.000; -180.000; -45.000; 0.000; 0.000; 26.864; 3.753; 0.000; -48.753; 0.000;
 7648; 1424.432; 0.000; 840.000; -180.000; -45.000; 0.000; 0.000; 26.716; 3.691; 0.000; -48.691; 0.000;
 7656; 1422.833; 0.000; 840.000; -180.000; -45.000; 0.000; 0.000; 26.569; 3.629; 0.000; -48.629; 0.000;
 7664; 1421.235; 0.000; 840.000; -180.000; -45.000; 0.000; 0.000; 26.421; 3.568; 0.000; -48.568; 0.000;
 7672; 1419.637; 0.000; 840.000; -180.000; -45.000; 0.000; 0.000; 26.275; 3.507; 0.000; -48.507; 0.000;
 7680; 1418.038; 0.000; 840.000; -180.000; -45.000; 0.000; 0.000; 26.128; 3.447; 0.000; -48.447; 0.000;
 7688; 1416.440; 0.000; 840.000; -180.000; -45.000; 0.000; 0.000; 25.982; 3.388; 0.000; -48.388; 0.000;
 7696; 1414.841; 0.000; 840.000; -180.000; -45.000; 0.000; 0.000; 25.837; 3.329; 0.000; -48.329; 0.000;
 7704; 1413.243; 0.000; 840.000; -180.000; -45.000; 0.000; 0.000; 25.692; 3.270; 0.000; -48.270; 0.000;
 7712; 1411.644; 0.000; 840.000; -180.000; -45.000; 0.000; 0.000; 25.547; 3.212; 0.000; -48.212; 0.000;
 7720; 1410.046; 0.000; 840.000; -180.000; -45.000; 0.000; 0.000; 25.403; 3.154; 0.000; -48.154; 0.000;
 7736; 1406.849; 0.000; 840.000; -180.000; -45.000; 0.000; 0.000; 25.115; 3.040; 0.000; -48.040; 0.000;
 7744; 1405.250; 0.000; 840.000; -180.000; -45.000; 0.000; 0.000; 24.972; 2.984; 0.000; -47.984; 0.000;
 7752; 1403.652; 0.000; 840.000; -180.000; -45.000; 0.000; 0.000; 24.829; 2.928; 0.000; -47.928; 0.000;
 7760; 1402.053; 0.000; 840.000; -180.000; -45.000; 0.000; 0.000; 24.686; 2.872; 0.000; -47.872; 0.000;
 7768; 1400.455; 0.000; 840.000; -180.000; -45.000; 0.000; 0.000; 24.544; 2.818; 0.000; -47.818; 0.000;
 7776; 1398.857; 0.000; 840.000; -180.000; -45.000; 0.000; 0.000; 24.402; 2.763; 0.000; -47.763; 0.000;
 7784; 1397.258; 0.000; 840.000; -180.000; -45.000; 0.000; 0.000; 24.260; 2.709; 0.000; -47.709; 0.000;
 7792; 1395.659; 0.000; 840.000; -180.000; -45.000; 0.000; 0.000; 24.119; 2.655; 0.000; -47.655; 0.000;
 7800; 1394.061; 0.000; 840.000; -180.000; -45.000; 0.000; 0.000; 23.978; 2.602; 0.000; -47.602; 0.000;
 7808; 1392.463; 0.000; 840.000; -180.000; -45.000; 0.000; 0.000; 23.838; 2.549; 0.000; -47.549; 0.000;
 7816; 1390.864; 0.000; 840.000; -180.000; -45.000; 0.000; 0.000; 23.697; 2.497; 0.000; -47.497; 0.000;
 7824; 1389.266; 0.000; 840.000; -180.000; -45.000; 0.000; 0.000; 23.557; 2.445; 0.000; -47.445; 0.000;
 7832; 1387.667; 0.000; 840.000; -180.000; -45.000; 0.000; 0.000; 23.418; 2.393; 0.000; -47.393; 0.000;
 7840; 1386.069; 0.000; 840.000; -180.000; -45.000; 0.000; 0.000; 23.278; 2.342; 0.000; -47.342; 0.000;
 7848; 1384.470; 0.000; 840.000; -180.000; -45.000; 0.000; 0.000; 23.139; 2.291; 0.000; -47.291; 0.000;
 7864; 1381.273; 0.000; 840.000; -180.000; -45.000; 0.000; 0.000; 22.862; 2.191; 0.000; -47.191; 0.000;
 7872; 1379.675; 0.000; 840.000; -180.000; -45.000; 0.000; 0.000; 22.724; 2.142; 0.000; -47.142; 0.000;
 7880; 1378.076; 0.000; 840.000; -180.000; -45.000; 0.000; 0.000; 22.586; 2.092; 0.000; -47.092; 0.000;
 7888; 1376.478; 0.000; 840.000; -180.000; -45.000; 0.000; 0.000; 22.448; 2.044; 0.000; -47.044; 0.000;
 7896; 1374.879; 0.000; 840.000; -180.000; -45.000; 0.000; 0.000; 22.311; 1.995; 0.000; -46.995; 0.000;
 7904; 1373.281; 0.000; 840.000; -180.000; -45.000; 0.000; 0.000; 22.174; 1.947; 0.000; -46.947; 0.000;
 7912; 1371.682; 0.000; 840.000; -180.000; -45.000; 0.000; 0.000; 22.037; 1.900; 0.000; -46.900; 0.000;
 7920; 1370.084; 0.000; 840.000; -180.000; -45.000; 0.000; 0.000; 21.901; 1.853; 0.000; -46.853; 0.000;
 7928; 1368.485; 0.000; 840.000; -180.000; -45.000; 0.000; 0.000; 21.765; 1.806; 0.000; -46.806; 0.000;
 7936; 1366.887; 0.000; 840.000; -180.000; -45.000; 0.000; 0.000; 21.629; 1.759; 0.000; -46.759; 0.000;
 7944; 1365.288; 0.000; 840.000; -180.000; -45.000; 0.000; 0.000; 21.493; 1.713; 0.000; -46.713; 0.000;
 7952; 1363.690; 0.000; 840.000; -180.000; -45.000; 0.000; 0.000; 21.358; 1.668; 0.000; -46.668; 0.000;
 7960; 1362.091; 0.000; 840.000; -180.000; -45.000; 0.000; 0.000; 21.222; 1.622; 0.000; -46.622; 0.000;
 7968; 1360.493; 0.000; 840.000; -180.000; -45.000; 0.000; 0.000; 21.088; 1.577; 0.000; -46.577; 0.000;
 7976; 1358.894; 0.000; 840.000; -180.000; -45.000; 0.000; 0.000; 20.953; 1.533; 0.000; -46.533; 0.000;
 7992; 1355.698; 0.000; 840.000; -180.000; -45.000; 0.000; 0.000; 20.684; 1.445; 0.000; -46.445; 0.000;
 8000; 1354.099; 0.000; 840.000; -180.000; -45.000; 0.000; 0.000; 20.550; 1.401; 0.000; -46.401; 0.000;
 8008; 1352.501; 0.000; 840.000; -180.000; -45.000; 0.000; 0.000; 20.417; 1.358; 0.000; -46.358; 0.000;
 8016; 1350.902; 0.000; 840.000; -180.000; -45.000; 0.000; 0.000; 20.283; 1.315; 0.000; -46.315; 0.000;
 8024; 1349.304; 0.000; 840.000; -180.000; -45.000; 0.000; 0.000; 20.150; 1.273; 0.000; -46.273; 0.000;
 8032; 1347.705; 0.000; 840.000; -180.000; -45.000; 0.000; 0.000; 20.017; 1.230; 0.000; -46.230; 0.000;
 8040; 1346.107; 0.000; 840.000; -180.000; -45.000; 0.000; 0.000; 19.884; 1.189; 0.000; -46.189; 0.000;
 8048; 1344.508; 0.000; 840.000; -180.000; -45.000; 0.000; 0.000; 19.751; 1.147; 0.000; -46.147; 0.000;
 8056; 1342.910; 0.000; 840.000; -180.000; -45.000; 0.000; 0.000; 19.619; 1.106; 0.000; -46.106; 0.000;
 8064; 1341.311; 0.000; 840.000; -180.000; -45.000; 0.000; 0.000; 19.487; 1.065; 0.000; -46.065; 0.000;
 8072; 1339.713; 0.000; 840.000; -180.000; -45.000; 0.000; 0.000; 19.355; 1.025; 0.000; -46.025; 0.000;
 8080; 1338.114; 0.000; 840.000; -180.000; -45.000; 0.000; 0.000; 19.223; .984; 0.000; -45.985; 0.000;
 8088; 1336.516; 0.000; 840.000; -180.000; -45.000; 0.000; 0.000; 19.092; .945; 0.000; -45.945; 0.000;
 8096; 1334.917; 0.000; 840.000; -180.000; -45.000; 0.000; 0.000; 18.961; .905; 0.000; -45.906; 0.000;
 8104; 1333.319; 0.000; 840.000; -180.000; -45.000; 0.000; 0.000; 18.830; .866; 0.000; -45.867; 0.000;
 8120; 1330.122; 0.000; 840.000; -180.000; -45.000; 0.000; 0.000; 18.568; .789; 0.000; -45.789; 0.000;
 8128; 1328.524; 0.000; 840.000; -180.000; -45.000; 0.000; 0.000; 18.438; .751; 0.000; -45.751; 0.000;
 8136; 1326.925; 0.000; 840.000; -180.000; -45.000; 0.000; 0.000; 18.307; .713; 0.000; -45.713; 0.000;
 8144; 1325.327; 0.000; 840.000; -180.000; -45.000; 0.000; 0.000; 18.177; .675; 0.000; -45.676; 0.000;
 8152; 1323.728; 0.000; 840.000; -180.000; -45.000; 0.000; 0.000; 18.047; .638; 0.000; -45.639; 0.000;
 8160; 1322.130; 0.000; 840.000; -180.000; -45.000; 0.000; 0.000; 17.918; .601; 0.000; -45.602; 0.000;
 8168; 1320.531; 0.000; 840.000; -180.000; -45.000; 0.000; 0.000; 17.788; .565; 0.000; -45.565; 0.000;
 8176; 1318.933; 0.000; 840.000; -180.000; -45.000; 0.000; 0.000; 17.659; .529; 0.000; -45.529; 0.000;
 8184; 1317.334; 0.000; 840.000; -180.000; -45.000; 0.000; 0.000; 17.530; .493; 0.000; -45.493; 0.000;
 8192; 1315.736; 0.000; 840.000; -180.000; -45.000; 0.000; 0.000; 17.401; .457; 0.000; -45.458; 0.000;
 8200; 1314.137; 0.000; 840.000; -180.000; -45.000; 0.000; 0.000; 17.272; .422; 0.000; -45.422; 0.000;
 8208; 1312.539; 0.000; 840.000; -180.000; -45.000; 0.000; 0.000; 17.143; .387; 0.000; -45.387; 0.000;
 8216; 1310.940; 0.000; 840.000; -180.000; -45.000; 0.000; 0.000; 17.015; .352; 0.000; -45.353; 0.000;
 8224; 1309.342; 0.000; 840.000; -180.000; -45.000; 0.000; 0.000; 16.887; .318; 0.000; -45.318; 0.000;
 8232; 1307.743; 0.000; 840.000; -180.000; -45.000; 0.000; 0.000; 16.758; .284; 0.000; -45.284; 0.000;
 8248; 1304.546; 0.000; 840.000; -180.000; -45.000; 0.000; 0.000; 16.503; .216; 0.000; -45.217; 0.000;
 8256; 1302.948; 0.000; 840.000; -180.000; -45.000; 0.000; 0.000; 16.375; .183; 0.000; -45.184; 0.000;
 8264; 1301.349; 0.000; 840.000; -180.000; -45.000; 0.000; 0.000; 16.248; .150; 0.000; -45.151; 0.000;
 8272; 1299.751; 0.000; 840.000; -180.000; -45.000; 0.000; 0.000; 16.121; .118; 0.000; -45.118; 0.000;
