Pecniks/lidar-robot-demo/20210303/KAREL - data about moving/covr_x 13-jan-00 674040109.csv
Time [ms];X;Y;Z;W;P;R;J1;J2;J3;J4;J5;J6;
 0; 1080.711; 0.000; 869.289; -180.000; -45.000; 0.000; 0.000; 0.000; 0.000; 0.000; -45.000; 0.000;
 8; 1080.711; 0.000; 869.289; -180.000; -45.000; 0.000; 0.000; 0.000; 0.000; 0.000; -45.000; 0.000;
 16; 1080.711; 0.000; 869.289; -180.000; -45.000; 0.000; 0.000; 0.000; 0.000; 0.000; -45.000; 0.000;
 24; 1080.711; 0.000; 869.289; -180.000; -45.000; 0.000; 0.000; 0.000; 0.000; 0.000; -45.000; 0.000;
 32; 1080.711; 0.000; 869.289; -180.000; -45.000; 0.000; 0.000; 0.000; 0.000; 0.000; -45.000; 0.000;
 40; 1080.711; 0.000; 869.289; -180.000; -45.000; 0.000; 0.000; 0.000; 0.000; 0.000; -45.000; 0.000;
 48; 1080.711; 0.000; 869.289; -180.000; -45.000; 0.000; 0.000; 0.000; 0.000; 0.000; -45.000; 0.000;
 56; 1080.711; 0.000; 869.289; -180.000; -45.000; 0.000; 0.000; 0.000; 0.000; 0.000; -45.000; 0.000;
 64; 1080.711; 0.000; 869.289; -180.000; -45.000; 0.000; 0.000; 0.000; 0.000; 0.000; -45.000; 0.000;
 72; 1080.711; 0.000; 869.289; -180.000; -45.000; 0.000; 0.000; 0.000; 0.000; 0.000; -45.000; 0.000;
 88; 1080.711; 0.000; 869.289; -180.000; -45.000; 0.000; 0.000; 0.000; 0.000; 0.000; -45.000; 0.000;
 96; 1080.711; 0.000; 869.289; -180.000; -45.000; 0.000; 0.000; 0.000; 0.000; 0.000; -45.000; 0.000;
 104; 1080.711; 0.000; 869.289; -180.000; -45.000; 0.000; 0.000; 0.000; 0.000; 0.000; -45.000; 0.000;
 112; 1080.711; 0.000; 869.289; -180.000; -45.000; 0.000; 0.000; 0.000; 0.000; 0.000; -45.000; 0.000;
 120; 1080.711; 0.000; 869.289; -180.000; -45.000; 0.000; 0.000; 0.000; 0.000; 0.000; -45.000; 0.000;
 128; 1080.711; 0.000; 869.289; -180.000; -45.000; 0.000; 0.000; 0.000; 0.000; 0.000; -45.000; 0.000;
 136; 1080.711; 0.000; 869.289; -180.000; -45.000; 0.000; 0.000; 0.000; 0.000; 0.000; -45.000; 0.000;
 144; 1080.711; 0.000; 869.289; -180.000; -45.000; 0.000; 0.000; 0.000; 0.000; 0.000; -45.000; 0.000;
 152; 1080.711; 0.000; 869.289; -180.000; -45.000; 0.000; 0.000; 0.000; 0.000; 0.000; -45.000; 0.000;
 160; 1080.711; 0.000; 869.289; -180.000; -45.000; 0.000; 0.000; 0.000; 0.000; 0.000; -45.000; 0.000;
 168; 1080.711; 0.000; 869.289; -180.000; -45.000; 0.000; 0.000; 0.000; 0.000; 0.000; -45.000; 0.000;
 176; 1080.711; 0.000; 869.289; -180.000; -45.000; 0.000; 0.000; 0.000; 0.000; 0.000; -45.000; 0.000;
 184; 1080.711; 0.000; 869.289; -180.000; -45.000; 0.000; 0.000; 0.000; 0.000; 0.000; -45.000; 0.000;
 192; 1080.711; 0.000; 869.289; -180.000; -45.000; 0.000; 0.000; 0.000; 0.000; 0.000; -45.000; 0.000;
 200; 1080.711; 0.000; 869.289; -180.000; -45.000; 0.000; 0.000; 0.000; 0.000; 0.000; -45.000; 0.000;
 216; 1080.711; 0.000; 869.289; -180.000; -45.000; 0.000; 0.000; 0.000; 0.000; 0.000; -45.000; 0.000;
 224; 1080.711; 0.000; 869.289; -180.000; -45.000; 0.000; 0.000; 0.000; 0.000; 0.000; -45.000; 0.000;
 232; 1080.711; 0.000; 869.289; -180.000; -45.000; 0.000; 0.000; 0.000; 0.000; 0.000; -45.000; 0.000;
 240; 1080.711; 0.000; 869.289; -180.000; -45.000; 0.000; 0.000; 0.000; 0.000; 0.000; -45.000; 0.000;
 248; 1080.711; 0.000; 869.289; -180.000; -45.000; 0.000; 0.000; 0.000; 0.000; 0.000; -45.000; 0.000;
 256; 1080.711; 0.000; 869.289; -180.000; -45.000; 0.000; 0.000; 0.000; 0.000; 0.000; -45.000; 0.000;
 264; 1080.711; 0.000; 869.289; -180.000; -45.000; 0.000; 0.000; 0.000; 0.000; 0.000; -45.000; 0.000;
 272; 1080.711; 0.000; 869.289; -180.000; -45.000; 0.000; 0.000; 0.000; 0.000; 0.000; -45.000; 0.000;
 280; 1080.711; 0.000; 869.289; -180.000; -45.000; 0.000; 0.000; 0.000; 0.000; 0.000; -45.000; 0.000;
 288; 1080.711; 0.000; 869.289; -180.000; -45.000; 0.000; 0.000; 0.000; 0.000; 0.000; -45.000; 0.000;
 296; 1080.711; 0.000; 869.289; -180.000; -45.000; 0.000; 0.000; 0.000; 0.000; 0.000; -45.000; 0.000;
 304; 1080.711; 0.000; 869.289; -180.000; -45.000; 0.000; 0.000; 0.000; 0.000; 0.000; -45.000; 0.000;
 312; 1080.711; 0.000; 869.289; -180.000; -45.000; 0.000; 0.000; 0.000; 0.000; 0.000; -45.000; 0.000;
 320; 1080.711; 0.000; 869.289; -180.000; -45.000; 0.000; 0.000; 0.000; 0.000; 0.000; -45.000; 0.000;
 328; 1080.711; 0.000; 869.289; -180.000; -45.000; 0.000; 0.000; 0.000; 0.000; 0.000; -45.000; 0.000;
 344; 1080.711; 0.000; 869.289; -180.000; -45.000; 0.000; 0.000; 0.000; 0.000; 0.000; -45.000; 0.000;
 352; 1080.711; 0.000; 869.289; -180.000; -45.000; 0.000; 0.000; 0.000; 0.000; 0.000; -45.000; 0.000;
 360; 1080.711; 0.000; 869.289; -180.000; -45.000; 0.000; 0.000; 0.000; 0.000; 0.000; -45.000; 0.000;
 368; 1080.711; 0.000; 869.289; -180.000; -45.000; 0.000; 0.000; 0.000; 0.000; 0.000; -45.000; 0.000;
 376; 1080.711; 0.000; 869.289; -180.000; -45.000; 0.000; 0.000; 0.000; 0.000; 0.000; -45.000; 0.000;
 384; 1080.711; 0.000; 869.289; -180.000; -45.000; 0.000; 0.000; 0.000; 0.000; 0.000; -45.000; 0.000;
 392; 1080.711; 0.000; 869.289; -180.000; -45.000; 0.000; 0.000; 0.000; 0.000; 0.000; -45.000; 0.000;
 400; 1080.711; 0.000; 869.289; -180.000; -45.000; 0.000; 0.000; 0.000; 0.000; 0.000; -45.000; 0.000;
 408; 1080.711; 0.000; 869.289; -180.000; -45.000; 0.000; 0.000; 0.000; 0.000; 0.000; -45.000; 0.000;
 416; 1080.711; 0.000; 869.289; -180.000; -45.000; 0.000; 0.000; 0.000; 0.000; 0.000; -45.000; 0.000;
 424; 1080.711; 0.000; 869.289; -180.000; -45.000; 0.000; 0.000; 0.000; 0.000; 0.000; -45.000; 0.000;
 432; 1080.711; 0.000; 869.289; -180.000; -45.000; 0.000; 0.000; 0.000; 0.000; 0.000; -45.000; 0.000;
 440; 1080.711; 0.000; 869.289; -180.000; -45.000; 0.000; 0.000; 0.000; 0.000; 0.000; -45.000; 0.000;
 448; 1080.711; 0.000; 869.289; -180.000; -45.000; 0.000; 0.000; 0.000; 0.000; 0.000; -45.000; 0.000;
 456; 1080.711; 0.000; 869.289; -180.000; -45.000; 0.000; 0.000; 0.000; 0.000; 0.000; -45.000; 0.000;
 472; 1080.711; 0.000; 869.289; -180.000; -45.000; 0.000; 0.000; 0.000; 0.000; 0.000; -45.000; 0.000;
 480; 1080.711; 0.000; 869.289; -180.000; -45.000; 0.000; 0.000; 0.000; 0.000; 0.000; -45.000; 0.000;
 488; 1080.711; 0.000; 869.289; -180.000; -45.000; 0.000; 0.000; 0.000; 0.000; 0.000; -45.000; 0.000;
 496; 1080.711; 0.000; 869.289; -180.000; -45.000; 0.000; 0.000; 0.000; 0.000; 0.000; -45.000; 0.000;
 504; 1080.711; 0.000; 869.289; -180.000; -45.000; 0.000; 0.000; 0.000; 0.000; 0.000; -45.000; 0.000;
 512; 1080.711; 0.000; 869.289; -180.000; -45.000; 0.000; 0.000; 0.000; 0.000; 0.000; -45.000; 0.000;
 520; 1080.711; 0.000; 869.289; -180.000; -45.000; 0.000; 0.000; 0.000; 0.000; 0.000; -45.000; 0.000;
 528; 1080.711; 0.000; 869.289; -180.000; -45.000; 0.000; 0.000; 0.000; 0.000; 0.000; -45.000; 0.000;
 536; 1080.711; 0.000; 869.289; -180.000; -45.000; 0.000; 0.000; 0.000; 0.000; 0.000; -45.000; 0.000;
 544; 1080.711; 0.000; 869.289; -180.000; -45.000; 0.000; 0.000; 0.000; 0.000; 0.000; -45.000; 0.000;
 552; 1080.711; 0.000; 869.289; -180.000; -45.000; 0.000; 0.000; 0.000; 0.000; 0.000; -45.000; 0.000;
 560; 1080.711; 0.000; 869.289; -180.000; -45.000; 0.000; 0.000; 0.000; 0.000; 0.000; -45.000; 0.000;
 568; 1080.711; 0.000; 869.289; -180.000; -45.000; 0.000; 0.000; 0.000; 0.000; 0.000; -45.000; 0.000;
 576; 1080.711; 0.000; 869.289; -180.000; -45.000; 0.000; 0.000; 0.000; 0.000; 0.000; -45.000; 0.000;
 584; 1080.711; 0.000; 869.289; -180.000; -45.000; 0.000; 0.000; 0.000; 0.000; 0.000; -45.000; 0.000;
 600; 1080.711; 0.000; 869.289; -180.000; -45.000; 0.000; 0.000; 0.000; 0.000; 0.000; -45.000; 0.000;
 608; 1080.711; 0.000; 869.289; -180.000; -45.000; 0.000; 0.000; 0.000; 0.000; 0.000; -45.000; 0.000;
 616; 1080.711; 0.000; 869.289; -180.000; -45.000; 0.000; 0.000; 0.000; 0.000; 0.000; -45.000; 0.000;
 624; 1080.711; 0.000; 869.289; -180.000; -45.000; 0.000; 0.000; 0.000; 0.000; 0.000; -45.000; 0.000;
 632; 1080.711; 0.000; 869.289; -180.000; -45.000; 0.000; 0.000; 0.000; 0.000; 0.000; -45.000; 0.000;
 640; 1080.711; 0.000; 869.289; -180.000; -45.000; 0.000; 0.000; 0.000; 0.000; 0.000; -45.000; 0.000;
 648; 1080.711; 0.000; 869.289; -180.000; -45.000; 0.000; 0.000; 0.000; 0.000; 0.000; -45.000; 0.000;
 656; 1080.711; 0.000; 869.289; -180.000; -45.000; 0.000; 0.000; 0.000; 0.000; 0.000; -45.000; 0.000;
 664; 1080.711; 0.000; 869.289; -180.000; -45.000; 0.000; 0.000; 0.000; 0.000; 0.000; -45.000; 0.000;
 672; 1080.711; 0.000; 869.289; -180.000; -45.000; 0.000; 0.000; 0.000; 0.000; 0.000; -45.000; 0.000;
 680; 1080.711; 0.000; 869.289; -180.000; -45.000; 0.000; 0.000; 0.000; 0.000; 0.000; -45.000; 0.000;
 688; 1080.711; 0.000; 869.289; -180.000; -45.000; 0.000; 0.000; 0.000; 0.000; 0.000; -45.000; 0.000;
 696; 1080.711; 0.000; 869.289; -180.000; -45.000; 0.000; 0.000; 0.000; 0.000; 0.000; -45.000; 0.000;
 704; 1080.711; 0.000; 869.289; -180.000; -45.000; 0.000; 0.000; 0.000; 0.000; 0.000; -45.000; 0.000;
 712; 1080.711; 0.000; 869.289; -180.000; -45.000; 0.000; 0.000; 0.000; 0.000; 0.000; -45.000; 0.000;
 728; 1080.711; 0.000; 869.289; -180.000; -45.000; 0.000; 0.000; 0.000; 0.000; 0.000; -45.000; 0.000;
 736; 1080.711; 0.000; 869.289; -180.000; -45.000; 0.000; 0.000; 0.000; 0.000; 0.000; -45.000; 0.000;
 744; 1080.711; 0.000; 869.289; -180.000; -45.000; 0.000; 0.000; 0.000; 0.000; 0.000; -45.000; 0.000;
 752; 1080.711; 0.000; 869.289; -180.000; -45.000; 0.000; 0.000; 0.000; 0.000; 0.000; -45.000; 0.000;
 760; 1080.711; 0.000; 869.289; -180.000; -45.000; 0.000; 0.000; 0.000; 0.000; 0.000; -45.000; 0.000;
 768; 1080.711; 0.000; 869.289; -180.000; -45.000; 0.000; 0.000; 0.000; 0.000; 0.000; -45.000; 0.000;
 776; 1080.711; 0.000; 869.289; -180.000; -45.000; 0.000; 0.000; 0.000; 0.000; 0.000; -45.000; 0.000;
 784; 1080.711; 0.000; 869.289; -180.000; -45.000; 0.000; 0.000; 0.000; 0.000; 0.000; -45.000; 0.000;
 792; 1080.711; 0.000; 869.289; -180.000; -45.000; 0.000; 0.000; 0.000; 0.000; 0.000; -45.000; 0.000;
 800; 1080.711; 0.000; 869.289; -180.000; -45.000; 0.000; 0.000; 0.000; 0.000; 0.000; -45.000; 0.000;
 808; 1080.711; 0.000; 869.289; -180.000; -45.000; 0.000; 0.000; 0.000; 0.000; 0.000; -45.000; 0.000;
 816; 1080.711; 0.000; 869.289; -180.000; -45.000; 0.000; 0.000; 0.000; 0.000; 0.000; -45.000; 0.000;
 824; 1080.711; 0.000; 869.289; -180.000; -45.000; 0.000; 0.000; 0.000; 0.000; 0.000; -45.000; 0.000;
 832; 1080.711; 0.000; 869.289; -180.000; -45.000; 0.000; 0.000; 0.000; 0.000; 0.000; -45.000; 0.000;
 840; 1080.711; 0.000; 869.289; -180.000; -45.000; 0.000; 0.000; 0.000; 0.000; 0.000; -45.000; 0.000;
 856; 1080.711; 0.000; 869.289; -180.000; -45.000; 0.000; 0.000; 0.000; 0.000; 0.000; -45.000; 0.000;
 864; 1080.711; 0.000; 869.289; -180.000; -45.000; 0.000; 0.000; 0.000; 0.000; 0.000; -45.000; 0.000;
 872; 1080.711; 0.000; 869.289; -180.000; -45.000; 0.000; 0.000; 0.000; 0.000; 0.000; -45.000; 0.000;
 880; 1080.711; 0.000; 869.289; -180.000; -45.000; 0.000; 0.000; 0.000; 0.000; 0.000; -45.000; 0.000;
 888; 1080.711; 0.000; 869.289; -180.000; -45.000; 0.000; 0.000; 0.000; 0.000; 0.000; -45.000; 0.000;
 896; 1080.711; 0.000; 869.289; -180.000; -45.000; 0.000; 0.000; 0.000; 0.000; 0.000; -45.000; 0.000;
 904; 1080.711; 0.000; 869.289; -180.000; -45.000; 0.000; 0.000; 0.000; 0.000; 0.000; -45.000; 0.000;
 912; 1080.711; 0.000; 869.289; -180.000; -45.000; 0.000; 0.000; 0.000; 0.000; 0.000; -45.000; 0.000;
 920; 1080.711; 0.000; 869.289; -180.000; -45.000; 0.000; 0.000; 0.000; 0.000; 0.000; -45.000; 0.000;
 928; 1080.711; 0.000; 869.289; -180.000; -45.000; 0.000; 0.000; 0.000; 0.000; 0.000; -45.000; 0.000;
 936; 1080.711; 0.000; 869.289; -180.000; -45.000; 0.000; 0.000; 0.000; 0.000; 0.000; -45.000; 0.000;
 944; 1080.711; 0.000; 869.289; -180.000; -45.000; 0.000; 0.000; 0.000; 0.000; 0.000; -45.000; 0.000;
 952; 1080.711; 0.000; 869.289; -180.000; -45.000; 0.000; 0.000; 0.000; 0.000; 0.000; -45.000; 0.000;
 960; 1080.711; 0.000; 869.289; -180.000; -45.000; 0.000; 0.000; 0.000; 0.000; 0.000; -45.000; 0.000;
 968; 1080.711; 0.000; 869.289; -180.000; -45.000; 0.000; 0.000; 0.000; 0.000; 0.000; -45.000; 0.000;
 984; 1080.711; 0.000; 869.289; -180.000; -45.000; 0.000; 0.000; 0.000; 0.000; 0.000; -45.000; 0.000;
 992; 1080.711; 0.000; 869.289; -180.000; -45.000; 0.000; 0.000; 0.000; 0.000; 0.000; -45.000; 0.000;
 1000; 1080.711; 0.000; 869.289; -180.000; -45.000; 0.000; 0.000; 0.000; 0.000; 0.000; -45.000; 0.000;
 1008; 1080.711; 0.000; 869.289; -180.000; -45.000; 0.000; 0.000; 0.000; 0.000; 0.000; -45.000; 0.000;
 1016; 1080.711; 0.000; 869.289; -180.000; -45.000; 0.000; 0.000; 0.000; 0.000; 0.000; -45.000; 0.000;
 1024; 1080.711; 0.000; 869.289; -180.000; -45.000; 0.000; 0.000; 0.000; 0.000; 0.000; -45.000; 0.000;
 1032; 1080.711; 0.000; 869.289; -180.000; -45.000; 0.000; 0.000; 0.000; 0.000; 0.000; -45.000; 0.000;
 1040; 1080.711; 0.000; 869.289; -180.000; -45.000; 0.000; 0.000; 0.000; 0.000; 0.000; -45.000; 0.000;
 1048; 1080.711; 0.000; 869.289; -180.000; -45.000; 0.000; 0.000; 0.000; 0.000; 0.000; -45.000; 0.000;
 1056; 1080.711; 0.000; 869.289; -180.000; -45.000; 0.000; 0.000; 0.000; 0.000; 0.000; -45.000; 0.000;
 1064; 1080.711; 0.000; 869.289; -180.000; -45.000; 0.000; 0.000; 0.000; 0.000; 0.000; -45.000; 0.000;
 1072; 1080.711; 0.000; 869.289; -180.000; -45.000; 0.000; 0.000; 0.000; 0.000; 0.000; -45.000; 0.000;
 1080; 1080.711; 0.000; 869.289; -180.000; -45.000; 0.000; 0.000; 0.000; 0.000; 0.000; -45.000; 0.000;
 1088; 1080.711; 0.000; 869.289; -180.000; -45.000; 0.000; 0.000; 0.000; 0.000; 0.000; -45.000; 0.000;
 1096; 1080.711; 0.000; 869.289; -180.000; -45.000; 0.000; 0.000; 0.000; 0.000; 0.000; -45.000; 0.000;
 1112; 1080.711; 0.000; 869.289; -180.000; -45.000; 0.000; 0.000; 0.000; 0.000; 0.000; -45.000; 0.000;
 1120; 1080.711; 0.000; 869.289; -180.000; -45.000; 0.000; 0.000; 0.000; 0.000; 0.000; -45.000; 0.000;
 1128; 1080.711; 0.000; 869.289; -180.000; -45.000; 0.000; 0.000; 0.000; 0.000; 0.000; -45.000; 0.000;
 1136; 1080.711; 0.000; 869.289; -180.000; -45.000; 0.000; 0.000; 0.000; 0.000; 0.000; -45.000; 0.000;
 1144; 1080.711; 0.000; 869.289; -180.000; -45.000; 0.000; 0.000; 0.000; 0.000; 0.000; -45.000; 0.000;
 1152; 1080.711; 0.000; 869.289; -180.000; -45.000; 0.000; 0.000; 0.000; 0.000; 0.000; -45.000; 0.000;
 1160; 1080.711; 0.000; 869.289; -180.000; -45.000; 0.000; 0.000; 0.000; 0.000; 0.000; -45.000; 0.000;
 1168; 1080.711; 0.000; 869.289; -180.000; -45.000; 0.000; 0.000; 0.000; 0.000; 0.000; -45.000; 0.000;
 1176; 1080.711; 0.000; 869.289; -180.000; -45.000; 0.000; 0.000; 0.000; 0.000; 0.000; -45.000; 0.000;
 1184; 1080.711; 0.000; 869.289; -180.000; -45.000; 0.000; 0.000; 0.000; 0.000; 0.000; -45.000; 0.000;
 1192; 1080.711; 0.000; 869.289; -180.000; -45.000; 0.000; 0.000; 0.000; 0.000; 0.000; -45.000; 0.000;
 1200; 1080.711; 0.000; 869.289; -180.000; -45.000; 0.000; 0.000; 0.000; 0.000; 0.000; -45.000; 0.000;
 1208; 1080.711; 0.000; 869.289; -180.000; -45.000; 0.000; 0.000; 0.000; 0.000; 0.000; -45.000; 0.000;
 1216; 1080.711; 0.000; 869.289; -180.000; -45.000; 0.000; 0.000; 0.000; 0.000; 0.000; -45.000; 0.000;
 1224; 1080.711; 0.000; 869.289; -180.000; -45.000; 0.000; 0.000; 0.000; 0.000; 0.000; -45.000; 0.000;
 1240; 1080.711; 0.000; 869.289; -180.000; -45.000; 0.000; 0.000; 0.000; 0.000; 0.000; -45.000; 0.000;
 1248; 1080.711; 0.000; 869.289; -180.000; -45.000; 0.000; 0.000; 0.000; 0.000; 0.000; -45.000; 0.000;
 1256; 1080.711; 0.000; 869.289; -180.000; -45.000; 0.000; 0.000; 0.000; 0.000; 0.000; -45.000; 0.000;
 1264; 1080.711; 0.000; 869.289; -180.000; -45.000; 0.000; 0.000; 0.000; 0.000; 0.000; -45.000; 0.000;
 1272; 1080.711; 0.000; 869.289; -180.000; -45.000; 0.000; 0.000; 0.000; 0.000; 0.000; -45.000; 0.000;
 1280; 1080.711; 0.000; 869.289; -180.000; -45.000; 0.000; 0.000; 0.000; 0.000; 0.000; -45.000; 0.000;
 1288; 1080.711; 0.000; 869.289; -180.000; -45.000; 0.000; 0.000; 0.000; 0.000; 0.000; -45.000; 0.000;
 1296; 1080.711; 0.000; 869.289; -180.000; -45.000; 0.000; 0.000; 0.000; 0.000; 0.000; -45.000; 0.000;
 1304; 1080.711; 0.000; 869.289; -180.000; -45.000; 0.000; 0.000; 0.000; 0.000; 0.000; -45.000; 0.000;
 1312; 1080.711; 0.000; 869.289; -180.000; -45.000; 0.000; 0.000; 0.000; 0.000; 0.000; -45.000; 0.000;
 1320; 1080.711; 0.000; 869.289; -180.000; -45.000; 0.000; 0.000; 0.000; 0.000; 0.000; -45.000; 0.000;
 1328; 1080.711; 0.000; 869.289; -180.000; -45.000; 0.000; 0.000; 0.000; 0.000; 0.000; -45.000; 0.000;
 1336; 1080.711; 0.000; 869.289; -180.000; -45.000; 0.000; 0.000; 0.000; 0.000; 0.000; -45.000; 0.000;
 1344; 1080.711; 0.000; 869.289; -180.000; -45.000; 0.000; 0.000; 0.000; 0.000; 0.000; -45.000; 0.000;
 1352; 1080.711; 0.000; 869.289; -180.000; -45.000; 0.000; 0.000; 0.000; 0.000; 0.000; -45.000; 0.000;
 1368; 1080.711; 0.000; 869.289; -180.000; -45.000; 0.000; 0.000; 0.000; 0.000; 0.000; -45.000; 0.000;
 1376; 1080.711; 0.000; 869.289; -180.000; -45.000; 0.000; 0.000; 0.000; 0.000; 0.000; -45.000; 0.000;
 1384; 1080.711; 0.000; 869.289; -180.000; -45.000; 0.000; 0.000; 0.000; 0.000; 0.000; -45.000; 0.000;
 1392; 1080.711; 0.000; 869.289; -180.000; -45.000; 0.000; 0.000; 0.000; 0.000; 0.000; -45.000; 0.000;
 1400; 1080.711; 0.000; 869.289; -180.000; -45.000; 0.000; 0.000; 0.000; 0.000; 0.000; -45.000; 0.000;
 1408; 1080.711; 0.000; 869.289; -180.000; -45.000; 0.000; 0.000; 0.000; 0.000; 0.000; -45.000; 0.000;
 1416; 1080.711; 0.000; 869.289; -180.000; -45.000; 0.000; 0.000; 0.000; 0.000; 0.000; -45.000; 0.000;
 1424; 1080.711; 0.000; 869.289; -180.000; -45.000; 0.000; 0.000; 0.000; 0.000; 0.000; -45.000; 0.000;
 1432; 1080.711; 0.000; 869.289; -180.000; -45.000; 0.000; 0.000; 0.000; 0.000; 0.000; -45.000; 0.000;
 1440; 1080.711; 0.000; 869.289; -180.000; -45.000; 0.000; 0.000; 0.000; 0.000; 0.000; -45.000; 0.000;
 1448; 1080.711; 0.000; 869.289; -180.000; -45.000; 0.000; 0.000; 0.000; 0.000; 0.000; -45.000; 0.000;
 1456; 1080.711; 0.000; 869.289; -180.000; -45.000; 0.000; 0.000; 0.000; 0.000; 0.000; -45.000; 0.000;
 1464; 1080.711; 0.000; 869.289; -180.000; -45.000; 0.000; 0.000; 0.000; 0.000; 0.000; -45.000; 0.000;
 1472; 1080.711; 0.000; 869.289; -180.000; -45.000; 0.000; 0.000; 0.000; 0.000; 0.000; -45.000; 0.000;
 1480; 1080.711; 0.000; 869.289; -180.000; -45.000; 0.000; 0.000; 0.000; 0.000; 0.000; -45.000; 0.000;
 1496; 1080.711; 0.000; 869.289; -180.000; -45.000; 0.000; 0.000; 0.000; 0.000; 0.000; -45.000; 0.000;
 1504; 1080.711; 0.000; 869.289; -180.000; -45.000; 0.000; 0.000; 0.000; 0.000; 0.000; -45.000; 0.000;
 1512; 1080.711; 0.000; 869.289; -180.000; -45.000; 0.000; 0.000; 0.000; 0.000; 0.000; -45.000; 0.000;
 1520; 1080.711; 0.000; 869.289; -180.000; -45.000; 0.000; 0.000; 0.000; 0.000; 0.000; -45.000; 0.000;
 1528; 1080.711; 0.000; 869.289; -180.000; -45.000; 0.000; 0.000; 0.000; 0.000; 0.000; -45.000; 0.000;
 1536; 1080.711; 0.000; 869.289; -180.000; -45.000; 0.000; 0.000; 0.000; 0.000; 0.000; -45.000; 0.000;
 1544; 1080.711; 0.000; 869.289; -180.000; -45.000; 0.000; 0.000; 0.000; 0.000; 0.000; -45.000; 0.000;
 1552; 1080.711; 0.000; 869.289; -180.000; -45.000; 0.000; 0.000; 0.000; 0.000; 0.000; -45.000; 0.000;
 1560; 1080.711; 0.000; 869.289; -180.000; -45.000; 0.000; 0.000; 0.000; 0.000; 0.000; -45.000; 0.000;
 1568; 1080.711; 0.000; 869.289; -180.000; -45.000; 0.000; 0.000; 0.000; 0.000; 0.000; -45.000; 0.000;
 1576; 1080.711; 0.000; 869.289; -180.000; -45.000; 0.000; 0.000; 0.000; 0.000; 0.000; -45.000; 0.000;
 1584; 1080.711; 0.000; 869.289; -180.000; -45.000; 0.000; 0.000; 0.000; 0.000; 0.000; -45.000; 0.000;
 1592; 1080.711; 0.000; 869.289; -180.000; -45.000; 0.000; 0.000; 0.000; 0.000; 0.000; -45.000; 0.000;
 1600; 1080.711; 0.000; 869.289; -180.000; -45.000; 0.000; 0.000; 0.000; 0.000; 0.000; -45.000; 0.000;
 1608; 1080.711; 0.000; 869.289; -180.000; -45.000; 0.000; 0.000; 0.000; 0.000; 0.000; -45.000; 0.000;
 1624; 1080.711; 0.000; 869.289; -180.000; -45.000; 0.000; 0.000; 0.000; 0.000; 0.000; -45.000; 0.000;
 1632; 1080.711; 0.000; 869.289; -180.000; -45.000; 0.000; 0.000; 0.000; 0.000; 0.000; -45.000; 0.000;
 1640; 1080.711; 0.000; 869.289; -180.000; -45.000; 0.000; 0.000; 0.000; 0.000; 0.000; -45.000; 0.000;
 1648; 1080.711; 0.000; 869.289; -180.000; -45.000; 0.000; 0.000; 0.000; 0.000; 0.000; -45.000; 0.000;
 1656; 1080.711; 0.000; 869.289; -180.000; -45.000; 0.000; 0.000; 0.000; 0.000; 0.000; -45.000; 0.000;
 1664; 1080.711; 0.000; 869.289; -180.000; -45.000; 0.000; 0.000; 0.000; 0.000; 0.000; -45.000; 0.000;
 1672; 1080.711; 0.000; 869.289; -180.000; -45.000; 0.000; 0.000; 0.000; 0.000; 0.000; -45.000; 0.000;
 1680; 1080.711; 0.000; 869.289; -180.000; -45.000; 0.000; 0.000; 0.000; 0.000; 0.000; -45.000; 0.000;
 1688; 1080.711; 0.000; 869.289; -180.000; -45.000; 0.000; 0.000; 0.000; 0.000; 0.000; -45.000; 0.000;
 1696; 1080.711; 0.000; 869.289; -180.000; -45.000; 0.000; 0.000; 0.000; 0.000; 0.000; -45.000; 0.000;
 1704; 1080.711; 0.000; 869.289; -180.000; -45.000; 0.000; 0.000; 0.000; 0.000; 0.000; -45.000; 0.000;
 1712; 1080.711; 0.000; 869.289; -180.000; -45.000; 0.000; 0.000; 0.000; 0.000; 0.000; -45.000; 0.000;
 1720; 1080.711; 0.000; 869.289; -180.000; -45.000; 0.000; 0.000; 0.000; 0.000; 0.000; -45.000; 0.000;
 1728; 1080.711; 0.000; 869.289; -180.000; -45.000; 0.000; 0.000; 0.000; 0.000; 0.000; -45.000; 0.000;
 1736; 1080.711; 0.000; 869.289; -180.000; -45.000; 0.000; 0.000; 0.000; 0.000; 0.000; -45.000; 0.000;
 1752; 1080.711; 0.000; 869.289; -180.000; -45.000; 0.000; 0.000; 0.000; 0.000; 0.000; -45.000; 0.000;
 1760; 1080.711; 0.000; 869.289; -180.000; -45.000; 0.000; 0.000; 0.000; 0.000; 0.000; -45.000; 0.000;
 1768; 1080.711; 0.000; 869.289; -180.000; -45.000; 0.000; 0.000; 0.000; 0.000; 0.000; -45.000; 0.000;
 1776; 1080.711; 0.000; 869.289; -180.000; -45.000; 0.000; 0.000; 0.000; 0.000; 0.000; -45.000; 0.000;
 1784; 1080.711; 0.000; 869.289; -180.000; -45.000; 0.000; 0.000; 0.000; 0.000; 0.000; -45.000; 0.000;
 1792; 1080.711; 0.000; 869.289; -180.000; -45.000; 0.000; 0.000; 0.000; 0.000; 0.000; -45.000; 0.000;
 1800; 1080.711; 0.000; 869.289; -180.000; -45.000; 0.000; 0.000; 0.000; 0.000; 0.000; -45.000; 0.000;
 1808; 1080.711; 0.000; 869.289; -180.000; -45.000; 0.000; 0.000; 0.000; 0.000; 0.000; -45.000; 0.000;
 1816; 1080.711; 0.000; 869.289; -180.000; -45.000; 0.000; 0.000; 0.000; 0.000; 0.000; -45.000; 0.000;
 1824; 1080.711; 0.000; 869.289; -180.000; -45.000; 0.000; 0.000; 0.000; 0.000; 0.000; -45.000; 0.000;
 1832; 1080.711; 0.000; 869.289; -180.000; -45.000; 0.000; 0.000; 0.000; 0.000; 0.000; -45.000; 0.000;
 1840; 1080.711; 0.000; 869.289; -180.000; -45.000; 0.000; 0.000; 0.000; 0.000; 0.000; -45.000; 0.000;
 1848; 1080.711; 0.000; 869.289; -180.000; -45.000; 0.000; 0.000; 0.000; 0.000; 0.000; -45.000; 0.000;
 1856; 1080.711; 0.000; 869.289; -180.000; -45.000; 0.000; 0.000; 0.000; 0.000; 0.000; -45.000; 0.000;
 1864; 1080.711; 0.000; 869.289; -180.000; -45.000; 0.000; 0.000; 0.000; 0.000; 0.000; -45.000; 0.000;
 1880; 1080.711; 0.000; 869.289; -180.000; -45.000; 0.000; 0.000; 0.000; 0.000; 0.000; -45.000; 0.000;
 1888; 1080.711; 0.000; 869.289; -180.000; -45.000; 0.000; 0.000; 0.000; 0.000; 0.000; -45.000; 0.000;
 1896; 1080.711; 0.000; 869.289; -180.000; -45.000; 0.000; 0.000; 0.000; 0.000; 0.000; -45.000; 0.000;
 1904; 1080.711; 0.000; 869.289; -180.000; -45.000; 0.000; 0.000; 0.000; 0.000; 0.000; -45.000; 0.000;
 1912; 1080.711; 0.000; 869.289; -180.000; -45.000; 0.000; 0.000; 0.000; 0.000; 0.000; -45.000; 0.000;
 1920; 1080.711; 0.000; 869.289; -180.000; -45.000; 0.000; 0.000; 0.000; 0.000; 0.000; -45.000; 0.000;
 1928; 1080.711; 0.000; 869.289; -180.000; -45.000; 0.000; 0.000; 0.000; 0.000; 0.000; -45.000; 0.000;
 1936; 1080.711; 0.000; 869.289; -180.000; -45.000; 0.000; 0.000; 0.000; 0.000; 0.000; -45.000; 0.000;
 1944; 1080.711; 0.000; 869.289; -180.000; -45.000; 0.000; 0.000; 0.000; 0.000; 0.000; -45.000; 0.000;
 1952; 1080.711; 0.000; 869.289; -180.000; -45.000; 0.000; 0.000; 0.000; 0.000; 0.000; -45.000; 0.000;
 1960; 1080.711; 0.000; 869.289; -180.000; -45.000; 0.000; 0.000; 0.000; 0.000; 0.000; -45.000; 0.000;
 1968; 1080.711; 0.000; 869.289; -180.000; -45.000; 0.000; 0.000; 0.000; 0.000; 0.000; -45.000; 0.000;
 1976; 1080.711; 0.000; 869.289; -180.000; -45.000; 0.000; 0.000; 0.000; 0.000; 0.000; -45.000; 0.000;
 1984; 1080.711; 0.000; 869.289; -180.000; -45.000; 0.000; 0.000; 0.000; 0.000; 0.000; -45.000; 0.000;
 1992; 1080.711; 0.000; 869.289; -180.000; -45.000; 0.000; 0.000; 0.000; 0.000; 0.000; -45.000; 0.000;
 2008; 1080.711; 0.000; 869.289; -180.000; -45.000; 0.000; 0.000; 0.000; 0.000; 0.000; -45.000; 0.000;
 2016; 1080.711; 0.000; 869.289; -180.000; -45.000; 0.000; 0.000; 0.000; 0.000; 0.000; -45.000; 0.000;
 2024; 1080.711; 0.000; 869.289; -180.000; -45.000; 0.000; 0.000; 0.000; 0.000; 0.000; -45.000; 0.000;
 2032; 1080.711; 0.000; 869.289; -180.000; -45.000; 0.000; 0.000; 0.000; 0.000; 0.000; -45.000; 0.000;
 2040; 1080.711; 0.000; 869.289; -180.000; -45.000; 0.000; 0.000; 0.000; 0.000; 0.000; -45.000; 0.000;
 2048; 1080.711; 0.000; 869.289; -180.000; -45.000; 0.000; 0.000; 0.000; 0.000; 0.000; -45.000; 0.000;
 2056; 1080.711; 0.000; 869.289; -180.000; -45.000; 0.000; 0.000; 0.000; 0.000; 0.000; -45.000; 0.000;
 2064; 1080.711; 0.000; 869.289; -180.000; -45.000; 0.000; 0.000; 0.000; 0.000; 0.000; -45.000; 0.000;
 2072; 1080.711; 0.000; 869.289; -180.000; -45.000; 0.000; 0.000; 0.000; 0.000; 0.000; -45.000; 0.000;
 2080; 1080.711; 0.000; 869.289; -180.000; -45.000; 0.000; 0.000; 0.000; 0.000; 0.000; -45.000; 0.000;
 2088; 1080.711; 0.000; 869.289; -180.000; -45.000; 0.000; 0.000; 0.000; 0.000; 0.000; -45.000; 0.000;
 2096; 1080.711; 0.000; 869.289; -180.000; -45.000; 0.000; 0.000; 0.000; 0.000; 0.000; -45.000; 0.000;
 2104; 1080.711; 0.000; 869.289; -180.000; -45.000; 0.000; 0.000; 0.000; 0.000; 0.000; -45.000; 0.000;
 2112; 1080.711; 0.000; 869.289; -180.000; -45.000; 0.000; 0.000; 0.000; 0.000; 0.000; -45.000; 0.000;
 2120; 1080.711; 0.000; 869.289; -180.000; -45.000; 0.000; 0.000; 0.000; 0.000; 0.000; -45.000; 0.000;
 2136; 1080.711; 0.000; 869.289; -180.000; -45.000; 0.000; 0.000; 0.000; 0.000; 0.000; -45.000; 0.000;
 2144; 1080.711; 0.000; 869.289; -180.000; -45.000; 0.000; 0.000; 0.000; 0.000; 0.000; -45.000; 0.000;
 2152; 1080.711; 0.000; 869.289; -180.000; -45.000; 0.000; 0.000; 0.000; 0.000; 0.000; -45.000; 0.000;
 2160; 1080.711; 0.000; 869.289; -180.000; -45.000; 0.000; 0.000; 0.000; 0.000; 0.000; -45.000; 0.000;
 2168; 1080.711; 0.000; 869.289; -180.000; -45.000; 0.000; 0.000; 0.000; 0.000; 0.000; -45.000; 0.000;
 2176; 1080.711; 0.000; 869.289; -180.000; -45.000; 0.000; 0.000; 0.000; 0.000; 0.000; -45.000; 0.000;
 2184; 1080.711; 0.000; 869.289; -180.000; -45.000; 0.000; 0.000; 0.000; 0.000; 0.000; -45.000; 0.000;
 2192; 1080.711; 0.000; 869.289; -180.000; -45.000; 0.000; 0.000; 0.000; 0.000; 0.000; -45.000; 0.000;
 2200; 1080.711; 0.000; 869.289; -180.000; -45.000; 0.000; 0.000; 0.000; 0.000; 0.000; -45.000; 0.000;
 2208; 1080.711; 0.000; 869.289; -180.000; -45.000; 0.000; 0.000; 0.000; 0.000; 0.000; -45.000; 0.000;
 2216; 1080.711; 0.000; 869.289; -180.000; -45.000; 0.000; 0.000; 0.000; 0.000; 0.000; -45.000; 0.000;
 2224; 1080.711; 0.000; 869.289; -180.000; -45.000; 0.000; 0.000; 0.000; 0.000; 0.000; -45.000; 0.000;
 2232; 1080.711; 0.000; 869.289; -180.000; -45.000; 0.000; 0.000; 0.000; 0.000; 0.000; -45.000; 0.000;
 2240; 1080.711; 0.000; 869.289; -180.000; -45.000; 0.000; 0.000; 0.000; 0.000; 0.000; -45.000; 0.000;
 2248; 1080.711; 0.000; 869.289; -180.000; -45.000; 0.000; 0.000; 0.000; 0.000; 0.000; -45.000; 0.000;
 2264; 1080.711; 0.000; 869.289; -180.000; -45.000; 0.000; 0.000; 0.000; 0.000; 0.000; -45.000; 0.000;
 2272; 1080.711; 0.000; 869.289; -180.000; -45.000; 0.000; 0.000; 0.000; 0.000; 0.000; -45.000; 0.000;
 2280; 1080.711; 0.000; 869.289; -180.000; -45.000; 0.000; 0.000; 0.000; 0.000; 0.000; -45.000; 0.000;
 2288; 1080.711; 0.000; 869.289; -180.000; -45.000; 0.000; 0.000; 0.000; 0.000; 0.000; -45.000; 0.000;
 2296; 1080.711; 0.000; 869.289; -180.000; -45.000; 0.000; 0.000; 0.000; 0.000; 0.000; -45.000; 0.000;
 2304; 1080.711; 0.000; 869.289; -180.000; -45.000; 0.000; 0.000; 0.000; 0.000; 0.000; -45.000; 0.000;
 2312; 1080.711; 0.000; 869.289; -180.000; -45.000; 0.000; 0.000; 0.000; 0.000; 0.000; -45.000; 0.000;
 2320; 1080.711; 0.000; 869.289; -180.000; -45.000; 0.000; 0.000; 0.000; 0.000; 0.000; -45.000; 0.000;
 2328; 1080.711; 0.000; 869.289; -180.000; -45.000; 0.000; 0.000; 0.000; 0.000; 0.000; -45.000; 0.000;
 2336; 1080.711; 0.000; 869.289; -180.000; -45.000; 0.000; 0.000; 0.000; 0.000; 0.000; -45.000; 0.000;
 2344; 1080.711; 0.000; 869.289; -180.000; -45.000; 0.000; 0.000; 0.000; 0.000; 0.000; -45.000; 0.000;
 2352; 1080.711; 0.000; 869.289; -180.000; -45.000; 0.000; 0.000; 0.000; 0.000; 0.000; -45.000; 0.000;
 2360; 1080.711; 0.000; 869.289; -180.000; -45.000; 0.000; 0.000; 0.000; 0.000; 0.000; -45.000; 0.000;
 2368; 1080.711; 0.000; 869.289; -180.000; -45.000; 0.000; 0.000; 0.000; 0.000; 0.000; -45.000; 0.000;
 2376; 1080.711; 0.000; 869.289; -180.000; -45.000; 0.000; 0.000; 0.000; 0.000; 0.000; -45.000; 0.000;
 2392; 1080.711; 0.000; 869.289; -180.000; -45.000; 0.000; 0.000; 0.000; 0.000; 0.000; -45.000; 0.000;
 2400; 1080.711; 0.000; 869.289; -180.000; -45.000; 0.000; 0.000; 0.000; 0.000; 0.000; -45.000; 0.000;
 2408; 1080.711; 0.000; 869.289; -180.000; -45.000; 0.000; 0.000; 0.000; 0.000; 0.000; -45.000; 0.000;
 2416; 1080.711; 0.000; 869.289; -180.000; -45.000; 0.000; 0.000; 0.000; 0.000; 0.000; -45.000; 0.000;
 2424; 1080.711; 0.000; 869.289; -180.000; -45.000; 0.000; 0.000; 0.000; 0.000; 0.000; -45.000; 0.000;
 2432; 1080.711; 0.000; 869.289; -180.000; -45.000; 0.000; 0.000; 0.000; 0.000; 0.000; -45.000; 0.000;
 2440; 1080.711; 0.000; 869.289; -180.000; -45.000; 0.000; 0.000; 0.000; 0.000; 0.000; -45.000; 0.000;
 2448; 1080.711; 0.000; 869.289; -180.000; -45.000; 0.000; 0.000; 0.000; 0.000; 0.000; -45.000; 0.000;
 2456; 1080.711; 0.000; 869.289; -180.000; -45.000; 0.000; 0.000; 0.000; 0.000; 0.000; -45.000; 0.000;
 2464; 1080.711; 0.000; 869.289; -180.000; -45.000; 0.000; 0.000; 0.000; 0.000; 0.000; -45.000; 0.000;
 2472; 1080.711; 0.000; 869.289; -180.000; -45.000; 0.000; 0.000; 0.000; 0.000; 0.000; -45.000; 0.000;
 2480; 1080.711; 0.000; 869.289; -180.000; -45.000; 0.000; 0.000; 0.000; 0.000; 0.000; -45.000; 0.000;
 2488; 1080.711; 0.000; 869.289; -180.000; -45.000; 0.000; 0.000; 0.000; 0.000; 0.000; -45.000; 0.000;
 2496; 1080.711; 0.000; 869.289; -180.000; -45.000; 0.000; 0.000; 0.000; 0.000; 0.000; -45.000; 0.000;
 2504; 1080.711; 0.000; 869.289; -180.000; -45.000; 0.000; 0.000; 0.000; 0.000; 0.000; -45.000; 0.000;
 2520; 1080.711; 0.000; 869.289; -180.000; -45.000; 0.000; 0.000; 0.000; 0.000; 0.000; -45.000; 0.000;
 2528; 1080.711; 0.000; 869.289; -180.000; -45.000; 0.000; 0.000; 0.000; 0.000; 0.000; -45.000; 0.000;
 2536; 1080.711; 0.000; 869.289; -180.000; -45.000; 0.000; 0.000; 0.000; 0.000; 0.000; -45.000; 0.000;
 2544; 1080.711; 0.000; 869.289; -180.000; -45.000; 0.000; 0.000; 0.000; 0.000; 0.000; -45.000; 0.000;
 2552; 1080.711; 0.000; 869.289; -180.000; -45.000; 0.000; 0.000; 0.000; 0.000; 0.000; -45.000; 0.000;
 2560; 1080.711; 0.000; 869.289; -180.000; -45.000; 0.000; 0.000; 0.000; 0.000; 0.000; -45.000; 0.000;
 2568; 1080.711; 0.000; 869.289; -180.000; -45.000; 0.000; 0.000; 0.000; 0.000; 0.000; -45.000; 0.000;
 2576; 1080.711; 0.000; 869.289; -180.000; -45.000; 0.000; 0.000; 0.000; 0.000; 0.000; -45.000; 0.000;
 2584; 1080.711; 0.000; 869.289; -180.000; -45.000; 0.000; 0.000; 0.000; 0.000; 0.000; -45.000; 0.000;
 2592; 1080.711; 0.000; 869.289; -180.000; -45.000; 0.000; 0.000; 0.000; 0.000; 0.000; -45.000; 0.000;
 2600; 1080.711; 0.000; 869.289; -180.000; -45.000; 0.000; 0.000; 0.000; 0.000; 0.000; -45.000; 0.000;
 2608; 1080.711; 0.000; 869.289; -180.000; -45.000; 0.000; 0.000; 0.000; 0.000; 0.000; -45.000; 0.000;
 2616; 1080.711; 0.000; 869.289; -180.000; -45.000; 0.000; 0.000; 0.000; 0.000; 0.000; -45.000; 0.000;
 2624; 1080.711; 0.000; 869.289; -180.000; -45.000; 0.000; 0.000; 0.000; 0.000; 0.000; -45.000; 0.000;
 2632; 1080.711; 0.000; 869.289; -180.000; -45.000; 0.000; 0.000; 0.000; 0.000; 0.000; -45.000; 0.000;
 2648; 1080.711; 0.000; 869.289; -180.000; -45.000; 0.000; 0.000; 0.000; 0.000; 0.000; -45.000; 0.000;
 2656; 1080.711; 0.000; 869.289; -180.000; -45.000; 0.000; 0.000; 0.000; 0.000; 0.000; -45.000; 0.000;
 2664; 1080.711; 0.000; 869.289; -180.000; -45.000; 0.000; 0.000; 0.000; 0.000; 0.000; -45.000; 0.000;
 2672; 1080.711; 0.000; 869.289; -180.000; -45.000; 0.000; 0.000; 0.000; 0.000; 0.000; -45.000; 0.000;
 2680; 1080.711; 0.000; 869.289; -180.000; -45.000; 0.000; 0.000; 0.000; 0.000; 0.000; -45.000; 0.000;
 2688; 1080.711; 0.000; 869.289; -180.000; -45.000; 0.000; 0.000; 0.000; 0.000; 0.000; -45.000; 0.000;
 2696; 1080.711; 0.000; 869.289; -180.000; -45.000; 0.000; 0.000; 0.000; 0.000; 0.000; -45.000; 0.000;
 2704; 1080.711; 0.000; 869.289; -180.000; -45.000; 0.000; 0.000; 0.000; 0.000; 0.000; -45.000; 0.000;
 2712; 1080.711; 0.000; 869.289; -180.000; -45.000; 0.000; 0.000; 0.000; 0.000; 0.000; -45.000; 0.000;
 2720; 1080.711; 0.000; 869.289; -180.000; -45.000; 0.000; 0.000; 0.000; 0.000; 0.000; -45.000; 0.000;
 2728; 1080.711; 0.000; 869.289; -180.000; -45.000; 0.000; 0.000; 0.000; 0.000; 0.000; -45.000; 0.000;
 2736; 1080.711; 0.000; 869.289; -180.000; -45.000; 0.000; 0.000; 0.000; 0.000; 0.000; -45.000; 0.000;
 2744; 1080.711; 0.000; 869.289; -180.000; -45.000; 0.000; 0.000; 0.000; 0.000; 0.000; -45.000; 0.000;
 2752; 1080.711; 0.000; 869.289; -180.000; -45.000; 0.000; 0.000; 0.000; 0.000; 0.000; -45.000; 0.000;
 2760; 1080.711; 0.000; 869.289; -180.000; -45.000; 0.000; 0.000; 0.000; 0.000; 0.000; -45.000; 0.000;
 2776; 1080.711; 0.000; 869.289; -180.000; -45.000; 0.000; 0.000; 0.000; 0.000; 0.000; -45.000; 0.000;
 2784; 1080.711; 0.000; 869.289; -180.000; -45.000; 0.000; 0.000; 0.000; 0.000; 0.000; -45.000; 0.000;
 2792; 1080.711; 0.000; 869.289; -180.000; -45.000; 0.000; 0.000; 0.000; 0.000; 0.000; -45.000; 0.000;
 2800; 1080.711; 0.000; 869.289; -180.000; -45.000; 0.000; 0.000; 0.000; 0.000; 0.000; -45.000; 0.000;
 2808; 1080.711; 0.000; 869.289; -180.000; -45.000; 0.000; 0.000; 0.000; 0.000; 0.000; -45.000; 0.000;
 2816; 1080.711; 0.000; 869.289; -180.000; -45.000; 0.000; 0.000; 0.000; 0.000; 0.000; -45.000; 0.000;
 2824; 1080.711; 0.000; 869.289; -180.000; -45.000; 0.000; 0.000; 0.000; 0.000; 0.000; -45.000; 0.000;
 2832; 1080.711; 0.000; 869.289; -180.000; -45.000; 0.000; 0.000; 0.000; 0.000; 0.000; -45.000; 0.000;
 2840; 1080.711; 0.000; 869.289; -180.000; -45.000; 0.000; 0.000; 0.000; 0.000; 0.000; -45.000; 0.000;
 2848; 1080.711; 0.000; 869.289; -180.000; -45.000; 0.000; 0.000; 0.000; 0.000; 0.000; -45.000; 0.000;
 2856; 1080.711; 0.000; 869.289; -180.000; -45.000; 0.000; 0.000; 0.000; 0.000; 0.000; -45.000; 0.000;
 2864; 1080.711; 0.000; 869.289; -180.000; -45.000; 0.000; 0.000; 0.000; 0.000; 0.000; -45.000; 0.000;
 2872; 1080.711; 0.000; 869.289; -180.000; -45.000; 0.000; 0.000; 0.000; 0.000; 0.000; -45.000; 0.000;
 2880; 1080.711; 0.000; 869.289; -180.000; -45.000; 0.000; 0.000; 0.000; 0.000; 0.000; -45.000; 0.000;
 2888; 1080.711; 0.000; 869.289; -180.000; -45.000; 0.000; 0.000; 0.000; 0.000; 0.000; -45.000; 0.000;
 2904; 1080.711; 0.000; 869.289; -180.000; -45.000; 0.000; 0.000; 0.000; 0.000; 0.000; -45.000; 0.000;
 2912; 1080.711; 0.000; 869.289; -180.000; -45.000; 0.000; 0.000; 0.000; 0.000; 0.000; -45.000; 0.000;
 2920; 1080.711; 0.000; 869.289; -180.000; -45.000; 0.000; 0.000; 0.000; 0.000; 0.000; -45.000; 0.000;
 2928; 1080.711; 0.000; 869.289; -180.000; -45.000; 0.000; 0.000; 0.000; 0.000; 0.000; -45.000; 0.000;
 2936; 1080.711; 0.000; 869.289; -180.000; -45.000; 0.000; 0.000; 0.000; 0.000; 0.000; -45.000; 0.000;
 2944; 1080.711; 0.000; 869.289; -180.000; -45.000; 0.000; 0.000; 0.000; 0.000; 0.000; -45.000; 0.000;
 2952; 1080.711; 0.000; 869.289; -180.000; -45.000; 0.000; 0.000; 0.000; 0.000; 0.000; -45.000; 0.000;
 2960; 1080.711; 0.000; 869.289; -180.000; -45.000; 0.000; 0.000; 0.000; 0.000; 0.000; -45.000; 0.000;
 2968; 1080.711; 0.000; 869.289; -180.000; -45.000; 0.000; 0.000; 0.000; 0.000; 0.000; -45.000; 0.000;
 2976; 1080.711; 0.000; 869.289; -180.000; -45.000; 0.000; 0.000; 0.000; 0.000; 0.000; -45.000; 0.000;
 2984; 1080.711; 0.000; 869.289; -180.000; -45.000; 0.000; 0.000; 0.000; 0.000; 0.000; -45.000; 0.000;
 2992; 1080.711; 0.000; 869.289; -180.000; -45.000; 0.000; 0.000; 0.000; 0.000; 0.000; -45.000; 0.000;
 3000; 1080.711; 0.000; 869.289; -180.000; -45.000; 0.000; 0.000; 0.000; 0.000; 0.000; -45.000; 0.000;
 3008; 1080.711; 0.000; 869.289; -180.000; -45.000; 0.000; 0.000; 0.000; 0.000; 0.000; -45.000; 0.000;
 3016; 1080.711; 0.000; 869.289; -180.000; -45.000; 0.000; 0.000; 0.000; 0.000; 0.000; -45.000; 0.000;
 3032; 1080.711; 0.000; 869.289; -180.000; -45.000; 0.000; 0.000; 0.000; 0.000; 0.000; -45.000; 0.000;
 3040; 1080.711; 0.000; 869.289; -180.000; -45.000; 0.000; 0.000; 0.000; 0.000; 0.000; -45.000; 0.000;
 3048; 1080.711; 0.000; 869.289; -180.000; -45.000; 0.000; 0.000; 0.000; 0.000; 0.000; -45.000; 0.000;
 3056; 1080.711; 0.000; 869.289; -180.000; -45.000; 0.000; 0.000; 0.000; 0.000; 0.000; -45.000; 0.000;
 3064; 1080.711; 0.000; 869.289; -180.000; -45.000; 0.000; 0.000; 0.000; 0.000; 0.000; -45.000; 0.000;
 3072; 1080.711; 0.000; 869.289; -180.000; -45.000; 0.000; 0.000; 0.000; 0.000; 0.000; -45.000; 0.000;
 3080; 1080.711; 0.000; 869.289; -180.000; -45.000; 0.000; 0.000; 0.000; 0.000; 0.000; -45.000; 0.000;
 3088; 1080.711; 0.000; 869.289; -180.000; -45.000; 0.000; 0.000; 0.000; 0.000; 0.000; -45.000; 0.000;
 3096; 1080.711; 0.000; 869.289; -180.000; -45.000; 0.000; 0.000; 0.000; 0.000; 0.000; -45.000; 0.000;
 3104; 1080.711; 0.000; 869.289; -180.000; -45.000; 0.000; 0.000; 0.000; 0.000; 0.000; -45.000; 0.000;
 3112; 1080.711; 0.000; 869.289; -180.000; -45.000; 0.000; 0.000; 0.000; 0.000; 0.000; -45.000; 0.000;
 3120; 1080.711; 0.000; 869.289; -180.000; -45.000; 0.000; 0.000; 0.000; 0.000; 0.000; -45.000; 0.000;
 3128; 1080.711; 0.000; 869.289; -180.000; -45.000; 0.000; 0.000; 0.000; 0.000; 0.000; -45.000; 0.000;
 3136; 1080.711; 0.000; 869.289; -180.000; -45.000; 0.000; 0.000; 0.000; 0.000; 0.000; -45.000; 0.000;
 3144; 1080.711; 0.000; 869.289; -180.000; -45.000; 0.000; 0.000; 0.000; 0.000; 0.000; -45.000; 0.000;
 3160; 1080.711; 0.000; 869.289; -180.000; -45.000; 0.000; 0.000; 0.000; 0.000; 0.000; -45.000; 0.000;
 3168; 1080.711; 0.000; 869.289; -180.000; -45.000; 0.000; 0.000; 0.000; 0.000; 0.000; -45.000; 0.000;
 3176; 1080.711; 0.000; 869.289; -180.000; -45.000; 0.000; 0.000; 0.000; 0.000; 0.000; -45.000; 0.000;
 3184; 1080.711; 0.000; 869.289; -180.000; -45.000; 0.000; 0.000; 0.000; 0.000; 0.000; -45.000; 0.000;
 3192; 1080.711; 0.000; 869.289; -180.000; -45.000; 0.000; 0.000; 0.000; 0.000; 0.000; -45.000; 0.000;
 3200; 1080.711; 0.000; 869.289; -180.000; -45.000; 0.000; 0.000; 0.000; 0.000; 0.000; -45.000; 0.000;
 3208; 1080.711; 0.000; 869.289; -180.000; -45.000; 0.000; 0.000; 0.000; 0.000; 0.000; -45.000; 0.000;
 3216; 1080.711; 0.000; 869.289; -180.000; -45.000; 0.000; 0.000; 0.000; 0.000; 0.000; -45.000; 0.000;
 3224; 1080.711; 0.000; 869.289; -180.000; -45.000; 0.000; 0.000; 0.000; 0.000; 0.000; -45.000; 0.000;
 3232; 1080.711; 0.000; 869.289; -180.000; -45.000; 0.000; 0.000; 0.000; 0.000; 0.000; -45.000; 0.000;
 3240; 1080.711; 0.000; 869.289; -180.000; -45.000; 0.000; 0.000; 0.000; 0.000; 0.000; -45.000; 0.000;
 3248; 1080.711; 0.000; 869.289; -180.000; -45.000; 0.000; 0.000; 0.000; 0.000; 0.000; -45.000; 0.000;
 3256; 1080.711; 0.000; 869.289; -180.000; -45.000; 0.000; 0.000; 0.000; 0.000; 0.000; -45.000; 0.000;
 3264; 1080.711; 0.000; 869.289; -180.000; -45.000; 0.000; 0.000; 0.000; 0.000; 0.000; -45.000; 0.000;
 3272; 1080.711; 0.000; 869.289; -180.000; -45.000; 0.000; 0.000; 0.000; 0.000; 0.000; -45.000; 0.000;
 3288; 1080.711; 0.000; 869.289; -180.000; -45.000; 0.000; 0.000; 0.000; 0.000; 0.000; -45.000; 0.000;
 3296; 1080.711; 0.000; 869.289; -180.000; -45.000; 0.000; 0.000; 0.000; 0.000; 0.000; -45.000; 0.000;
 3304; 1080.711; 0.000; 869.289; -180.000; -45.000; 0.000; 0.000; 0.000; 0.000; 0.000; -45.000; 0.000;
 3312; 1080.711; 0.000; 869.289; -180.000; -45.000; 0.000; 0.000; 0.000; 0.000; 0.000; -45.000; 0.000;
 3320; 1080.711; 0.000; 869.289; -180.000; -45.000; 0.000; 0.000; 0.000; 0.000; 0.000; -45.000; 0.000;
 3328; 1080.711; 0.000; 869.289; -180.000; -45.000; 0.000; 0.000; 0.000; 0.000; 0.000; -45.000; 0.000;
 3336; 1080.711; 0.000; 869.289; -180.000; -45.000; 0.000; 0.000; 0.000; 0.000; 0.000; -45.000; 0.000;
 3344; 1080.711; 0.000; 869.289; -180.000; -45.000; 0.000; 0.000; 0.000; 0.000; 0.000; -45.000; 0.000;
 3352; 1080.711; 0.000; 869.289; -180.000; -45.000; 0.000; 0.000; 0.000; 0.000; 0.000; -45.000; 0.000;
 3360; 1080.711; 0.000; 869.289; -180.000; -45.000; 0.000; 0.000; 0.000; 0.000; 0.000; -45.000; 0.000;
 3368; 1080.711; 0.000; 869.289; -180.000; -45.000; 0.000; 0.000; 0.000; 0.000; 0.000; -45.000; 0.000;
 3376; 1080.711; 0.000; 869.289; -180.000; -45.000; 0.000; 0.000; 0.000; 0.000; 0.000; -45.000; 0.000;
 3384; 1080.711; 0.000; 869.289; -180.000; -45.000; 0.000; 0.000; 0.000; 0.000; 0.000; -45.000; 0.000;
 3392; 1080.711; 0.000; 869.289; -180.000; -45.000; 0.000; 0.000; 0.000; 0.000; 0.000; -45.000; 0.000;
 3400; 1080.711; 0.000; 869.289; -180.000; -45.000; 0.000; 0.000; 0.000; 0.000; 0.000; -45.000; 0.000;
 3416; 1080.711; 0.000; 869.289; -180.000; -45.000; 0.000; 0.000; 0.000; 0.000; 0.000; -45.000; 0.000;
 3424; 1080.711; 0.000; 869.289; -180.000; -45.000; 0.000; 0.000; 0.000; 0.000; 0.000; -45.000; 0.000;
 3432; 1080.711; 0.000; 869.289; -180.000; -45.000; 0.000; 0.000; 0.000; 0.000; 0.000; -45.000; 0.000;
 3440; 1080.711; 0.000; 869.289; -180.000; -45.000; 0.000; 0.000; 0.000; 0.000; 0.000; -45.000; 0.000;
 3448; 1080.711; 0.000; 869.289; -180.000; -45.000; 0.000; 0.000; 0.000; 0.000; 0.000; -45.000; 0.000;
 3456; 1080.711; 0.000; 869.289; -180.000; -45.000; 0.000; 0.000; 0.000; 0.000; 0.000; -45.000; 0.000;
 3464; 1080.711; 0.000; 869.289; -180.000; -45.000; 0.000; 0.000; 0.000; 0.000; 0.000; -45.000; 0.000;
 3472; 1080.711; 0.000; 869.289; -180.000; -45.000; 0.000; 0.000; 0.000; 0.000; 0.000; -45.000; 0.000;
 3480; 1080.711; 0.000; 869.289; -180.000; -45.000; 0.000; 0.000; 0.000; 0.000; 0.000; -45.000; 0.000;
 3488; 1080.711; 0.000; 869.289; -180.000; -45.000; 0.000; 0.000; 0.000; 0.000; 0.000; -45.000; 0.000;
 3496; 1080.711; 0.000; 869.289; -180.000; -45.000; 0.000; 0.000; 0.000; 0.000; 0.000; -45.000; 0.000;
 3504; 1080.711; 0.000; 869.289; -180.000; -45.000; 0.000; 0.000; 0.000; 0.000; 0.000; -45.000; 0.000;
 3512; 1080.711; 0.000; 869.289; -180.000; -45.000; 0.000; 0.000; 0.000; 0.000; 0.000; -45.000; 0.000;
 3520; 1080.711; 0.000; 869.289; -180.000; -45.000; 0.000; 0.000; 0.000; 0.000; 0.000; -45.000; 0.000;
 3528; 1080.711; 0.000; 869.289; -180.000; -45.000; 0.000; 0.000; 0.000; 0.000; 0.000; -45.000; 0.000;
 3544; 1080.711; 0.000; 869.289; -180.000; -45.000; 0.000; 0.000; 0.000; 0.000; 0.000; -45.000; 0.000;
 3552; 1080.711; 0.000; 869.289; -180.000; -45.000; 0.000; 0.000; 0.000; 0.000; 0.000; -45.000; 0.000;
 3560; 1080.711; 0.000; 869.289; -180.000; -45.000; 0.000; 0.000; 0.000; 0.000; 0.000; -45.000; 0.000;
 3568; 1080.711; 0.000; 869.289; -180.000; -45.000; 0.000; 0.000; 0.000; 0.000; 0.000; -45.000; 0.000;
 3576; 1080.711; 0.000; 869.289; -180.000; -45.000; 0.000; 0.000; 0.000; 0.000; 0.000; -45.000; 0.000;
 3584; 1080.711; 0.000; 869.289; -180.000; -45.000; 0.000; 0.000; 0.000; 0.000; 0.000; -45.000; 0.000;
 3592; 1080.711; 0.000; 869.289; -180.000; -45.000; 0.000; 0.000; 0.000; 0.000; 0.000; -45.000; 0.000;
 3600; 1080.711; 0.000; 869.289; -180.000; -45.000; 0.000; 0.000; 0.000; 0.000; 0.000; -45.000; 0.000;
 3608; 1080.711; 0.000; 869.289; -180.000; -45.000; 0.000; 0.000; 0.000; 0.000; 0.000; -45.000; 0.000;
 3616; 1080.711; 0.000; 869.289; -180.000; -45.000; 0.000; 0.000; 0.000; 0.000; 0.000; -45.000; 0.000;
 3624; 1080.711; 0.000; 869.289; -180.000; -45.000; 0.000; 0.000; 0.000; 0.000; 0.000; -45.000; 0.000;
 3632; 1080.711; 0.000; 869.289; -180.000; -45.000; 0.000; 0.000; 0.000; 0.000; 0.000; -45.000; 0.000;
 3640; 1080.711; 0.000; 869.289; -180.000; -45.000; 0.000; 0.000; 0.000; 0.000; 0.000; -45.000; 0.000;
 3648; 1080.711; 0.000; 869.289; -180.000; -45.000; 0.000; 0.000; 0.000; 0.000; 0.000; -45.000; 0.000;
 3656; 1080.711; 0.000; 869.289; -180.000; -45.000; 0.000; 0.000; 0.000; 0.000; 0.000; -45.000; 0.000;
 3672; 1080.711; 0.000; 869.289; -180.000; -45.000; 0.000; 0.000; 0.000; 0.000; 0.000; -45.000; 0.000;
 3680; 1080.711; 0.000; 869.289; -180.000; -45.000; 0.000; 0.000; 0.000; 0.000; 0.000; -45.000; 0.000;
 3688; 1080.711; 0.000; 869.289; -180.000; -45.000; 0.000; 0.000; 0.000; 0.000; 0.000; -45.000; 0.000;
 3696; 1080.711; 0.000; 869.289; -180.000; -45.000; 0.000; 0.000; 0.000; 0.000; 0.000; -45.000; 0.000;
 3704; 1080.711; 0.000; 869.289; -180.000; -45.000; 0.000; 0.000; 0.000; 0.000; 0.000; -45.000; 0.000;
 3712; 1080.711; 0.000; 869.289; -180.000; -45.000; 0.000; 0.000; 0.000; 0.000; 0.000; -45.000; 0.000;
 3720; 1080.711; 0.000; 869.289; -180.000; -45.000; 0.000; 0.000; 0.000; 0.000; 0.000; -45.000; 0.000;
 3728; 1080.711; 0.000; 869.289; -180.000; -45.000; 0.000; 0.000; 0.000; 0.000; 0.000; -45.000; 0.000;
 3736; 1080.711; 0.000; 869.289; -180.000; -45.000; 0.000; 0.000; 0.000; 0.000; 0.000; -45.000; 0.000;
 3744; 1080.711; 0.000; 869.289; -180.000; -45.000; 0.000; 0.000; 0.000; 0.000; 0.000; -45.000; 0.000;
 3752; 1080.711; 0.000; 869.289; -180.000; -45.000; 0.000; 0.000; 0.000; 0.000; 0.000; -45.000; 0.000;
 3760; 1080.711; 0.000; 869.289; -180.000; -45.000; 0.000; 0.000; 0.000; 0.000; 0.000; -45.000; 0.000;
 3768; 1080.711; 0.000; 869.289; -180.000; -45.000; 0.000; 0.000; 0.000; 0.000; 0.000; -45.000; 0.000;
 3776; 1080.711; 0.000; 869.289; -180.000; -45.000; 0.000; 0.000; 0.000; 0.000; 0.000; -45.000; 0.000;
 3784; 1080.711; 0.000; 869.289; -180.000; -45.000; 0.000; 0.000; 0.000; 0.000; 0.000; -45.000; 0.000;
 3800; 1080.711; 0.000; 869.289; -180.000; -45.000; 0.000; 0.000; 0.000; 0.000; 0.000; -45.000; 0.000;
 3808; 1080.711; 0.000; 869.289; -180.000; -45.000; 0.000; 0.000; 0.000; 0.000; 0.000; -45.000; 0.000;
 3816; 1080.711; 0.000; 869.289; -180.000; -45.000; 0.000; 0.000; 0.000; 0.000; 0.000; -45.000; 0.000;
 3824; 1080.711; 0.000; 869.289; -180.000; -45.000; 0.000; 0.000; 0.000; 0.000; 0.000; -45.000; 0.000;
 3832; 1080.711; 0.000; 869.289; -180.000; -45.000; 0.000; 0.000; 0.000; 0.000; 0.000; -45.000; 0.000;
 3840; 1080.711; 0.000; 869.289; -180.000; -45.000; 0.000; 0.000; 0.000; 0.000; 0.000; -45.000; 0.000;
 3848; 1080.711; 0.000; 869.289; -180.000; -45.000; 0.000; 0.000; 0.000; 0.000; 0.000; -45.000; 0.000;
 3856; 1080.711; 0.000; 869.289; -180.000; -45.000; 0.000; 0.000; 0.000; 0.000; 0.000; -45.000; 0.000;
 3864; 1080.711; 0.000; 869.289; -180.000; -45.000; 0.000; 0.000; 0.000; 0.000; 0.000; -45.000; 0.000;
 3872; 1080.711; 0.000; 869.289; -180.000; -45.000; 0.000; 0.000; 0.000; 0.000; 0.000; -45.000; 0.000;
 3880; 1080.711; 0.000; 869.289; -180.000; -45.000; 0.000; 0.000; 0.000; 0.000; 0.000; -45.000; 0.000;
 3888; 1080.711; 0.000; 869.289; -180.000; -45.000; 0.000; 0.000; 0.000; 0.000; 0.000; -45.000; 0.000;
 3896; 1080.711; 0.000; 869.289; -180.000; -45.000; 0.000; 0.000; 0.000; 0.000; 0.000; -45.000; 0.000;
 3904; 1080.711; 0.000; 869.289; -180.000; -45.000; 0.000; 0.000; 0.000; 0.000; 0.000; -45.000; 0.000;
 3912; 1080.711; 0.000; 869.289; -180.000; -45.000; 0.000; 0.000; 0.000; 0.000; 0.000; -45.000; 0.000;
 3928; 1080.711; 0.000; 869.289; -180.000; -45.000; 0.000; 0.000; 0.000; 0.000; 0.000; -45.000; 0.000;
 3936; 1080.711; 0.000; 869.289; -180.000; -45.000; 0.000; 0.000; 0.000; 0.000; 0.000; -45.000; 0.000;
 3944; 1080.711; 0.000; 869.289; -180.000; -45.000; 0.000; 0.000; 0.000; 0.000; 0.000; -45.000; 0.000;
 3952; 1080.711; 0.000; 869.289; -180.000; -45.000; 0.000; 0.000; 0.000; 0.000; 0.000; -45.000; 0.000;
 3960; 1080.711; 0.000; 869.289; -180.000; -45.000; 0.000; 0.000; 0.000; 0.000; 0.000; -45.000; 0.000;
 3968; 1080.711; 0.000; 869.289; -180.000; -45.000; 0.000; 0.000; 0.000; 0.000; 0.000; -45.000; 0.000;
 3976; 1080.711; 0.000; 869.289; -180.000; -45.000; 0.000; 0.000; 0.000; 0.000; 0.000; -45.000; 0.000;
 3984; 1080.711; 0.000; 869.289; -180.000; -45.000; 0.000; 0.000; 0.000; 0.000; 0.000; -45.000; 0.000;
 3992; 1080.711; 0.000; 869.289; -180.000; -45.000; 0.000; 0.000; 0.000; 0.000; 0.000; -45.000; 0.000;
 4000; 1080.711; 0.000; 869.289; -180.000; -45.000; 0.000; 0.000; 0.000; 0.000; 0.000; -45.000; 0.000;
 4008; 1080.711; 0.000; 869.289; -180.000; -45.000; 0.000; 0.000; 0.000; 0.000; 0.000; -45.000; 0.000;
 4016; 1080.711; 0.000; 869.289; -180.000; -45.000; 0.000; 0.000; 0.000; 0.000; 0.000; -45.000; 0.000;
 4024; 1080.711; 0.000; 869.289; -180.000; -45.000; 0.000; 0.000; 0.000; 0.000; 0.000; -45.000; 0.000;
 4032; 1080.711; 0.000; 869.289; -180.000; -45.000; 0.000; 0.000; 0.000; 0.000; 0.000; -45.000; 0.000;
 4040; 1080.711; 0.000; 869.289; -180.000; -45.000; 0.000; 0.000; 0.000; 0.000; 0.000; -45.000; 0.000;
 4056; 1080.711; 0.000; 869.289; -180.000; -45.000; 0.000; 0.000; 0.000; 0.000; 0.000; -45.000; 0.000;
 4064; 1080.711; 0.000; 869.289; -180.000; -45.000; 0.000; 0.000; 0.000; 0.000; 0.000; -45.000; 0.000;
 4072; 1080.711; 0.000; 869.289; -180.000; -45.000; 0.000; 0.000; 0.000; 0.000; 0.000; -45.000; 0.000;
 4080; 1080.711; 0.000; 869.289; -180.000; -45.000; 0.000; 0.000; 0.000; 0.000; 0.000; -45.000; 0.000;
 4088; 1080.711; 0.000; 869.289; -180.000; -45.000; 0.000; 0.000; 0.000; 0.000; 0.000; -45.000; 0.000;
 4096; 1080.711; 0.000; 869.289; -180.000; -45.000; 0.000; 0.000; 0.000; 0.000; 0.000; -45.000; 0.000;
 4104; 1080.711; 0.000; 869.289; -180.000; -45.000; 0.000; 0.000; 0.000; 0.000; 0.000; -45.000; 0.000;
 4112; 1080.711; 0.000; 869.289; -180.000; -45.000; 0.000; 0.000; 0.000; 0.000; 0.000; -45.000; 0.000;
 4120; 1080.711; 0.000; 869.289; -180.000; -45.000; 0.000; 0.000; 0.000; 0.000; 0.000; -45.000; 0.000;
 4128; 1080.711; 0.000; 869.289; -180.000; -45.000; 0.000; 0.000; 0.000; 0.000; 0.000; -45.000; 0.000;
 4136; 1080.711; 0.000; 869.289; -180.000; -45.000; 0.000; 0.000; 0.000; 0.000; 0.000; -45.000; 0.000;
 4144; 1080.711; 0.000; 869.289; -180.000; -45.000; 0.000; 0.000; 0.000; 0.000; 0.000; -45.000; 0.000;
 4152; 1080.711; 0.000; 869.289; -180.000; -45.000; 0.000; 0.000; 0.000; 0.000; 0.000; -45.000; 0.000;
 4160; 1080.711; 0.000; 869.289; -180.000; -45.000; 0.000; 0.000; 0.000; 0.000; 0.000; -45.000; 0.000;
 4168; 1080.711; 0.000; 869.289; -180.000; -45.000; 0.000; 0.000; 0.000; 0.000; 0.000; -45.000; 0.000;
 4184; 1080.711; 0.000; 869.289; -180.000; -45.000; 0.000; 0.000; 0.000; 0.000; 0.000; -45.000; 0.000;
 4192; 1080.711; 0.000; 869.289; -180.000; -45.000; 0.000; 0.000; 0.000; 0.000; 0.000; -45.000; 0.000;
 4200; 1080.711; 0.000; 869.289; -180.000; -45.000; 0.000; 0.000; 0.000; 0.000; 0.000; -45.000; 0.000;
 4208; 1080.711; 0.000; 869.289; -180.000; -45.000; 0.000; 0.000; 0.000; 0.000; 0.000; -45.000; 0.000;
 4216; 1080.711; 0.000; 869.289; -180.000; -45.000; 0.000; 0.000; 0.000; 0.000; 0.000; -45.000; 0.000;
 4224; 1080.711; 0.000; 869.289; -180.000; -45.000; 0.000; 0.000; 0.000; 0.000; 0.000; -45.000; 0.000;
 4232; 1080.711; 0.000; 869.289; -180.000; -45.000; 0.000; 0.000; 0.000; 0.000; 0.000; -45.000; 0.000;
 4240; 1080.711; 0.000; 869.289; -180.000; -45.000; 0.000; 0.000; 0.000; 0.000; 0.000; -45.000; 0.000;
 4248; 1080.711; 0.000; 869.289; -180.000; -45.000; 0.000; 0.000; 0.000; 0.000; 0.000; -45.000; 0.000;
 4256; 1080.711; 0.000; 869.289; -180.000; -45.000; 0.000; 0.000; 0.000; 0.000; 0.000; -45.000; 0.000;
 4264; 1080.711; 0.000; 869.289; -180.000; -45.000; 0.000; 0.000; 0.000; 0.000; 0.000; -45.000; 0.000;
 4272; 1080.711; 0.000; 869.289; -180.000; -45.000; 0.000; 0.000; 0.000; 0.000; 0.000; -45.000; 0.000;
 4280; 1080.711; 0.000; 869.289; -180.000; -45.000; 0.000; 0.000; 0.000; 0.000; 0.000; -45.000; 0.000;
 4288; 1080.711; 0.000; 869.289; -180.000; -45.000; 0.000; 0.000; 0.000; 0.000; 0.000; -45.000; 0.000;
 4296; 1080.711; 0.000; 869.289; -180.000; -45.000; 0.000; 0.000; 0.000; 0.000; 0.000; -45.000; 0.000;
 4312; 1080.711; 0.000; 869.289; -180.000; -45.000; 0.000; 0.000; 0.000; 0.000; 0.000; -45.000; 0.000;
 4320; 1080.711; 0.000; 869.289; -180.000; -45.000; 0.000; 0.000; 0.000; 0.000; 0.000; -45.000; 0.000;
 4328; 1080.711; 0.000; 869.289; -180.000; -45.000; 0.000; 0.000; 0.000; 0.000; 0.000; -45.000; 0.000;
 4336; 1080.711; 0.000; 869.289; -180.000; -45.000; 0.000; 0.000; 0.000; 0.000; 0.000; -45.000; 0.000;
 4344; 1080.711; 0.000; 869.289; -180.000; -45.000; 0.000; 0.000; 0.000; 0.000; 0.000; -45.000; 0.000;
 4352; 1080.711; 0.000; 869.289; -180.000; -45.000; 0.000; 0.000; 0.000; 0.000; 0.000; -45.000; 0.000;
 4360; 1080.711; 0.000; 869.289; -180.000; -45.000; 0.000; 0.000; 0.000; 0.000; 0.000; -45.000; 0.000;
 4368; 1080.711; 0.000; 869.289; -180.000; -45.000; 0.000; 0.000; 0.000; 0.000; 0.000; -45.000; 0.000;
 4376; 1080.711; 0.000; 869.289; -180.000; -45.000; 0.000; 0.000; 0.000; 0.000; 0.000; -45.000; 0.000;
 4384; 1080.711; 0.000; 869.289; -180.000; -45.000; 0.000; 0.000; 0.000; 0.000; 0.000; -45.000; 0.000;
 4392; 1080.711; 0.000; 869.289; -180.000; -45.000; 0.000; 0.000; 0.000; 0.000; 0.000; -45.000; 0.000;
 4400; 1080.711; 0.000; 869.289; -180.000; -45.000; 0.000; 0.000; 0.000; 0.000; 0.000; -45.000; 0.000;
 4408; 1080.711; 0.000; 869.289; -180.000; -45.000; 0.000; 0.000; 0.000; 0.000; 0.000; -45.000; 0.000;
 4416; 1080.711; 0.000; 869.289; -180.000; -45.000; 0.000; 0.000; 0.000; 0.000; 0.000; -45.000; 0.000;
 4424; 1080.711; 0.000; 869.289; -180.000; -45.000; 0.000; 0.000; 0.000; 0.000; 0.000; -45.000; 0.000;
 4440; 1080.711; 0.000; 869.289; -180.000; -45.000; 0.000; 0.000; 0.000; 0.000; 0.000; -45.000; 0.000;
 4448; 1080.711; 0.000; 869.289; -180.000; -45.000; 0.000; 0.000; 0.000; 0.000; 0.000; -45.000; 0.000;
 4456; 1080.711; 0.000; 869.289; -180.000; -45.000; 0.000; 0.000; 0.000; 0.000; 0.000; -45.000; 0.000;
 4464; 1080.711; 0.000; 869.289; -180.000; -45.000; 0.000; 0.000; 0.000; 0.000; 0.000; -45.000; 0.000;
 4472; 1080.711; 0.000; 869.289; -180.000; -45.000; 0.000; 0.000; 0.000; 0.000; 0.000; -45.000; 0.000;
 4480; 1080.711; 0.000; 869.289; -180.000; -45.000; 0.000; 0.000; 0.000; 0.000; 0.000; -45.000; 0.000;
 4488; 1080.711; 0.000; 869.289; -180.000; -45.000; 0.000; 0.000; 0.000; 0.000; 0.000; -45.000; 0.000;
 4496; 1080.711; 0.000; 869.289; -180.000; -45.000; 0.000; 0.000; 0.000; 0.000; 0.000; -45.000; 0.000;
 4504; 1080.711; 0.000; 869.289; -180.000; -45.000; 0.000; 0.000; 0.000; 0.000; 0.000; -45.000; 0.000;
 4512; 1080.711; 0.000; 869.289; -180.000; -45.000; 0.000; 0.000; 0.000; 0.000; 0.000; -45.000; 0.000;
 4520; 1080.711; 0.000; 869.289; -180.000; -45.000; 0.000; 0.000; 0.000; 0.000; 0.000; -45.000; 0.000;
 4528; 1080.711; 0.000; 869.289; -180.000; -45.000; 0.000; 0.000; 0.000; 0.000; 0.000; -45.000; 0.000;
 4536; 1080.711; 0.000; 869.289; -180.000; -45.000; 0.000; 0.000; 0.000; 0.000; 0.000; -45.000; 0.000;
 4544; 1080.711; 0.000; 869.289; -180.000; -45.000; 0.000; 0.000; 0.000; 0.000; 0.000; -45.000; 0.000;
 4552; 1080.711; 0.000; 869.289; -180.000; -45.000; 0.000; 0.000; 0.000; 0.000; 0.000; -45.000; 0.000;
 4568; 1080.711; 0.000; 869.289; -180.000; -45.000; 0.000; 0.000; 0.000; 0.000; 0.000; -45.000; 0.000;
 4576; 1080.711; 0.000; 869.289; -180.000; -45.000; 0.000; 0.000; 0.000; 0.000; 0.000; -45.000; 0.000;
 4584; 1080.711; 0.000; 869.289; -180.000; -45.000; 0.000; 0.000; 0.000; 0.000; 0.000; -45.000; 0.000;
 4592; 1080.711; 0.000; 869.289; -180.000; -45.000; 0.000; 0.000; 0.000; 0.000; 0.000; -45.000; 0.000;
 4600; 1080.711; 0.000; 869.289; -180.000; -45.000; 0.000; 0.000; 0.000; 0.000; 0.000; -45.000; 0.000;
 4608; 1080.711; 0.000; 869.289; -180.000; -45.000; 0.000; 0.000; 0.000; 0.000; 0.000; -45.000; 0.000;
 4616; 1080.711; 0.000; 869.289; -180.000; -45.000; 0.000; 0.000; 0.000; 0.000; 0.000; -45.000; 0.000;
 4624; 1080.711; 0.000; 869.289; -180.000; -45.000; 0.000; 0.000; 0.000; 0.000; 0.000; -45.000; 0.000;
 4632; 1080.711; 0.000; 869.289; -180.000; -45.000; 0.000; 0.000; 0.000; 0.000; 0.000; -45.000; 0.000;
 4640; 1080.711; 0.000; 869.289; -180.000; -45.000; 0.000; 0.000; 0.000; 0.000; 0.000; -45.000; 0.000;
 4648; 1080.711; 0.000; 869.289; -180.000; -45.000; 0.000; 0.000; 0.000; 0.000; 0.000; -45.000; 0.000;
 4656; 1080.711; 0.000; 869.289; -180.000; -45.000; 0.000; 0.000; 0.000; 0.000; 0.000; -45.000; 0.000;
 4664; 1080.711; 0.000; 869.289; -180.000; -45.000; 0.000; 0.000; 0.000; 0.000; 0.000; -45.000; 0.000;
 4672; 1080.711; 0.000; 869.289; -180.000; -45.000; 0.000; 0.000; 0.000; 0.000; 0.000; -45.000; 0.000;
 4680; 1080.711; 0.000; 869.289; -180.000; -45.000; 0.000; 0.000; 0.000; 0.000; 0.000; -45.000; 0.000;
 4696; 1080.711; 0.000; 869.289; -180.000; -45.000; 0.000; 0.000; 0.000; 0.000; 0.000; -45.000; 0.000;
 4704; 1080.711; 0.000; 869.289; -180.000; -45.000; 0.000; 0.000; 0.000; 0.000; 0.000; -45.000; 0.000;
 4712; 1080.711; 0.000; 869.289; -180.000; -45.000; 0.000; 0.000; 0.000; 0.000; 0.000; -45.000; 0.000;
 4720; 1080.711; 0.000; 869.289; -180.000; -45.000; 0.000; 0.000; 0.000; 0.000; 0.000; -45.000; 0.000;
 4728; 1080.711; 0.000; 869.289; -180.000; -45.000; 0.000; 0.000; 0.000; 0.000; 0.000; -45.000; 0.000;
 4736; 1080.711; 0.000; 869.289; -180.000; -45.000; 0.000; 0.000; 0.000; 0.000; 0.000; -45.000; 0.000;
 4744; 1080.711; 0.000; 869.289; -180.000; -45.000; 0.000; 0.000; 0.000; 0.000; 0.000; -45.000; 0.000;
 4752; 1080.711; 0.000; 869.289; -180.000; -45.000; 0.000; 0.000; 0.000; 0.000; 0.000; -45.000; 0.000;
 4760; 1080.711; 0.000; 869.289; -180.000; -45.000; 0.000; 0.000; 0.000; 0.000; 0.000; -45.000; 0.000;
 4768; 1080.711; 0.000; 869.289; -180.000; -45.000; 0.000; 0.000; 0.000; 0.000; 0.000; -45.000; 0.000;
 4776; 1080.711; 0.000; 869.289; -180.000; -45.000; 0.000; 0.000; 0.000; 0.000; 0.000; -45.000; 0.000;
 4784; 1080.711; 0.000; 869.289; -180.000; -45.000; 0.000; 0.000; 0.000; 0.000; 0.000; -45.000; 0.000;
 4792; 1080.711; 0.000; 869.289; -180.000; -45.000; 0.000; 0.000; 0.000; 0.000; 0.000; -45.000; 0.000;
 4800; 1080.711; 0.000; 869.289; -180.000; -45.000; 0.000; 0.000; 0.000; 0.000; 0.000; -45.000; 0.000;
 4808; 1080.711; 0.000; 869.289; -180.000; -45.000; 0.000; 0.000; 0.000; 0.000; 0.000; -45.000; 0.000;
 4824; 1080.711; 0.000; 869.289; -180.000; -45.000; 0.000; 0.000; 0.000; 0.000; 0.000; -45.000; 0.000;
 4832; 1080.711; 0.000; 869.289; -180.000; -45.000; 0.000; 0.000; 0.000; 0.000; 0.000; -45.000; 0.000;
 4840; 1080.711; 0.000; 869.289; -180.000; -45.000; 0.000; 0.000; 0.000; 0.000; 0.000; -45.000; 0.000;
 4848; 1080.711; 0.000; 869.289; -180.000; -45.000; 0.000; 0.000; 0.000; 0.000; 0.000; -45.000; 0.000;
 4856; 1080.711; 0.000; 869.289; -180.000; -45.000; 0.000; 0.000; 0.000; 0.000; 0.000; -45.000; 0.000;
 4864; 1080.711; 0.000; 869.289; -180.000; -45.000; 0.000; 0.000; 0.000; 0.000; 0.000; -45.000; 0.000;
 4872; 1080.711; 0.000; 869.289; -180.000; -45.000; 0.000; 0.000; 0.000; 0.000; 0.000; -45.000; 0.000;
 4880; 1080.711; 0.000; 869.289; -180.000; -45.000; 0.000; 0.000; 0.000; 0.000; 0.000; -45.000; 0.000;
 4888; 1080.711; 0.000; 869.289; -180.000; -45.000; 0.000; 0.000; 0.000; 0.000; 0.000; -45.000; 0.000;
 4896; 1080.711; 0.000; 869.289; -180.000; -45.000; 0.000; 0.000; 0.000; 0.000; 0.000; -45.000; 0.000;
 4904; 1080.711; 0.000; 869.289; -180.000; -45.000; 0.000; 0.000; 0.000; 0.000; 0.000; -45.000; 0.000;
 4912; 1080.711; 0.000; 869.289; -180.000; -45.000; 0.000; 0.000; 0.000; 0.000; 0.000; -45.000; 0.000;
 4920; 1080.711; 0.000; 869.289; -180.000; -45.000; 0.000; 0.000; 0.000; 0.000; 0.000; -45.000; 0.000;
 4928; 1080.711; 0.000; 869.289; -180.000; -45.000; 0.000; 0.000; 0.000; 0.000; 0.000; -45.000; 0.000;
 4936; 1080.711; 0.000; 869.289; -180.000; -45.000; 0.000; 0.000; 0.000; 0.000; 0.000; -45.000; 0.000;
 4952; 1080.711; 0.000; 869.289; -180.000; -45.000; 0.000; 0.000; 0.000; 0.000; 0.000; -45.000; 0.000;
 4960; 1080.711; 0.000; 869.289; -180.000; -45.000; 0.000; 0.000; 0.000; 0.000; 0.000; -45.000; 0.000;
 4968; 1080.711; 0.000; 869.289; -180.000; -45.000; 0.000; 0.000; 0.000; 0.000; 0.000; -45.000; 0.000;
 4976; 1080.711; 0.000; 869.289; -180.000; -45.000; 0.000; 0.000; 0.000; 0.000; 0.000; -45.000; 0.000;
 4984; 1080.711; 0.000; 869.289; -180.000; -45.000; 0.000; 0.000; 0.000; 0.000; 0.000; -45.000; 0.000;
 4992; 1080.711; 0.000; 869.289; -180.000; -45.000; 0.000; 0.000; 0.000; 0.000; 0.000; -45.000; 0.000;
 5000; 1080.711; 0.000; 869.289; -180.000; -45.000; 0.000; 0.000; 0.000; 0.000; 0.000; -45.000; 0.000;
 5008; 1080.711; 0.000; 869.289; -180.000; -45.000; 0.000; 0.000; 0.000; 0.000; 0.000; -45.000; 0.000;
 5016; 1080.711; 0.000; 869.289; -180.000; -45.000; 0.000; 0.000; 0.000; 0.000; 0.000; -45.000; 0.000;
 5024; 1080.711; 0.000; 869.289; -180.000; -45.000; 0.000; 0.000; 0.000; 0.000; 0.000; -45.000; 0.000;
 5032; 1080.711; 0.000; 869.289; -180.000; -45.000; 0.000; 0.000; 0.000; 0.000; 0.000; -45.000; 0.000;
 5040; 1080.711; 0.000; 869.289; -180.000; -45.000; 0.000; 0.000; 0.000; 0.000; 0.000; -45.000; 0.000;
 5048; 1080.711; 0.000; 869.289; -180.000; -45.000; 0.000; 0.000; 0.000; 0.000; 0.000; -45.000; 0.000;
 5056; 1080.711; 0.000; 869.289; -180.000; -45.000; 0.000; 0.000; 0.000; 0.000; 0.000; -45.000; 0.000;
 5064; 1080.711; 0.000; 869.289; -180.000; -45.000; 0.000; 0.000; 0.000; 0.000; 0.000; -45.000; 0.000;
 5080; 1080.711; 0.000; 869.289; -180.000; -45.000; 0.000; 0.000; 0.000; 0.000; 0.000; -45.000; 0.000;
 5088; 1080.711; 0.000; 869.289; -180.000; -45.000; 0.000; 0.000; 0.000; 0.000; 0.000; -45.000; 0.000;
 5096; 1080.711; 0.000; 869.289; -180.000; -45.000; 0.000; 0.000; 0.000; 0.000; 0.000; -45.000; 0.000;
 5104; 1080.711; 0.000; 869.289; -180.000; -45.000; 0.000; 0.000; 0.000; 0.000; 0.000; -45.000; 0.000;
 5112; 1080.711; 0.000; 869.289; -180.000; -45.000; 0.000; 0.000; 0.000; 0.000; 0.000; -45.000; 0.000;
 5120; 1080.711; 0.000; 869.289; -180.000; -45.000; 0.000; 0.000; 0.000; 0.000; 0.000; -45.000; 0.000;
 5128; 1080.711; 0.000; 869.289; -180.000; -45.000; 0.000; 0.000; 0.000; 0.000; 0.000; -45.000; 0.000;
 5136; 1080.711; 0.000; 869.289; -180.000; -45.000; 0.000; 0.000; 0.000; 0.000; 0.000; -45.000; 0.000;
 5144; 1080.711; 0.000; 869.289; -180.000; -45.000; 0.000; 0.000; 0.000; 0.000; 0.000; -45.000; 0.000;
 5152; 1080.711; 0.000; 869.289; -180.000; -45.000; 0.000; 0.000; 0.000; 0.000; 0.000; -45.000; 0.000;
 5160; 1080.711; 0.000; 869.289; -180.000; -45.000; 0.000; 0.000; 0.000; 0.000; 0.000; -45.000; 0.000;
 5168; 1080.711; 0.000; 869.289; -180.000; -45.000; 0.000; 0.000; 0.000; 0.000; 0.000; -45.000; 0.000;
 5176; 1080.711; 0.000; 869.289; -180.000; -45.000; 0.000; 0.000; 0.000; 0.000; 0.000; -45.000; 0.000;
 5184; 1080.711; 0.000; 869.289; -180.000; -45.000; 0.000; 0.000; 0.000; 0.000; 0.000; -45.000; 0.000;
 5192; 1080.711; 0.000; 869.289; -180.000; -45.000; 0.000; 0.000; 0.000; 0.000; 0.000; -45.000; 0.000;
 5208; 1080.711; 0.000; 869.289; -180.000; -45.000; 0.000; 0.000; 0.000; 0.000; 0.000; -45.000; 0.000;
 5216; 1080.711; 0.000; 869.289; -180.000; -45.000; 0.000; 0.000; 0.000; 0.000; 0.000; -45.000; 0.000;
 5224; 1080.711; .000; 869.289; -180.000; -45.000; .000; .000; 0.000; 0.000; 0.000; -45.000; 0.000;
 5232; 1080.711; .004; 869.289; -180.000; -45.000; .000; .000; 0.000; 0.000; 0.000; -45.000; 0.000;
 5240; 1080.711; .015; 869.289; -180.000; -45.000; .000; .000; 0.000; 0.000; 0.000; -45.000; 0.000;
 5248; 1080.711; .035; 869.289; 180.000; -45.000; .001; .001; 0.000; 0.000; 0.000; -45.000; 0.000;
 5256; 1080.711; .069; 869.289; 180.000; -45.000; .003; .003; 0.000; 0.000; 0.000; -45.000; 0.000;
 5264; 1080.711; .120; 869.289; -180.000; -45.000; .006; .006; 0.000; 0.000; 0.000; -45.000; 0.000;
 5272; 1080.711; .190; 869.289; -180.000; -45.000; .010; .010; 0.000; 0.000; 0.000; -45.000; 0.000;
 5280; 1080.711; .284; 869.289; 180.000; -45.000; .015; .015; 0.000; 0.000; 0.000; -45.000; 0.000;
 5288; 1080.711; .405; 869.289; 180.000; -45.000; .021; .021; 0.000; 0.000; 0.000; -45.000; 0.000;
 5296; 1080.711; .556; 869.289; 180.000; -45.000; .029; .029; 0.000; 0.000; 0.000; -45.000; 0.000;
 5304; 1080.710; .740; 869.289; -180.000; -45.000; .039; .039; 0.000; 0.000; 0.000; -45.000; 0.000;
 5312; 1080.710; .960; 869.289; 180.000; -45.000; .050; .050; 0.000; 0.000; 0.000; -45.000; 0.000;
 5320; 1080.710; 1.221; 869.289; 180.000; -45.000; .064; .064; 0.000; 0.000; 0.000; -45.000; 0.000;
 5336; 1080.709; 1.876; 869.289; 180.000; -45.000; .099; .099; 0.000; 0.000; 0.000; -45.000; 0.000;
 5344; 1080.708; 2.277; 869.289; -180.000; -45.000; .120; .120; 0.000; 0.000; 0.000; -45.000; 0.000;
 5352; 1080.707; 2.731; 869.289; -180.000; -45.000; .144; .144; 0.000; 0.000; 0.000; -45.000; 0.000;
 5360; 1080.706; 3.242; 869.289; 180.000; -45.000; .171; .171; 0.000; 0.000; 0.000; -45.000; 0.000;
 5368; 1080.704; 3.813; 869.289; -180.000; -45.000; .202; .202; 0.000; 0.000; 0.000; -45.000; 0.000;
 5376; 1080.702; 4.448; 869.289; 180.000; -45.000; .235; .235; 0.000; 0.000; 0.000; -45.000; 0.000;
 5384; 1080.698; 5.149; 869.289; -180.000; -45.000; .273; .273; 0.000; 0.000; 0.000; -45.000; 0.000;
 5392; 1080.694; 5.919; 869.289; 180.000; -45.000; .313; .313; 0.000; 0.000; 0.000; -45.000; 0.000;
 5400; 1080.690; 6.755; 869.289; 180.000; -45.000; .358; .358; 0.000; 0.000; 0.000; -45.000; 0.000;
 5408; 1080.684; 7.655; 869.289; 180.000; -45.000; .405; .405; 0.000; 0.000; 0.000; -45.000; 0.000;
 5416; 1080.676; 8.615; 869.289; -180.000; -45.000; .456; .456; 0.000; 0.000; 0.000; -45.000; 0.000;
 5424; 1080.668; 9.632; 869.289; -180.000; -45.000; .510; .510; 0.000; 0.000; 0.000; -45.000; 0.000;
 5432; 1080.658; 10.702; 869.289; 180.000; -45.000; .567; .567; 0.000; 0.000; 0.000; -45.000; 0.000;
 5440; 1080.646; 11.823; 869.289; -180.000; -45.000; .626; .626; 0.000; 0.000; 0.000; -45.000; 0.000;
 5448; 1080.633; 12.989; 869.289; 180.000; -45.000; .688; .688; 0.000; 0.000; 0.000; -45.000; 0.000;
 5464; 1080.600; 15.450; 869.289; -180.000; -45.000; .819; .819; 0.000; 0.000; 0.000; -45.000; 0.000;
 5472; 1080.581; 16.737; 869.289; -180.000; -45.000; .887; .887; 0.000; 0.000; 0.000; -45.000; 0.000;
 5480; 1080.560; 18.057; 869.289; 180.000; -45.000; .957; .957; 0.000; 0.000; 0.000; -45.000; 0.000;
 5488; 1080.536; 19.407; 869.289; -180.000; -45.000; 1.029; 1.029; 0.000; 0.000; 0.000; -45.000; 0.000;
 5496; 1080.511; 20.784; 869.289; -180.000; -45.000; 1.102; 1.102; 0.000; 0.000; 0.000; -45.000; 0.000;
 5504; 1080.483; 22.184; 869.289; 180.000; -45.000; 1.176; 1.176; 0.000; 0.000; 0.000; -45.000; 0.000;
 5512; 1080.453; 23.604; 869.289; -180.000; -45.000; 1.252; 1.252; 0.000; 0.000; 0.000; -45.000; 0.000;
 5520; 1080.421; 25.041; 869.289; -180.000; -45.000; 1.328; 1.328; 0.000; 0.000; 0.000; -45.000; 0.000;
 5528; 1080.386; 26.491; 869.289; -180.000; -45.000; 1.405; 1.405; 0.000; 0.000; 0.000; -45.000; 0.000;
 5536; 1080.349; 27.951; 869.289; -180.000; -45.000; 1.482; 1.482; 0.000; 0.000; 0.000; -45.000; 0.000;
 5544; 1080.310; 29.418; 869.289; -180.000; -45.000; 1.560; 1.560; 0.000; 0.000; 0.000; -45.000; 0.000;
 5552; 1080.269; 30.888; 869.289; 180.000; -45.000; 1.638; 1.638; 0.000; 0.000; 0.000; -45.000; 0.000;
 5560; 1080.226; 32.358; 869.289; -180.000; -45.000; 1.716; 1.716; 0.000; 0.000; 0.000; -45.000; 0.000;
 5568; 1080.181; 33.828; 869.289; 180.000; -45.000; 1.794; 1.794; 0.000; 0.000; 0.000; -45.000; 0.000;
 5576; 1080.134; 35.299; 869.289; -180.000; -45.000; 1.872; 1.872; 0.000; 0.000; 0.000; -45.000; 0.000;
 5592; 1080.034; 38.239; 869.289; -180.000; -45.000; 2.028; 2.028; 0.000; 0.000; 0.000; -45.000; 0.000;
 5600; 1079.981; 39.709; 869.289; -180.000; -45.000; 2.106; 2.106; 0.000; 0.000; 0.000; -45.000; 0.000;
 5608; 1079.926; 41.179; 869.289; 180.000; -45.000; 2.184; 2.184; 0.000; 0.000; 0.000; -45.000; 0.000;
 5616; 1079.869; 42.649; 869.289; -180.000; -45.000; 2.262; 2.262; 0.000; 0.000; 0.000; -45.000; 0.000;
 5624; 1079.810; 44.119; 869.289; 180.000; -45.000; 2.340; 2.340; 0.000; 0.000; 0.000; -45.000; 0.000;
 5632; 1079.749; 45.589; 869.289; 180.000; -45.000; 2.418; 2.418; 0.000; 0.000; 0.000; -45.000; 0.000;
 5640; 1079.686; 47.058; 869.289; 180.000; -45.000; 2.496; 2.496; 0.000; 0.000; 0.000; -45.000; 0.000;
 5648; 1079.621; 48.528; 869.289; -180.000; -45.000; 2.574; 2.574; 0.000; 0.000; 0.000; -45.000; 0.000;
 5656; 1079.553; 49.997; 869.289; 180.000; -45.000; 2.652; 2.652; 0.000; 0.000; 0.000; -45.000; 0.000;
 5664; 1079.484; 51.467; 869.289; -180.000; -45.000; 2.730; 2.730; 0.000; 0.000; 0.000; -45.000; 0.000;
 5672; 1079.413; 52.936; 869.289; -180.000; -45.000; 2.808; 2.808; 0.000; 0.000; 0.000; -45.000; 0.000;
 5680; 1079.340; 54.405; 869.289; -180.000; -45.000; 2.886; 2.886; 0.000; 0.000; 0.000; -45.000; 0.000;
 5688; 1079.265; 55.874; 869.289; 180.000; -45.000; 2.964; 2.964; 0.000; 0.000; 0.000; -45.000; 0.000;
 5696; 1079.188; 57.343; 869.289; -180.000; -45.000; 3.042; 3.042; 0.000; 0.000; 0.000; -45.000; 0.000;
 5704; 1079.109; 58.812; 869.289; -180.000; -45.000; 3.120; 3.120; 0.000; 0.000; 0.000; -45.000; 0.000;
 5720; 1078.945; 61.750; 869.289; -180.000; -45.000; 3.276; 3.276; 0.000; 0.000; 0.000; -45.000; 0.000;
 5728; 1078.860; 63.218; 869.289; 180.000; -45.000; 3.354; 3.354; 0.000; 0.000; 0.000; -45.000; 0.000;
 5736; 1078.773; 64.687; 869.289; 180.000; -45.000; 3.432; 3.432; 0.000; 0.000; 0.000; -45.000; 0.000;
 5744; 1078.684; 66.155; 869.289; -180.000; -45.000; 3.510; 3.510; 0.000; 0.000; 0.000; -45.000; 0.000;
 5752; 1078.593; 67.623; 869.289; 180.000; -45.000; 3.588; 3.588; 0.000; 0.000; 0.000; -45.000; 0.000;
 5760; 1078.500; 69.092; 869.289; -180.000; -45.000; 3.666; 3.666; 0.000; 0.000; 0.000; -45.000; 0.000;
 5768; 1078.405; 70.559; 869.289; 180.000; -45.000; 3.743; 3.743; 0.000; 0.000; 0.000; -45.000; 0.000;
 5776; 1078.308; 72.027; 869.289; -180.000; -45.000; 3.821; 3.821; 0.000; 0.000; 0.000; -45.000; 0.000;
 5784; 1078.209; 73.495; 869.289; -180.000; -45.000; 3.899; 3.899; 0.000; 0.000; 0.000; -45.000; 0.000;
 5792; 1078.108; 74.963; 869.289; -180.000; -45.000; 3.977; 3.977; 0.000; 0.000; 0.000; -45.000; 0.000;
 5800; 1078.005; 76.430; 869.289; -180.000; -45.000; 4.055; 4.055; 0.000; 0.000; 0.000; -45.000; 0.000;
 5808; 1077.900; 77.897; 869.289; 180.000; -45.000; 4.133; 4.133; 0.000; 0.000; 0.000; -45.000; 0.000;
 5816; 1077.793; 79.364; 869.289; -180.000; -45.000; 4.211; 4.211; 0.000; 0.000; 0.000; -45.000; 0.000;
 5824; 1077.684; 80.831; 869.289; 180.000; -45.000; 4.289; 4.289; 0.000; 0.000; 0.000; -45.000; 0.000;
 5832; 1077.573; 82.298; 869.289; -180.000; -45.000; 4.367; 4.367; 0.000; 0.000; 0.000; -45.000; 0.000;
 5848; 1077.344; 85.231; 869.289; -180.000; -45.000; 4.523; 4.523; 0.000; 0.000; 0.000; -45.000; 0.000;
 5856; 1077.228; 86.698; 869.289; 180.000; -45.000; 4.601; 4.601; 0.000; 0.000; 0.000; -45.000; 0.000;
 5864; 1077.108; 88.164; 869.289; -180.000; -45.000; 4.679; 4.679; 0.000; 0.000; 0.000; -45.000; 0.000;
 5872; 1076.987; 89.630; 869.289; -180.000; -45.000; 4.757; 4.757; 0.000; 0.000; 0.000; -45.000; 0.000;
 5880; 1076.864; 91.096; 869.289; 180.000; -45.000; 4.835; 4.835; 0.000; 0.000; 0.000; -45.000; 0.000;
 5888; 1076.740; 92.562; 869.289; 180.000; -45.000; 4.913; 4.913; 0.000; 0.000; 0.000; -45.000; 0.000;
 5896; 1076.613; 94.027; 869.289; -180.000; -45.000; 4.991; 4.991; 0.000; 0.000; 0.000; -45.000; 0.000;
 5904; 1076.484; 95.493; 869.289; 180.000; -45.000; 5.069; 5.069; 0.000; 0.000; 0.000; -45.000; 0.000;
 5912; 1076.353; 96.958; 869.289; 180.000; -45.000; 5.147; 5.147; 0.000; 0.000; 0.000; -45.000; 0.000;
 5920; 1076.219; 98.423; 869.289; 180.000; -45.000; 5.225; 5.225; 0.000; 0.000; 0.000; -45.000; 0.000;
 5928; 1076.085; 99.888; 869.289; 180.000; -45.000; 5.303; 5.303; 0.000; 0.000; 0.000; -45.000; 0.000;
 5936; 1075.948; 101.352; 869.289; 180.000; -45.000; 5.381; 5.381; 0.000; 0.000; 0.000; -45.000; 0.000;
 5944; 1075.809; 102.817; 869.289; -180.000; -45.000; 5.459; 5.459; 0.000; 0.000; 0.000; -45.000; 0.000;
 5952; 1075.668; 104.281; 869.289; -180.000; -45.000; 5.537; 5.537; 0.000; 0.000; 0.000; -45.000; 0.000;
 5960; 1075.525; 105.745; 869.289; 180.000; -45.000; 5.615; 5.615; 0.000; 0.000; 0.000; -45.000; 0.000;
 5976; 1075.233; 108.673; 869.289; 180.000; -45.000; 5.771; 5.771; 0.000; 0.000; 0.000; -45.000; 0.000;
 5984; 1075.084; 110.136; 869.289; 180.000; -45.000; 5.849; 5.849; 0.000; 0.000; 0.000; -45.000; 0.000;
 5992; 1074.933; 111.600; 869.289; 180.000; -45.000; 5.927; 5.927; 0.000; 0.000; 0.000; -45.000; 0.000;
 6000; 1074.780; 113.063; 869.289; -180.000; -45.000; 6.005; 6.005; 0.000; 0.000; 0.000; -45.000; 0.000;
 6008; 1074.625; 114.525; 869.289; 180.000; -45.000; 6.083; 6.083; 0.000; 0.000; 0.000; -45.000; 0.000;
 6016; 1074.468; 115.988; 869.289; 180.000; -45.000; 6.161; 6.161; 0.000; 0.000; 0.000; -45.000; 0.000;
 6024; 1074.310; 117.451; 869.289; 180.000; -45.000; 6.239; 6.239; 0.000; 0.000; 0.000; -45.000; 0.000;
 6032; 1074.149; 118.913; 869.289; 180.000; -45.000; 6.317; 6.317; 0.000; 0.000; 0.000; -45.000; 0.000;
 6040; 1073.986; 120.375; 869.289; 180.000; -45.000; 6.395; 6.395; 0.000; 0.000; 0.000; -45.000; 0.000;
 6048; 1073.821; 121.837; 869.289; 180.000; -45.000; 6.473; 6.473; 0.000; 0.000; 0.000; -45.000; 0.000;
 6056; 1073.654; 123.298; 869.289; -180.000; -45.000; 6.551; 6.551; 0.000; 0.000; 0.000; -45.000; 0.000;
 6064; 1073.485; 124.759; 869.289; 180.000; -45.000; 6.629; 6.629; 0.000; 0.000; 0.000; -45.000; 0.000;
 6072; 1073.314; 126.220; 869.289; -180.000; -45.000; 6.707; 6.707; 0.000; 0.000; 0.000; -45.000; 0.000;
 6080; 1073.142; 127.681; 869.289; -180.000; -45.000; 6.785; 6.785; 0.000; 0.000; 0.000; -45.000; 0.000;
 6088; 1072.967; 129.142; 869.289; 180.000; -45.000; 6.863; 6.863; 0.000; 0.000; 0.000; -45.000; 0.000;
 6104; 1072.611; 132.062; 869.289; 180.000; -45.000; 7.019; 7.019; 0.000; 0.000; 0.000; -45.000; 0.000;
 6112; 1072.431; 133.522; 869.289; -180.000; -45.000; 7.097; 7.097; 0.000; 0.000; 0.000; -45.000; 0.000;
 6120; 1072.248; 134.982; 869.289; -180.000; -45.000; 7.175; 7.175; 0.000; 0.000; 0.000; -45.000; 0.000;
 6128; 1072.063; 136.441; 869.289; -180.000; -45.000; 7.253; 7.253; 0.000; 0.000; 0.000; -45.000; 0.000;
 6136; 1071.876; 137.900; 869.289; -180.000; -45.000; 7.331; 7.331; 0.000; 0.000; 0.000; -45.000; 0.000;
 6144; 1071.688; 139.359; 869.289; -180.000; -45.000; 7.409; 7.409; 0.000; 0.000; 0.000; -45.000; 0.000;
 6152; 1071.497; 140.818; 869.289; -180.000; -45.000; 7.487; 7.487; 0.000; 0.000; 0.000; -45.000; 0.000;
 6160; 1071.304; 142.276; 869.289; 180.000; -45.000; 7.565; 7.565; 0.000; 0.000; 0.000; -45.000; 0.000;
 6168; 1071.110; 143.734; 869.289; 180.000; -45.000; 7.643; 7.643; 0.000; 0.000; 0.000; -45.000; 0.000;
 6176; 1070.913; 145.192; 869.289; 180.000; -45.000; 7.721; 7.721; 0.000; 0.000; 0.000; -45.000; 0.000;
 6184; 1070.714; 146.650; 869.289; -180.000; -45.000; 7.799; 7.799; 0.000; 0.000; 0.000; -45.000; 0.000;
 6192; 1070.514; 148.107; 869.289; -180.000; -45.000; 7.877; 7.877; 0.000; 0.000; 0.000; -45.000; 0.000;
 6200; 1070.311; 149.564; 869.289; 180.000; -45.000; 7.955; 7.955; 0.000; 0.000; 0.000; -45.000; 0.000;
 6208; 1070.107; 151.021; 869.289; 180.000; -45.000; 8.033; 8.033; 0.000; 0.000; 0.000; -45.000; 0.000;
 6216; 1069.900; 152.477; 869.289; -180.000; -45.000; 8.111; 8.111; 0.000; 0.000; 0.000; -45.000; 0.000;
 6232; 1069.481; 155.389; 869.289; 180.000; -45.000; 8.267; 8.267; 0.000; 0.000; 0.000; -45.000; 0.000;
 6240; 1069.269; 156.845; 869.289; -180.000; -45.000; 8.345; 8.345; 0.000; 0.000; 0.000; -45.000; 0.000;
 6248; 1069.054; 158.300; 869.289; 180.000; -45.000; 8.423; 8.423; 0.000; 0.000; 0.000; -45.000; 0.000;
 6256; 1068.838; 159.755; 869.289; -180.000; -45.000; 8.501; 8.501; 0.000; 0.000; 0.000; -45.000; 0.000;
 6264; 1068.619; 161.210; 869.289; -180.000; -45.000; 8.579; 8.579; 0.000; 0.000; 0.000; -45.000; 0.000;
 6272; 1068.399; 162.665; 869.289; 180.000; -45.000; 8.657; 8.657; 0.000; 0.000; 0.000; -45.000; 0.000;
 6280; 1068.176; 164.119; 869.289; -180.000; -45.000; 8.735; 8.735; 0.000; 0.000; 0.000; -45.000; 0.000;
 6288; 1067.952; 165.572; 869.289; 180.000; -45.000; 8.813; 8.813; 0.000; 0.000; 0.000; -45.000; 0.000;
 6296; 1067.726; 167.026; 869.289; -180.000; -45.000; 8.891; 8.891; 0.000; 0.000; 0.000; -45.000; 0.000;
 6304; 1067.497; 168.479; 869.289; -180.000; -45.000; 8.969; 8.969; 0.000; 0.000; 0.000; -45.000; 0.000;
 6312; 1067.267; 169.932; 869.289; -180.000; -45.000; 9.047; 9.047; 0.000; 0.000; 0.000; -45.000; 0.000;
 6320; 1067.035; 171.385; 869.289; 180.000; -45.000; 9.125; 9.125; 0.000; 0.000; 0.000; -45.000; 0.000;
 6328; 1066.800; 172.837; 869.289; -180.000; -45.000; 9.203; 9.203; 0.000; 0.000; 0.000; -45.000; 0.000;
 6336; 1066.564; 174.289; 869.289; 180.000; -45.000; 9.281; 9.281; 0.000; 0.000; 0.000; -45.000; 0.000;
 6344; 1066.326; 175.740; 869.289; 180.000; -45.000; 9.359; 9.359; 0.000; 0.000; 0.000; -45.000; 0.000;
 6360; 1065.844; 178.643; 869.289; -180.000; -45.000; 9.515; 9.515; 0.000; 0.000; 0.000; -45.000; 0.000;
 6368; 1065.599; 180.093; 869.289; -180.000; -45.000; 9.593; 9.593; 0.000; 0.000; 0.000; -45.000; 0.000;
 6376; 1065.353; 181.544; 869.289; 180.000; -45.000; 9.671; 9.671; 0.000; 0.000; 0.000; -45.000; 0.000;
 6384; 1065.105; 182.994; 869.289; 180.000; -45.000; 9.749; 9.749; 0.000; 0.000; 0.000; -45.000; 0.000;
 6392; 1064.855; 184.443; 869.289; 180.000; -45.000; 9.827; 9.827; 0.000; 0.000; 0.000; -45.000; 0.000;
 6400; 1064.603; 185.893; 869.289; 180.000; -45.000; 9.905; 9.905; 0.000; 0.000; 0.000; -45.000; 0.000;
 6408; 1064.349; 187.341; 869.289; 180.000; -45.000; 9.983; 9.983; 0.000; 0.000; 0.000; -45.000; 0.000;
 6416; 1064.093; 188.790; 869.289; 180.000; -45.000; 10.061; 10.061; 0.000; 0.000; 0.000; -45.000; 0.000;
 6424; 1063.835; 190.238; 869.289; -180.000; -45.000; 10.139; 10.139; 0.000; 0.000; 0.000; -45.000; 0.000;
 6432; 1063.575; 191.686; 869.289; 180.000; -45.000; 10.217; 10.217; 0.000; 0.000; 0.000; -45.000; 0.000;
 6440; 1063.313; 193.134; 869.289; -180.000; -45.000; 10.295; 10.295; 0.000; 0.000; 0.000; -45.000; 0.000;
 6448; 1063.049; 194.581; 869.289; -180.000; -45.000; 10.373; 10.373; 0.000; 0.000; 0.000; -45.000; 0.000;
 6456; 1062.783; 196.028; 869.289; -180.000; -45.000; 10.451; 10.451; 0.000; 0.000; 0.000; -45.000; 0.000;
 6464; 1062.516; 197.474; 869.289; -180.000; -45.000; 10.529; 10.529; 0.000; 0.000; 0.000; -45.000; 0.000;
 6472; 1062.246; 198.920; 869.289; -180.000; -45.000; 10.607; 10.607; 0.000; 0.000; 0.000; -45.000; 0.000;
 6488; 1061.700; 201.811; 869.289; -180.000; -45.000; 10.763; 10.763; 0.000; 0.000; 0.000; -45.000; 0.000;
 6496; 1061.425; 203.256; 869.289; -180.000; -45.000; 10.841; 10.841; 0.000; 0.000; 0.000; -45.000; 0.000;
 6504; 1061.147; 204.701; 869.289; -180.000; -45.000; 10.919; 10.919; 0.000; 0.000; 0.000; -45.000; 0.000;
 6512; 1060.867; 206.145; 869.289; 180.000; -45.000; 10.997; 10.997; 0.000; 0.000; 0.000; -45.000; 0.000;
 6520; 1060.586; 207.589; 869.289; -180.000; -45.000; 11.075; 11.075; 0.000; 0.000; 0.000; -45.000; 0.000;
 6528; 1060.302; 209.032; 869.289; -180.000; -45.000; 11.153; 11.153; 0.000; 0.000; 0.000; -45.000; 0.000;
 6536; 1060.017; 210.475; 869.289; -180.000; -45.000; 11.231; 11.231; 0.000; 0.000; 0.000; -45.000; 0.000;
 6544; 1059.729; 211.918; 869.289; 180.000; -45.000; 11.308; 11.308; 0.000; 0.000; 0.000; -45.000; 0.000;
 6552; 1059.440; 213.360; 869.289; 180.000; -45.000; 11.386; 11.386; 0.000; 0.000; 0.000; -45.000; 0.000;
 6560; 1059.148; 214.802; 869.289; -180.000; -45.000; 11.464; 11.464; 0.000; 0.000; 0.000; -45.000; 0.000;
 6568; 1058.855; 216.244; 869.289; -180.000; -45.000; 11.542; 11.542; 0.000; 0.000; 0.000; -45.000; 0.000;
 6576; 1058.560; 217.685; 869.289; -180.000; -45.000; 11.620; 11.620; 0.000; 0.000; 0.000; -45.000; 0.000;
 6584; 1058.262; 219.126; 869.289; 180.000; -45.000; 11.698; 11.698; 0.000; 0.000; 0.000; -45.000; 0.000;
 6592; 1057.963; 220.566; 869.289; -180.000; -45.000; 11.776; 11.776; 0.000; 0.000; 0.000; -45.000; 0.000;
 6600; 1057.662; 222.006; 869.289; -180.000; -45.000; 11.854; 11.854; 0.000; 0.000; 0.000; -45.000; 0.000;
 6616; 1057.054; 224.884; 869.289; -180.000; -45.000; 12.010; 12.010; 0.000; 0.000; 0.000; -45.000; 0.000;
 6624; 1056.747; 226.323; 869.289; -180.000; -45.000; 12.088; 12.088; 0.000; 0.000; 0.000; -45.000; 0.000;
 6632; 1056.438; 227.761; 869.289; 180.000; -45.000; 12.166; 12.166; 0.000; 0.000; 0.000; -45.000; 0.000;
 6640; 1056.127; 229.199; 869.289; 180.000; -45.000; 12.244; 12.244; 0.000; 0.000; 0.000; -45.000; 0.000;
 6648; 1055.814; 230.636; 869.289; -180.000; -45.000; 12.322; 12.322; 0.000; 0.000; 0.000; -45.000; 0.000;
 6656; 1055.499; 232.073; 869.289; 180.000; -45.000; 12.400; 12.400; 0.000; 0.000; 0.000; -45.000; 0.000;
 6664; 1055.182; 233.510; 869.289; 180.000; -45.000; 12.478; 12.478; 0.000; 0.000; 0.000; -45.000; 0.000;
 6672; 1054.863; 234.946; 869.289; 180.000; -45.000; 12.556; 12.556; 0.000; 0.000; 0.000; -45.000; 0.000;
 6680; 1054.542; 236.381; 869.289; 180.000; -45.000; 12.634; 12.634; 0.000; 0.000; 0.000; -45.000; 0.000;
 6688; 1054.219; 237.817; 869.289; -180.000; -45.000; 12.712; 12.712; 0.000; 0.000; 0.000; -45.000; 0.000;
 6696; 1053.895; 239.251; 869.289; -180.000; -45.000; 12.790; 12.790; 0.000; 0.000; 0.000; -45.000; 0.000;
 6704; 1053.568; 240.686; 869.289; 180.000; -45.000; 12.868; 12.868; 0.000; 0.000; 0.000; -45.000; 0.000;
 6712; 1053.240; 242.120; 869.289; 180.000; -45.000; 12.946; 12.946; 0.000; 0.000; 0.000; -45.000; 0.000;
 6720; 1052.909; 243.553; 869.289; 180.000; -45.000; 13.024; 13.024; 0.000; 0.000; 0.000; -45.000; 0.000;
 6728; 1052.577; 244.986; 869.289; 180.000; -45.000; 13.102; 13.102; 0.000; 0.000; 0.000; -45.000; 0.000;
 6744; 1051.906; 247.850; 869.289; 180.000; -45.000; 13.258; 13.258; 0.000; 0.000; 0.000; -45.000; 0.000;
 6752; 1051.567; 249.282; 869.289; 180.000; -45.000; 13.336; 13.336; 0.000; 0.000; 0.000; -45.000; 0.000;
 6760; 1051.227; 250.713; 869.289; -180.000; -45.000; 13.414; 13.414; 0.000; 0.000; 0.000; -45.000; 0.000;
 6768; 1050.885; 252.144; 869.289; -180.000; -45.000; 13.492; 13.492; 0.000; 0.000; 0.000; -45.000; 0.000;
 6776; 1050.541; 253.574; 869.289; -180.000; -45.000; 13.570; 13.570; 0.000; 0.000; 0.000; -45.000; 0.000;
 6784; 1050.195; 255.004; 869.289; -180.000; -45.000; 13.648; 13.648; 0.000; 0.000; 0.000; -45.000; 0.000;
 6792; 1049.847; 256.433; 869.289; -180.000; -45.000; 13.726; 13.726; 0.000; 0.000; 0.000; -45.000; 0.000;
 6800; 1049.496; 257.862; 869.289; -180.000; -45.000; 13.804; 13.804; 0.000; 0.000; 0.000; -45.000; 0.000;
 6808; 1049.145; 259.290; 869.289; 180.000; -45.000; 13.882; 13.882; 0.000; 0.000; 0.000; -45.000; 0.000;
 6816; 1048.791; 260.718; 869.289; 180.000; -45.000; 13.960; 13.960; 0.000; 0.000; 0.000; -45.000; 0.000;
 6824; 1048.435; 262.145; 869.289; 180.000; -45.000; 14.038; 14.038; 0.000; 0.000; 0.000; -45.000; 0.000;
 6832; 1048.077; 263.572; 869.289; -180.000; -45.000; 14.116; 14.116; 0.000; 0.000; 0.000; -45.000; 0.000;
 6840; 1047.717; 264.999; 869.289; 180.000; -45.000; 14.194; 14.194; 0.000; 0.000; 0.000; -45.000; 0.000;
 6848; 1047.355; 266.424; 869.289; 180.000; -45.000; 14.272; 14.272; 0.000; 0.000; 0.000; -45.000; 0.000;
 6856; 1046.992; 267.850; 869.289; 180.000; -45.000; 14.350; 14.350; 0.000; 0.000; 0.000; -45.000; 0.000;
 6872; 1046.259; 270.699; 869.289; -180.000; -45.000; 14.506; 14.506; 0.000; 0.000; 0.000; -45.000; 0.000;
 6880; 1045.889; 272.123; 869.289; 180.000; -45.000; 14.584; 14.584; 0.000; 0.000; 0.000; -45.000; 0.000;
 6888; 1045.518; 273.546; 869.289; -180.000; -45.000; 14.662; 14.662; 0.000; 0.000; 0.000; -45.000; 0.000;
 6896; 1045.145; 274.969; 869.289; -180.000; -45.000; 14.740; 14.740; 0.000; 0.000; 0.000; -45.000; 0.000;
 6904; 1044.770; 276.392; 869.289; -180.000; -45.000; 14.818; 14.818; 0.000; 0.000; 0.000; -45.000; 0.000;
 6912; 1044.392; 277.814; 869.289; 180.000; -45.000; 14.896; 14.896; 0.000; 0.000; 0.000; -45.000; 0.000;
 6920; 1044.013; 279.235; 869.289; -180.000; -45.000; 14.974; 14.974; 0.000; 0.000; 0.000; -45.000; 0.000;
 6928; 1043.632; 280.656; 869.289; -180.000; -45.000; 15.052; 15.052; 0.000; 0.000; 0.000; -45.000; 0.000;
 6936; 1043.249; 282.076; 869.289; -180.000; -45.000; 15.130; 15.130; 0.000; 0.000; 0.000; -45.000; 0.000;
 6944; 1042.864; 283.496; 869.289; -180.000; -45.000; 15.208; 15.208; 0.000; 0.000; 0.000; -45.000; 0.000;
 6952; 1042.477; 284.915; 869.289; -180.000; -45.000; 15.286; 15.286; 0.000; 0.000; 0.000; -45.000; 0.000;
 6960; 1042.089; 286.334; 869.289; 180.000; -45.000; 15.364; 15.364; 0.000; 0.000; 0.000; -45.000; 0.000;
 6968; 1041.698; 287.752; 869.289; -180.000; -45.000; 15.442; 15.442; 0.000; 0.000; 0.000; -45.000; 0.000;
 6976; 1041.305; 289.170; 869.289; -180.000; -45.000; 15.520; 15.520; 0.000; 0.000; 0.000; -45.000; 0.000;
 6984; 1040.911; 290.587; 869.289; -180.000; -45.000; 15.598; 15.598; 0.000; 0.000; 0.000; -45.000; 0.000;
 7000; 1040.116; 293.419; 869.289; -180.000; -45.000; 15.754; 15.754; 0.000; 0.000; 0.000; -45.000; 0.000;
 7008; 1039.715; 294.835; 869.289; -180.000; -45.000; 15.832; 15.832; 0.000; 0.000; 0.000; -45.000; 0.000;
 7016; 1039.313; 296.250; 869.289; -180.000; -45.000; 15.910; 15.910; 0.000; 0.000; 0.000; -45.000; 0.000;
 7024; 1038.909; 297.664; 869.289; 180.000; -45.000; 15.988; 15.988; 0.000; 0.000; 0.000; -45.000; 0.000;
 7032; 1038.503; 299.078; 869.289; -180.000; -45.000; 16.066; 16.066; 0.000; 0.000; 0.000; -45.000; 0.000;
 7040; 1038.095; 300.491; 869.289; -180.000; -45.000; 16.144; 16.144; 0.000; 0.000; 0.000; -45.000; 0.000;
 7048; 1037.685; 301.904; 869.289; -180.000; -45.000; 16.222; 16.222; 0.000; 0.000; 0.000; -45.000; 0.000;
 7056; 1037.273; 303.316; 869.289; -180.000; -45.000; 16.300; 16.300; 0.000; 0.000; 0.000; -45.000; 0.000;
 7064; 1036.859; 304.728; 869.289; -180.000; -45.000; 16.378; 16.378; 0.000; 0.000; 0.000; -45.000; 0.000;
 7072; 1036.443; 306.139; 869.289; 180.000; -45.000; 16.456; 16.456; 0.000; 0.000; 0.000; -45.000; 0.000;
 7080; 1036.026; 307.550; 869.289; 180.000; -45.000; 16.534; 16.534; 0.000; 0.000; 0.000; -45.000; 0.000;
 7088; 1035.606; 308.960; 869.289; 180.000; -45.000; 16.612; 16.612; 0.000; 0.000; 0.000; -45.000; 0.000;
 7096; 1035.184; 310.369; 869.289; -180.000; -45.000; 16.690; 16.690; 0.000; 0.000; 0.000; -45.000; 0.000;
 7104; 1034.761; 311.778; 869.289; 180.000; -45.000; 16.768; 16.768; 0.000; 0.000; 0.000; -45.000; 0.000;
 7112; 1034.336; 313.186; 869.289; 180.000; -45.000; 16.846; 16.846; 0.000; 0.000; 0.000; -45.000; 0.000;
 7128; 1033.479; 316.001; 869.289; 180.000; -45.000; 17.002; 17.002; 0.000; 0.000; 0.000; -45.000; 0.000;
 7136; 1033.048; 317.407; 869.289; 180.000; -45.000; 17.080; 17.080; 0.000; 0.000; 0.000; -45.000; 0.000;
 7144; 1032.615; 318.813; 869.289; 180.000; -45.000; 17.158; 17.158; 0.000; 0.000; 0.000; -45.000; 0.000;
 7152; 1032.180; 320.218; 869.289; -180.000; -45.000; 17.236; 17.236; 0.000; 0.000; 0.000; -45.000; 0.000;
 7160; 1031.743; 321.623; 869.289; -180.000; -45.000; 17.314; 17.314; 0.000; 0.000; 0.000; -45.000; 0.000;
 7168; 1031.305; 323.027; 869.289; 180.000; -45.000; 17.392; 17.392; 0.000; 0.000; 0.000; -45.000; 0.000;
 7176; 1030.864; 324.430; 869.289; -180.000; -45.000; 17.470; 17.470; 0.000; 0.000; 0.000; -45.000; 0.000;
 7184; 1030.421; 325.833; 869.289; 180.000; -45.000; 17.548; 17.548; 0.000; 0.000; 0.000; -45.000; 0.000;
 7192; 1029.977; 327.236; 869.289; 180.000; -45.000; 17.626; 17.626; 0.000; 0.000; 0.000; -45.000; 0.000;
 7200; 1029.531; 328.637; 869.289; 180.000; -45.000; 17.704; 17.704; 0.000; 0.000; 0.000; -45.000; 0.000;
 7208; 1029.082; 330.038; 869.289; 180.000; -45.000; 17.782; 17.782; 0.000; 0.000; 0.000; -45.000; 0.000;
 7216; 1028.632; 331.439; 869.289; 180.000; -45.000; 17.860; 17.860; 0.000; 0.000; 0.000; -45.000; 0.000;
 7224; 1028.180; 332.839; 869.289; -180.000; -45.000; 17.938; 17.938; 0.000; 0.000; 0.000; -45.000; 0.000;
 7232; 1027.726; 334.238; 869.289; 180.000; -45.000; 18.016; 18.016; 0.000; 0.000; 0.000; -45.000; 0.000;
 7240; 1027.270; 335.636; 869.289; -180.000; -45.000; 18.094; 18.094; 0.000; 0.000; 0.000; -45.000; 0.000;
 7256; 1026.353; 338.432; 869.289; -180.000; -45.000; 18.250; 18.250; 0.000; 0.000; 0.000; -45.000; 0.000;
 7264; 1025.891; 339.828; 869.289; 180.000; -45.000; 18.328; 18.328; 0.000; 0.000; 0.000; -45.000; 0.000;
 7272; 1025.427; 341.225; 869.289; -180.000; -45.000; 18.406; 18.406; 0.000; 0.000; 0.000; -45.000; 0.000;
 7280; 1024.962; 342.620; 869.289; -180.000; -45.000; 18.484; 18.484; 0.000; 0.000; 0.000; -45.000; 0.000;
 7288; 1024.495; 344.015; 869.289; 180.000; -45.000; 18.562; 18.562; 0.000; 0.000; 0.000; -45.000; 0.000;
 7296; 1024.026; 345.409; 869.289; -180.000; -45.000; 18.640; 18.640; 0.000; 0.000; 0.000; -45.000; 0.000;
 7304; 1023.554; 346.803; 869.289; -180.000; -45.000; 18.718; 18.718; 0.000; 0.000; 0.000; -45.000; 0.000;
 7312; 1023.081; 348.196; 869.289; -180.000; -45.000; 18.795; 18.795; 0.000; 0.000; 0.000; -45.000; 0.000;
 7320; 1022.606; 349.588; 869.289; 180.000; -45.000; 18.873; 18.873; 0.000; 0.000; 0.000; -45.000; 0.000;
 7328; 1022.130; 350.979; 869.289; 180.000; -45.000; 18.951; 18.951; 0.000; 0.000; 0.000; -45.000; 0.000;
 7336; 1021.651; 352.370; 869.289; 180.000; -45.000; 19.029; 19.029; 0.000; 0.000; 0.000; -45.000; 0.000;
 7344; 1021.170; 353.761; 869.289; -180.000; -45.000; 19.107; 19.107; 0.000; 0.000; 0.000; -45.000; 0.000;
 7352; 1020.688; 355.150; 869.289; -180.000; -45.000; 19.185; 19.185; 0.000; 0.000; 0.000; -45.000; 0.000;
 7360; 1020.203; 356.539; 869.289; 180.000; -45.000; 19.263; 19.263; 0.000; 0.000; 0.000; -45.000; 0.000;
 7368; 1019.717; 357.928; 869.289; -180.000; -45.000; 19.341; 19.341; 0.000; 0.000; 0.000; -45.000; 0.000;
 7384; 1018.739; 360.702; 869.289; -180.000; -45.000; 19.497; 19.497; 0.000; 0.000; 0.000; -45.000; 0.000;
 7392; 1018.247; 362.089; 869.289; 180.000; -45.000; 19.575; 19.575; 0.000; 0.000; 0.000; -45.000; 0.000;
 7400; 1017.753; 363.474; 869.289; 180.000; -45.000; 19.653; 19.653; 0.000; 0.000; 0.000; -45.000; 0.000;
 7408; 1017.258; 364.859; 869.289; -180.000; -45.000; 19.731; 19.731; 0.000; 0.000; 0.000; -45.000; 0.000;
 7416; 1016.760; 366.244; 869.289; -180.000; -45.000; 19.809; 19.809; 0.000; 0.000; 0.000; -45.000; 0.000;
 7424; 1016.261; 367.627; 869.289; -180.000; -45.000; 19.887; 19.887; 0.000; 0.000; 0.000; -45.000; 0.000;
 7432; 1015.759; 369.010; 869.289; -180.000; -45.000; 19.965; 19.965; 0.000; 0.000; 0.000; -45.000; 0.000;
 7440; 1015.256; 370.393; 869.289; 180.000; -45.000; 20.043; 20.043; 0.000; 0.000; 0.000; -45.000; 0.000;
 7448; 1014.751; 371.774; 869.289; -180.000; -45.000; 20.121; 20.121; 0.000; 0.000; 0.000; -45.000; 0.000;
 7456; 1014.244; 373.155; 869.289; 180.000; -45.000; 20.199; 20.199; 0.000; 0.000; 0.000; -45.000; 0.000;
 7464; 1013.735; 374.535; 869.289; -180.000; -45.000; 20.277; 20.277; 0.000; 0.000; 0.000; -45.000; 0.000;
 7472; 1013.224; 375.915; 869.289; 180.000; -45.000; 20.355; 20.355; 0.000; 0.000; 0.000; -45.000; 0.000;
 7480; 1012.712; 377.294; 869.289; -180.000; -45.000; 20.433; 20.433; 0.000; 0.000; 0.000; -45.000; 0.000;
 7488; 1012.197; 378.672; 869.289; 180.000; -45.000; 20.511; 20.511; 0.000; 0.000; 0.000; -45.000; 0.000;
 7496; 1011.681; 380.049; 869.289; -180.000; -45.000; 20.589; 20.589; 0.000; 0.000; 0.000; -45.000; 0.000;
 7512; 1010.642; 382.802; 869.289; 180.000; -45.000; 20.745; 20.745; 0.000; 0.000; 0.000; -45.000; 0.000;
 7520; 1010.120; 384.177; 869.289; -180.000; -45.000; 20.823; 20.823; 0.000; 0.000; 0.000; -45.000; 0.000;
 7528; 1009.597; 385.552; 869.289; 180.000; -45.000; 20.901; 20.901; 0.000; 0.000; 0.000; -45.000; 0.000;
 7536; 1009.071; 386.926; 869.289; 180.000; -45.000; 20.979; 20.979; 0.000; 0.000; 0.000; -45.000; 0.000;
 7544; 1008.543; 388.299; 869.289; 180.000; -45.000; 21.057; 21.057; 0.000; 0.000; 0.000; -45.000; 0.000;
 7552; 1008.014; 389.671; 869.289; -180.000; -45.000; 21.135; 21.135; 0.000; 0.000; 0.000; -45.000; 0.000;
 7560; 1007.482; 391.043; 869.289; -180.000; -45.000; 21.213; 21.213; 0.000; 0.000; 0.000; -45.000; 0.000;
 7568; 1006.949; 392.414; 869.289; -180.000; -45.000; 21.291; 21.291; 0.000; 0.000; 0.000; -45.000; 0.000;
 7576; 1006.414; 393.784; 869.289; 180.000; -45.000; 21.369; 21.369; 0.000; 0.000; 0.000; -45.000; 0.000;
 7584; 1005.877; 395.154; 869.289; -180.000; -45.000; 21.447; 21.447; 0.000; 0.000; 0.000; -45.000; 0.000;
 7592; 1005.338; 396.523; 869.289; 180.000; -45.000; 21.525; 21.525; 0.000; 0.000; 0.000; -45.000; 0.000;
 7600; 1004.798; 397.891; 869.289; -180.000; -45.000; 21.603; 21.603; 0.000; 0.000; 0.000; -45.000; 0.000;
 7608; 1004.255; 399.258; 869.289; -180.000; -45.000; 21.681; 21.681; 0.000; 0.000; 0.000; -45.000; 0.000;
 7616; 1003.711; 400.625; 869.289; 180.000; -45.000; 21.759; 21.759; 0.000; 0.000; 0.000; -45.000; 0.000;
 7624; 1003.165; 401.991; 869.289; -180.000; -45.000; 21.837; 21.837; 0.000; 0.000; 0.000; -45.000; 0.000;
 7640; 1002.066; 404.720; 869.289; 180.000; -45.000; 21.993; 21.993; 0.000; 0.000; 0.000; -45.000; 0.000;
 7648; 1001.515; 406.084; 869.289; -180.000; -45.000; 22.071; 22.071; 0.000; 0.000; 0.000; -45.000; 0.000;
 7656; 1000.961; 407.447; 869.289; 180.000; -45.000; 22.149; 22.149; 0.000; 0.000; 0.000; -45.000; 0.000;
 7664; 1000.405; 408.809; 869.289; -180.000; -45.000; 22.227; 22.227; 0.000; 0.000; 0.000; -45.000; 0.000;
 7672; 999.848; 410.170; 869.289; 180.000; -45.000; 22.305; 22.305; 0.000; 0.000; 0.000; -45.000; 0.000;
 7680; 999.289; 411.531; 869.289; 180.000; -45.000; 22.383; 22.383; 0.000; 0.000; 0.000; -45.000; 0.000;
 7688; 998.728; 412.890; 869.289; -180.000; -45.000; 22.461; 22.461; 0.000; 0.000; 0.000; -45.000; 0.000;
 7696; 998.165; 414.250; 869.289; -180.000; -45.000; 22.539; 22.539; 0.000; 0.000; 0.000; -45.000; 0.000;
 7704; 997.600; 415.608; 869.289; 180.000; -45.000; 22.617; 22.617; 0.000; 0.000; 0.000; -45.000; 0.000;
 7712; 997.033; 416.965; 869.289; 180.000; -45.000; 22.695; 22.695; 0.000; 0.000; 0.000; -45.000; 0.000;
 7720; 996.465; 418.322; 869.289; 180.000; -45.000; 22.773; 22.773; 0.000; 0.000; 0.000; -45.000; 0.000;
 7728; 995.895; 419.678; 869.289; 180.000; -45.000; 22.851; 22.851; 0.000; 0.000; 0.000; -45.000; 0.000;
 7736; 995.322; 421.033; 869.289; -180.000; -45.000; 22.929; 22.929; 0.000; 0.000; 0.000; -45.000; 0.000;
 7744; 994.748; 422.388; 869.289; 180.000; -45.000; 23.007; 23.007; 0.000; 0.000; 0.000; -45.000; 0.000;
 7752; 994.172; 423.741; 869.289; 180.000; -45.000; 23.085; 23.085; 0.000; 0.000; 0.000; -45.000; 0.000;
 7768; 993.015; 426.446; 869.289; -180.000; -45.000; 23.241; 23.241; 0.000; 0.000; 0.000; -45.000; 0.000;
 7776; 992.434; 427.798; 869.289; 180.000; -45.000; 23.319; 23.319; 0.000; 0.000; 0.000; -45.000; 0.000;
 7784; 991.851; 429.148; 869.289; 180.000; -45.000; 23.397; 23.397; 0.000; 0.000; 0.000; -45.000; 0.000;
 7792; 991.266; 430.498; 869.289; 180.000; -45.000; 23.475; 23.475; 0.000; 0.000; 0.000; -45.000; 0.000;
 7800; 990.679; 431.847; 869.289; 180.000; -45.000; 23.553; 23.553; 0.000; 0.000; 0.000; -45.000; 0.000;
 7808; 990.090; 433.195; 869.289; 180.000; -45.000; 23.631; 23.631; 0.000; 0.000; 0.000; -45.000; 0.000;
 7816; 989.499; 434.542; 869.289; 180.000; -45.000; 23.709; 23.709; 0.000; 0.000; 0.000; -45.000; 0.000;
 7824; 988.907; 435.888; 869.289; -180.000; -45.000; 23.787; 23.787; 0.000; 0.000; 0.000; -45.000; 0.000;
 7832; 988.313; 437.234; 869.289; 180.000; -45.000; 23.865; 23.865; 0.000; 0.000; 0.000; -45.000; 0.000;
 7840; 987.717; 438.579; 869.289; -180.000; -45.000; 23.943; 23.943; 0.000; 0.000; 0.000; -45.000; 0.000;
 7848; 987.119; 439.923; 869.289; 180.000; -45.000; 24.021; 24.021; 0.000; 0.000; 0.000; -45.000; 0.000;
 7856; 986.519; 441.266; 869.289; 180.000; -45.000; 24.099; 24.099; 0.000; 0.000; 0.000; -45.000; 0.000;
 7864; 985.917; 442.609; 869.289; 180.000; -45.000; 24.177; 24.177; 0.000; 0.000; 0.000; -45.000; 0.000;
 7872; 985.314; 443.950; 869.289; 180.000; -45.000; 24.255; 24.255; 0.000; 0.000; 0.000; -45.000; 0.000;
 7880; 984.709; 445.291; 869.289; -180.000; -45.000; 24.333; 24.333; 0.000; 0.000; 0.000; -45.000; 0.000;
 7896; 983.493; 447.970; 869.289; 180.000; -45.000; 24.489; 24.489; 0.000; 0.000; 0.000; -45.000; 0.000;
 7904; 982.882; 449.308; 869.289; 180.000; -45.000; 24.567; 24.567; 0.000; 0.000; 0.000; -45.000; 0.000;
 7912; 982.270; 450.646; 869.289; 180.000; -45.000; 24.645; 24.645; 0.000; 0.000; 0.000; -45.000; 0.000;
 7920; 981.656; 451.982; 869.289; -180.000; -45.000; 24.723; 24.723; 0.000; 0.000; 0.000; -45.000; 0.000;
 7928; 981.039; 453.318; 869.289; 180.000; -45.000; 24.801; 24.801; 0.000; 0.000; 0.000; -45.000; 0.000;
 7936; 980.421; 454.653; 869.289; 180.000; -45.000; 24.879; 24.879; 0.000; 0.000; 0.000; -45.000; 0.000;
 7944; 979.802; 455.987; 869.289; 180.000; -45.000; 24.957; 24.957; 0.000; 0.000; 0.000; -45.000; 0.000;
 7952; 979.180; 457.321; 869.289; 180.000; -45.000; 25.035; 25.035; 0.000; 0.000; 0.000; -45.000; 0.000;
 7960; 978.557; 458.653; 869.289; 180.000; -45.000; 25.113; 25.113; 0.000; 0.000; 0.000; -45.000; 0.000;
 7968; 977.931; 459.985; 869.289; 180.000; -45.000; 25.191; 25.191; 0.000; 0.000; 0.000; -45.000; 0.000;
 7976; 977.304; 461.315; 869.289; 180.000; -45.000; 25.269; 25.269; 0.000; 0.000; 0.000; -45.000; 0.000;
 7984; 976.676; 462.645; 869.289; -180.000; -45.000; 25.347; 25.347; 0.000; 0.000; 0.000; -45.000; 0.000;
 7992; 976.045; 463.974; 869.289; -180.000; -45.000; 25.425; 25.425; 0.000; 0.000; 0.000; -45.000; 0.000;
 8000; 975.412; 465.302; 869.289; -180.000; -45.000; 25.503; 25.503; 0.000; 0.000; 0.000; -45.000; 0.000;
 8008; 974.778; 466.629; 869.289; 180.000; -45.000; 25.581; 25.581; 0.000; 0.000; 0.000; -45.000; 0.000;
 8024; 973.504; 469.281; 869.289; 180.000; -45.000; 25.737; 25.737; 0.000; 0.000; 0.000; -45.000; 0.000;
 8032; 972.865; 470.606; 869.289; -180.000; -45.000; 25.815; 25.815; 0.000; 0.000; 0.000; -45.000; 0.000;
 8040; 972.223; 471.930; 869.289; 180.000; -45.000; 25.893; 25.893; 0.000; 0.000; 0.000; -45.000; 0.000;
 8048; 971.580; 473.253; 869.289; 180.000; -45.000; 25.971; 25.971; 0.000; 0.000; 0.000; -45.000; 0.000;
 8056; 970.935; 474.575; 869.289; 180.000; -45.000; 26.049; 26.049; 0.000; 0.000; 0.000; -45.000; 0.000;
 8064; 970.288; 475.896; 869.289; -180.000; -45.000; 26.127; 26.127; 0.000; 0.000; 0.000; -45.000; 0.000;
 8072; 969.639; 477.216; 869.289; -180.000; -45.000; 26.205; 26.205; 0.000; 0.000; 0.000; -45.000; 0.000;
 8080; 968.989; 478.536; 869.289; 180.000; -45.000; 26.282; 26.282; 0.000; 0.000; 0.000; -45.000; 0.000;
 8088; 968.336; 479.854; 869.289; -180.000; -45.000; 26.360; 26.360; 0.000; 0.000; 0.000; -45.000; 0.000;
 8096; 967.682; 481.172; 869.289; -180.000; -45.000; 26.438; 26.438; 0.000; 0.000; 0.000; -45.000; 0.000;
 8104; 967.026; 482.489; 869.289; 180.000; -45.000; 26.516; 26.516; 0.000; 0.000; 0.000; -45.000; 0.000;
 8112; 966.369; 483.805; 869.289; -180.000; -45.000; 26.594; 26.594; 0.000; 0.000; 0.000; -45.000; 0.000;
 8120; 965.709; 485.119; 869.289; -180.000; -45.000; 26.672; 26.672; 0.000; 0.000; 0.000; -45.000; 0.000;
 8128; 965.048; 486.433; 869.289; 180.000; -45.000; 26.750; 26.750; 0.000; 0.000; 0.000; -45.000; 0.000;
 8136; 964.385; 487.747; 869.289; -180.000; -45.000; 26.828; 26.828; 0.000; 0.000; 0.000; -45.000; 0.000;
 8152; 963.054; 490.370; 869.289; -180.000; -45.000; 26.984; 26.984; 0.000; 0.000; 0.000; -45.000; 0.000;
 8160; 962.385; 491.681; 869.289; 180.000; -45.000; 27.062; 27.062; 0.000; 0.000; 0.000; -45.000; 0.000;
 8168; 961.715; 492.990; 869.289; -180.000; -45.000; 27.140; 27.140; 0.000; 0.000; 0.000; -45.000; 0.000;
 8176; 961.043; 494.299; 869.289; 180.000; -45.000; 27.218; 27.218; 0.000; 0.000; 0.000; -45.000; 0.000;
 8184; 960.370; 495.606; 869.289; 180.000; -45.000; 27.296; 27.296; 0.000; 0.000; 0.000; -45.000; 0.000;
 8192; 959.694; 496.913; 869.289; -180.000; -45.000; 27.374; 27.374; 0.000; 0.000; 0.000; -45.000; 0.000;
 8200; 959.017; 498.219; 869.289; 180.000; -45.000; 27.452; 27.452; 0.000; 0.000; 0.000; -45.000; 0.000;
 8208; 958.338; 499.524; 869.289; -180.000; -45.000; 27.530; 27.530; 0.000; 0.000; 0.000; -45.000; 0.000;
 8216; 957.657; 500.828; 869.289; -180.000; -45.000; 27.608; 27.608; 0.000; 0.000; 0.000; -45.000; 0.000;
